/* XPM */
static char *_c521360760d4b53f8c021110bfbb6e6cjIJiip2nXiSQr0V[] = {
/* columns rows colors chars-per-pixel */
"256 256 256 2 ",
"   c #47704C",
".  c black",
"X  c #010101",
"o  c black",
"O  c black",
"+  c black",
"@  c black",
"#  c black",
"$  c black",
"%  c black",
"&  c black",
"*  c #030304",
"=  c black",
"-  c black",
";  c black",
":  c black",
">  c black",
",  c black",
"<  c black",
"1  c black",
"2  c black",
"3  c black",
"4  c black",
"5  c black",
"6  c #010101",
"7  c black",
"8  c black",
"9  c gray1",
"0  c black",
"q  c #010101",
"w  c #000101",
"e  c black",
"r  c gray1",
"t  c black",
"y  c black",
"u  c black",
"i  c black",
"p  c black",
"a  c #010101",
"s  c #0B0B0B",
"d  c None",
"f  c #050606",
"g  c #323232",
"h  c #010101",
"j  c #060606",
"k  c #040505",
"l  c #040405",
"z  c #74777A",
"x  c #040405",
"c  c #242526",
"v  c #5E5F60",
"b  c #4C4D4D",
"n  c #1F2021",
"m  c #363738",
"M  c #696B6E",
"N  c #868E96",
"B  c #383A3B",
"V  c #3E3F41",
"C  c #6E757B",
"Z  c #61676C",
"A  c #3D3E3E",
"S  c #5A5F64",
"D  c #545556",
"F  c gray32",
"G  c #6F757A",
"H  c #838B93",
"J  c #424343",
"K  c #262728",
"L  c #4A4D4F",
"P  c #505152",
"I  c #4C4E4F",
"U  c #575C61",
"Y  c #1A1C1D",
"T  c #9AA2A9",
"R  c #838C93",
"E  c #8A939A",
"W  c #01080B",
"Q  c black",
"!  c #010101",
"~  c #070708",
"^  c gray4",
"/  c #0C0D0D",
"(  c #101111",
")  c gray2",
"_  c gray6",
"`  c gray1",
"'  c #1B1D1E",
"]  c #1E1F1F",
"[  c #161717",
"{  c #1B1B1C",
"}  c #151516",
"|  c gray24",
" . c #272727",
".. c #373737",
"X. c #222526",
"o. c #343434",
"O. c #555555",
"+. c gray17",
"@. c #212223",
"#. c #212122",
"$. c #181A1B",
"%. c #171818",
"&. c gray26",
"*. c #373A3D",
"=. c #2F3134",
"-. c #282B2D",
";. c #4F5050",
":. c #26292B",
">. c #34373A",
",. c gray27",
"<. c #2F2F2F",
"1. c #606061",
"2. c #393D40",
"3. c #4A4B4B",
"4. c gray32",
"5. c #656565",
"6. c #121213",
"7. c #323232",
"8. c #45494D",
"9. c white",
"0. c #4C4D4D",
"q. c #2C2F32",
"w. c #2A2D2F",
"e. c gray23",
"r. c #242629",
"t. c #1E2021",
"y. c #5A5A5A",
"u. c gray16",
"i. c #FFC18E",
"p. c #42474A",
"a. c #474B4F",
"s. c #131414",
"d. c #6F7070",
"f. c #FFBD86",
"g. c #FFC392",
"h. c gray42",
"j. c #414448",
"k. c #FFD0AA",
"l. c #3C4043",
"z. c #4E5256",
"x. c #494E52",
"c. c #3E4245",
"v. c #FFCDA5",
"b. c #313437",
"n. c #FFC799",
"m. c #585D61",
"M. c #555A5E",
"N. c #5B6064",
"B. c #FFD3AF",
"V. c #FFE9D5",
"C. c #93989C",
"Z. c #191919",
"A. c #FFC596",
"S. c #4C5054",
"D. c #656A6E",
"F. c gray36",
"G. c #929597",
"H. c #FFC99D",
"J. c gray25",
"K. c #FFBF8B",
"L. c #767676",
"P. c #FFBE88",
"I. c #767B7F",
"U. c #505559",
"Y. c #B9BCBF",
"T. c #797E82",
"R. c #FFCBA1",
"E. c #686D71",
"W. c #FFE1C8",
"Q. c #53575B",
"!. c #81868A",
"~. c #8B9094",
"^. c #707579",
"/. c #8E9297",
"(. c #FFD9B9",
"). c #7C8185",
"_. c #868B8F",
"`. c gray14",
"'. c #5E6367",
"]. c #73787C",
"[. c #7F8488",
"{. c #2D2D2D",
"}. c #B6B8BB",
"|. c #888D91",
" X c #CCCFD2",
".X c #D1D3D6",
"XX c #C8CBCE",
"oX c #131516",
"OX c #B2B5B7",
"+X c #6B7074",
"@X c #ADB1B5",
"#X c #84888C",
"$X c #D5D7D9",
"%X c #BDC0C2",
"&X c #616569",
"*X c #A9ADB1",
"=X c #63676B",
"-X c #FFE5CE",
";X c #A5A9AD",
":X c #FFDEC2",
">X c #C4C7CA",
",X c #C0C3C6",
"<X c #6D7276",
"1X c #9CA0A4",
"2X c #FFD6B4",
"3X c gray34",
"4X c #818181",
"5X c #989898",
"6X c #7B7B7B",
"7X c #676868",
"8X c #A0A4A7",
"9X c #FFBB83",
"0X c #FFDBBD",
"qX c #929190",
"wX c #484848",
"eX c #E3E5E7",
"rX c gray28",
"tX c #999DA1",
"yX c #DEE0E1",
"uX c #5E5E5F",
"iX c #A1A0A0",
"pX c #888888",
"aX c #8C8D8D",
"sX c #FDFDFD",
"dX c #848485",
"fX c #7E7E7E",
"gX c #A4A5A5",
"hX c #D9DBDD",
"jX c gray45",
"kX c gray68",
"lX c #969BA0",
"zX c #B1B1B1",
"xX c #797979",
"cX c gray61",
"vX c #A1A6AA",
"bX c #A9A9A9",
"nX c #99A1A8",
"mX c #BE8D65",
"MX c #EDEDEE",
"NX c #E8AA78",
"BX c #3F3125",
"VX c #604E3F",
"CX c #C1AD9D",
"ZX c #3F3933",
"AX c #BD9879",
"SX c #503F31",
"DX c #806147",
"FX c #71553F",
"GX c #916C4E",
"HX c #CFBAA8",
"JX c #8F7E6F",
"KX c #EFCEB2",
"LX c #D09D73",
"PX c #9F7654",
"IX c #E7BE9D",
"UX c #DFCBBB",
/* pixels */
"                                                                                                                                                                          # # # # # # # # # # # # # # # #                                                                                                                                   # # # # # # # # # # # # # # # # #                                                                                                                                                   ",
"                                                                                                                                                                      # # # # # # # # # # # # # # # # # # #                                                                                                                               # # # # # # # # # # # # # # # # # # # #                                                                                                                                               ",
"                                                                                                                                                                    # # # # # # $ $ $ $ $ $ $ $ $ $ # # # # # #                                                                                                                       # # # # # # $ $ $ $ $ $ $ $ $ $ $ # # # # # # #                                                                                                                                           ",
"                                                                                                                                                                # # # # $ $ $ $ $ $ % % % % % % $ $ $ $ $ # # # # #                                                                                                                 # # # # $ $ $ $ $ $ % % % % % % $ $ $ $ $ $ # # # # #                                                                                                                                       ",
"                                                                                                                                                              # # # # $ $ $ $ % % % % % % % % % % % $ $ $ $ # # # #                                                                                                                 # # # $ $ $ $ % % % % % % % % % % % % $ $ $ $ $ # # # #                                                                                                                                     ",
"                                                                                                                                                            # # # # $ $ $ $ % % % O O O S H X O O O % $ $ $ $ # # # #                                                                                                             # # # $ $ $ $ % % % O O S U X O O O O O % $ $ $ $ $ # # #                                                                                                                                     ",
"                                                                                                                                                          # # # # $ $ $ % % % O O O = S nXnXH = O O O % % $ $ $ # # #                                                                                                             # # $ $ $ % % % O O O = v +Xz = = O O O O % % $ $ $ # # # #                                                                                                                                   ",
"                                                                                                                                                          # # # $ $ $ % % O O O = - . E nXvXT . = O O O % % $ $ $ # # #                                                                                                         # # $ $ $ % % % O O = - . M ^.].G . - = = O O O % $ $ $ # # #                                                                                                                                   ",
"                                                                                                                                                        # # # $ $ $ % % O = - . . + S nXnXN.T + . . - O O O $ $ $ # # #                                                                                                         # # $ $ $ % % O = - . . + N.I.T.z + + . - = O O O % $ $ $ # # #                                                                                                                                 ",
"                                                                                                                                                        # # # $ $ % % O = . . + o o E lXnX] T o + + . - O O % $ $ $ # # #                                                                                                     # # # $ $ % % O = - . + o o j.T.).[.G o o + . - O O O % $ $ $ # #                                                                                                                                 ",
"                                                                                                                                                      # # # $ $ $ % O O . + + o o * C.lX_.Q T @ o o + . = O O % $ $ # # #                                                                                                     # # # $ % % O O - . + o o * l.M.!._.R @ o o + . - O O % $ $ $ # #                                                                                                                                 ",
"                                                                                                                                                      # # $ $ $ % O O - + o o @ X H /.C.Q.Q lXX @ o o + . = O % $ $ $ # # #                                                                                                 # # # $ $ % % O - . + o @ X Z >.*._.~./.Z X @ o + . - O O % $ $ $ #                                                                                                                                 ",
"                                                                                                                                                    # # # $ $ % % O - . o o @ > > R /./.q.Q ~.> > X o o . - O O % $ $ # # #                                                                                                 # # # $ $ % O = . + o @ X > Z t.( ~./.C.N > X @ o + . = O O % $ $ # #                                                                                                                               ",
"                                                                                                                                                    # # $ $ $ % O = . + o X > > G _.|.~.~ Q +X* > > @ o + . = O % $ $ # # #                                                                                                 # # # $ % % O - . o @ X > & Z @.Q ).C.lXnXS > X @ o + . O O % $ $ $ #                                                                                                                               ",
"                                                                                                                                                  # # # $ $ % O O . + o X > & & z #X_.<XQ Q D.Z & > > @ o + - O O $ $ $ # #                                                 #                                               # # $ $ % O = . + o X > & * C ( Q m.lXnXnXE & > > @ o + - O O % $ $ # #                                                                                                                             ",
"                                                                                                                                                  # # # $ $ % O - . o @ > > , Z ).[.!.a.Q Q S.L * & > X o + . = O % $ $ # # #                   # # # # # # # # # # # # # # # # # # # # # # # # # # # #                   # # # $ $ % O - . o @ > & , 2 C Q Q *.lXnXvXvXS & > X o + . = O % $ $ # #                                                                                                                             ",
"                                                                                                                                                # # # $ $ % O = . + o X > & * C T.).).:.Q Q c.G 2 * & > @ o . = O % $ $ # # # #     # # # # # # # # # # # # # # # # # # # # # # # # # # # # # # # # # # # # # # # # # # # # # # $ $ % O - + o X > & * 2 C Q Q 6.lXnXvXvXH * & > X o + - O O % $ # # #                                                                                                                           ",
"                                                                                                                                                # # # $ $ % O - + o @ > & * q ].I.I.T._ Q Q r.C < * & > X o + - O O $ $ $ # # # # # # # # # # # # # # # $ $ $ $ $ $ $ $ $ $ $ $ $ $ $ $ $ $ $ $ # # # # # # # # # # # # # # # $ $ % O = . + @ X & * 2 4 D Q Q Q ~.nXnXnXT 2 * & > @ + . = O % $ # # #                                                                                                                           ",
"                                                                                                                                                # # $ $ $ % O . + o X > * 2 U ^.^.].I.Q Q Q t.C 6 2 * & > @ + . O O % $ $ # # # # # # # # $ $ $ $ $ $ $ $ $ $ $ $ $ $ $ $ $ $ $ $ $ $ $ $ $ $ $ $ $ $ $ $ $ $ # # # # # # # $ $ $ % O = . o @ > & 2 < 6 J Q Q Q +XlXlXnXlXZ 2 , > X o + - O O $ $ # #                                                                                                                           ",
"                                                                                                                                              # # # $ $ % O - . o @ > & 2 4 M +X<X^.Q.Q Q Q / v 6 < * & > @ o . = O % $ $ $ $ $ $ $ $ $ $ $ $ $ $ $ % % % % % % % % % % % % % % % % % % % % % % % % $ $ $ $ $ $ $ $ $ $ $ $ $ $ $ % O - + o X > * 2 6 ; l.Q Q Q 8./.C.C./.E < * & > @ + . = O % $ # # #                                                                                                                         ",
"                                                                                                                                              # # # $ $ % O . + o X & * < L D.E.E.+Xp.Q Q Q Q M ; 6 2 , > X o + - O O % $ $ $ $ $ $ $ $ % % % % % % O O O O O O O O O O O O O O O O O O O O O O O O O O % % % % $ $ $ $ $ $ $ $ % O = . + o X & * < ; e w.Q Q Q b.~././.~.R 6 2 * > X o . - O O $ $ # #                                                                                                                         ",
"                                                                                                                                            # # # $ $ % O = . o @ > & 2 6 I &X=XD.E.>.Q Q Q Q F e ; < * & X o + . = O O % % % % % % % % O O O O O = = = - - - . . . . . . . . . . . . . . - - - - = = = O O O O O O O % % % % % % O - . o @ > & 2 6 ; 5 ' Q Q Q @._._._._._.G 4 2 & > @ + . O O $ $ # # #                                                                                                                       ",
"                                                                                                                                            # # # $ $ % O - + o X & * < ; '.'.&X&X=X$.Q Q Q Q 8.q ; 4 2 & > @ o . - = O O O O O O O O O = - - . . . . + + + + + + + o o o o o o o o o + + + + + + . . . . - = = O O O O O O O O O = . + o X > , < 6 e V ~ Q Q Q Q !.!.!.!.[.C 6 2 * > @ o . = O % $ # # #                                                                                                                       ",
"                                                                                                                                            # # $ $ % % O . o @ > & 2 6 B m.m.N.'.'.$.Q Q Q Q b.3 e 6 2 , > X o + . - = O O O = = - . . . + + + o o o o o o @ @ @ @ @ @ @ @ @ @ @ @ @ @ @ @ @ o o o o o + + . . . - - = = = = = - . . o @ X & * < ; q V Q Q Q Q Q T.).).).).T.q 4 * & X o + - O % $ $ # #                                                                                                                       ",
"                                                                                                                                          # # # $ $ % O = . o X > * < ; b Q.M.m.m.N.) Q Q Q Q X.V q ; < * & X @ o + . . . . . . . + + o o o o @ @ X X Z G H E N N C.C.C.C.C.C.N N N N N H H G Z S X @ @ @ o o o o + + . . . . . . + + o X > & 2 6 7 : c Q Q Q Q Q m.I.I.I.].].U 6 2 & > @ + . O O $ $ # # #                                                                                                                     ",
"                                                                                                                                          # # # $ $ % O - + @ > & 2 4 ; P U.Q.Q.M.M.Q Q Q Q Q %.B q ; 6 2 , > X @ o + + + + + o o o @ @ X * Z H N R /./.vX*XOX,X>X X$X$X$X$X$X$X$X>X,X,X%X@X@XnXnX|.N N H G S X @ @ o o o o + + o o o @ > & * 2 6 e : c Q Q Q Q Q Q.^.^.^.^.<XM ; < * > X o . = O % $ # # #                                                                                                                     ",
"                                                                                                                                          # # $ $ % O = . + @ > , 2 6 B x.S.z.U.U.Q.Q Q Q Q Q ) I : e 6 < * & > X @ o o o o @ @ X * G C N |.|.nX*X%XXX.X.X.X.X.X.X.X.X.X.X.X.X X.X X.X X X X X X X X>XY.;XlX|.R C G S X @ @ @ @ @ @ X > > & * < ; q 5 n Q Q Q Q Q a.+X+X+XE.E.D.r 6 2 & > o + - O O $ $ # # #                                                                                                                   ",
"                                                                                                                                        # # # $ $ % O = + o > & * 4 ; m 8.a.x.S.S.x.Q Q Q Q Q Q b 5 q ; 6 2 * & > > > > > > S G N #X_./.;X}. X X X X X X X X X X X X X X X X$X X X XXX XXXXXXXXX>XXX>X>X>X>X>XY.*XlX!.z C Z > > > > > & , * < 6 e : 3 l Q Q Q Q Q b.D.D.D.D.=X&XI ; < * > X o . = % % $ # # #                                                                                                                   ",
"                                                                                                                                        # # $ $ % % O - + @ > , 2 6 e A p.8.8.a.x.*.Q Q Q Q Q Q K 3 : e ; 4 2 * , & & * G z [.!./.*X,XXXXXXXXXXXXXXXXXXX X.XhXyXyXeXeXeXeXeXeXeXeXeXeXeXyXhX$X XXX>X,X,X,X,X,X%X%X%X%X@XC.[.z C S & , * 2 < 6 ; q 5 0 oXQ Q Q Q Q =.'.'.'.'.'.N.D e 4 * & > o + - O % $ $ # # #                                                                                                                 ",
"                                                                                                                                      # # # $ $ % O = . o @ > * < ; B l.c.j.p.p.8.>.Q Q Q Q Q ~ n 0 5 q e ; < < 2 Z C ).).!.1X}.>X>X>X>X>X>X>X>XXX.XhXeXeXeXeXeXeXeXeXeXeXeXeXeXeXeXeXeXeXeXeXeXeXyX$X X,X%XY.Y.Y.Y.Y.}.}.}.8X|.].z L 2 < 6 ; q : 3 8 Q Q Q Q Q Q q.m.m.N.m.m.m.M.5 6 2 , > @ o . O O $ $ # # #                                                                                                                 ",
"                                                                                                                                      # # # $ $ % O - + o X & 2 6 7 m 2.2.l.c.j.j.b.Q Q Q Q Q Q X.y 3 : q e ; L z T.T.!.vXY.%X%X%X,X%X,X,X>X XyXeXeXeXeXeXeXeXeXeXeXeXeXeXeXeXeXeXyXeXyXyXyXyXyXyXyXyXyXyX$XXXY.}.}.OXOXOXOX@X@X;X~.].M U 7 q : 3 0 9 Q Q Q Q Q Q -.Q.M.Q.Q.Q.U.U.B ; < * > X o . = % % $ # # #                                                                                                                 ",
"                                                                                                                                      # # $ $ % % O - + @ > , 2 6 q *.>.*.2.2.l.l.=.Q Q Q Q Q Q 6.w 0 3 5 V z I.I.[.8XY.Y.Y.Y.Y.Y.Y.Y.>X$XyXyXyXyXyXyXyXyXyXyXyXyXyXyXyXyXyXyXyXyXyXyXyXyXyXyXyXhXyXhXhXhXhXhXhX XY.@X@X@X*X*X*X*X*X;X|.^.M U 5 0 r c Q Q Q Q Q Q :.z.z.z.z.S.S.x.J 7 6 2 & > o + - O % $ $ # #                                                                                                                 ",
"                                                                                                                                    # # # $ $ % O = . o @ > * < ; w =.b.>.>.*.*.2.w.Q Q Q Q Q Q ~ g r V M ^.].).1XOXOX}.OX}.}.}.}.,X$XyXhXyXyXyXyXyXyXyXyXyXyXyXyXyXyXhXyXhXyXhXyXhXhXhXhXhXhXhXhXhXhXhX$XhX$X$X$X$XXX}.*X;X;X;X;XvXvXvXtX).E.M B p x Q Q Q Q Q Q r.x.x.x.a.a.8.8.p.q 6 2 , > @ + - O O $ $ # # #                                                                                                               ",
"                                                                                                                                    # # # $ $ % O - + o X & 2 6 e c q.q.=.b.b.>.>.=.Q Q Q Q Q Q ! m v <X^.^./.*X@X@X@X@X@XOX@XY. XhXhXhXhXhXhXhXhXhXhXhXhXhXhXhXhXhXhXhXhXhXhXhX$XhXhXhX$XhX$X$X$X$X$X$X$X$X$X.X.X.X.X.X>X*XvXvX8X8X1X1X1X1X/.^.D.b l Q Q Q Q Q Q @.p.p.p.p.p.j.j.c.B ; < * > X o . = % % $ # # #                                                                                                               ",
"                                                                                                                                    # # $ $ $ % O . + @ > & 2 ; q n -.-.w.q.=.=.=.b.Q Q Q Q Q ^ l.&X<X<X).8X*X*X*X*X*X*X@X@X>X$X$X$X$X$X$X$X$X$X$X$X$X$X$X$X$X$X$X$X$X$X$X$X$X$X$X$X$X.X$X$X.X$X.X.X.X.X.X.X X.X X.X X X X X}.1X1XtXtXtXlXlXC.C.).U.z.6.Q Q Q Q Q t.c.c.c.l.l.l.2.2.m e 6 * & > o . = O % $ $ # #                                                                                                               ",
"                                                                                                                                    # # $ $ % % = . o @ > * < ; 8 X.r.:.:.-.w.w.q.q.Q Q Q Q / 8.U.m.+X_.vXvXvXvX;X;X;X;X@XXX.X.X.X.X.X$X.X$X.X$X.X$X.X$X.X$X.X$X.X$X.X$X.X.X.X.X.X.X.X.X.X.X.X.X X.X X X X X X X XXXXXXXXXXXXX%X1XlXC.C.C.G.G./.~.=XS.Q.-.Q Q Q Q X.2.2.2.*.*.*.>.b.A q 6 2 & > o + - O % $ $ # # #                                                                                                             ",
"                                                                                                                                    # # $ $ % O - + o X > * 6 e s t.@.X.X.r.:.:.:.-.) Q Q 6.z.z.U.M.C.1X1X8X8X8X8X8X8X@X X X X X X.X X X.X X.X X.X.X X.X.X X.X X.X X.X X.X X.X X X X X X X XXX X XXX XXXXXXXXXXXXXXX>XXX>X>X>X>X,X1XG./././.~.~.[.E.D.z.z.2.) Q Q :.>.>.>.b.b.b.=.=.q.8 ; < * > @ o . O O $ $ # # #                                                                                                             ",
"                                                                                                                                    # # $ $ % O . + @ > & 2 ; q x ' ' t.@.@.@.X.r.r.^ Q t.z.S.z.m.^.G.tXtXtXtX1X1X1X@XXXXX XXX X XXX X XXX X X XXX X X X X X X X X X X X X X XXX X XXXXXXXXXXXXXXXXXXX>XXX>X>X>X>X>X>X,X,X,X,X,X,X,X8X~.~.|._._.I.D.=X&XU.x.x.) Q X.q.q.q.q.q.w.w.-.:.g 7 4 * & X o . = O % $ $ # #                                                                                                             ",
"                                                                                                                                    # $ $ % % O . o @ > , 2 ; : Y %.$.{ ' ] t.t.@.@./ r.Q.S.S.m.<X^._.C.C.C.lXlXlX*X>XXX>X>XXXXX>XXXXXXXXXXXXXXXXXXXXXXXXXXXXXXXXXXX>XXX>XXXXXXXXX>XXX>XXX>X>X>X>X>X>X>X,X>X,X,X,X,X,X,X%X%X%X%X%X%XY.tX_.#X#X!.+X&X&X&X'.z.x.a.^ -.-.-.-.-.:.:.r.r.X.K q 6 2 & > o + - O O $ $ # #                                                                                                             ",
"                                                                                                                                  # # $ $ % O = . o X > * < e 1 6.s.oX[ %.$.$.{ ' ' c.U.x.S.M.+X+X+X)././.G.G.G.vX,X,X,X,X>X>X>X>X,X>X>X>X>X>X>X>X>X>X>X>X>X>X>X>X>X>X>X>X>X>X>X,X>X>X>X,X,X,X,X,X,X,X,X,X%X%X%X%X%X%X%XY.Y.Y.Y.Y.Y.}.}./.[.[.[.D.'.'.N.N.N.S.a.U.q.X.X.X.X.X.@.@.t.t.Y q ; < * > @ + . O O $ $ # # #                                                                                                           ",
"                                                                                                                                  # # $ $ % O = + o X & 2 6 q j _ ( ( 6.s.oX[ %.%.p.U.x.x.M.E.E.E.E.^.~.~.~./.lXY.%X,X%X,X%X,X,X,X,X,X,X,X,X,X,X,X,X,X,X,X,X,X,X,X,X,X,X,X,X,X,X,X,X%X%X,X%X%X%X%X%X%XY.Y.Y.Y.Y.Y.Y.}.}.}.}.}.}.}.OXOXOX@X!.T.T.N.N.N.m.m.m.M.x.8.x.@.t.t.] ] ' ' $.$.%.1 7 4 * > @ o . = O $ $ # # #                                                                                                           ",
"                                                                                                                                  # $ $ $ % O - + @ > & 2 6 q k ^ / / _ ( ( 6.6.l.z.a.a.Q.=X=XD.D.D.E._._.|.|.OXY.Y.Y.%X%X%X%XY.%X%X%X%X%X%X%X%X%X%X%X%X%X%X%X%X%X%X%X%X%X%XY.%XY.%XY.%XY.Y.Y.Y.Y.Y.Y.Y.Y.}.}.}.}.}.}.}.OXOXOXOXOX@X@X@X@X8XI.].m.m.M.M.M.M.Q.Q.a.8.x.' $.$.%.%.[ oXs.6.j e 6 2 & X o . = O % $ $ # #                                                                                                           ",
"                                                                                                                                  # $ $ % % O . o @ > * < ; : d ) ~ ~ ^ / / _ w.U.8.8.U.'.&X&X&X&X=X=X!.#X#X1X}.}.}.}.}.}.}.}.Y.Y.}.Y.Y.Y.Y.Y.Y.Y.Y.Y.Y.Y.Y.Y.Y.Y.Y.Y.Y.Y.Y.Y.Y.Y.Y.}.Y.}.Y.}.}.}.OX}.OXOXOXOXOXOXOX@X@X@X@X@X@X*X*X*X*X*X*X_.+XM.M.Q.Q.Q.U.U.U.z.p.a.c.s.6.6.6.( ( _ / k q ; 2 & > o + - O % $ $ # #                                                                                                           ",
"                                                                                                                                # # $ $ % O = . o X > * 4 ; i ! ! ` ) ~ ~ ~ ] Q.p.8.x.m.N.N.'.'.'.'.'.I.[.!.@XOXOXOXOX}.OX}.OX}.OX}.OX}.}.}.}.}.}.}.}.}.}.}.}.}.}.}.}.}.}.}.OX}.OXOX}.OXOXOXOXOXOXOX@XOX@X@X@X@X@X*X@X*X*X*X*X*X*X;X;X;X;X;X8XD.Q.U.U.U.U.z.z.S.S.a.j.x.=./ / / ^ ^ ~ ~ d : ; < , > @ + . O O $ $ # # #                                                                                                         ",
"                                                                                                                                # # $ $ % O = . o X & 2 6 e j ! ! ! ! ! ` _ z.p.p.8.M.m.m.m.m.N.N.N.N.^.T.C.@X@X@X@X@X@X@X@X@X@XOX@XOX@XOX@XOXOXOXOXOXOXOXOXOXOXOXOX@XOX@XOX@XOX@XOX@X@X@X@X@X@X@X@X*X@X*X@X*X*X*X*X;X;X;X;X;XvXbXvXvX8X8X8X8X].U.z.z.z.S.S.x.x.x.a.p.l.S.$.~ ~ ) ) ` ! ! i e 6 * > X o . = % $ $ # # #                                                                                                         ",
"                                                                                                                                # # $ $ % O - + @ > , 2 6 q x ! ! ! ! ! ! p.8.p.p.U.M.M.M.M.M.m.m.m.m.E.I.vX*X*XkX*X*X*X@X*X@X*X@X*X@X@X@X@X@X@X@X@X@X@X@X@X@X@X@X@X@X@X@X@X@X@X@X*X@X*X@X*X*X*X*X*X;X;X;X;X;X;X;XvX;XvXvX8X8X8X8X8X1X1X1X1XtX[.S.S.S.x.x.x.a.a.8.8.p.c.c.a.~ ! ! ! ! ! ! s e 6 2 & X o + - O % $ $ # #                                                                                                         ",
"                                                                                                                                # # $ % % O . + X > * < ; q l ! ! ! ! ! =.x.j.j.a.U.U.U.Q.Q.Q.Q.M.M.M.D.T.;XvX;X;X;XbX;X;X;X;X;X;X;X*X;X*X*X*X*X*X*X*X*X*X*X*X*X*X;X*X*X;X*X;X;X*X;X;X;X;X;X;X;X;X;XvX;XvXvXvX8X8X8X8X8X1X1X1X1X1X1XtXtXtXlXlXT.U.x.x.a.a.8.8.p.p.p.j.j.l.p.>.! ! ! ! ! ! x q ; 2 & > o + . O % $ $ # #                                                                                                         ",
"                                                                                                                                # # $ % O = . o X & * 4 7 : ! ! ! ! ! oXz.j.j.j.S.z.z.z.U.U.U.U.Q.Q.Q.m._.8X8X8X8X8XvXvXvXvXvXvX;XvX;X;X;XvX;XvX;XvX;XvX;XvX;XvX;X;X;X;XvX;XvX;XvX;XvXvXvXvXvXvX8X8X8X8X8X1X1X1X1X1X1XtXtXtXtXlXlXlXC.C.C.C.G.I.m.a.8.8.8.p.p.p.j.j.c.c.l.2.a.$.! ! ! ! ! l : ; 2 , > @ + . O O $ $ # # #                                                                                                       ",
"                                                                                                                              # # # $ % O = . o > & 2 6 e 1 ! ! ! ! ! 8.j.c.c.a.x.x.S.S.S.S.z.z.z.z.U.M.~.1X1X1X1X1X1X1X1X8X8X8X8X8X8X8X8X8X8X8X8X8X8XvXvX8XvXvXvXvX8X8XvX8X8X8X8X8X8X8X8X1X1X1X1X1X1X1XtXtXtXtXtXlXlXlXC.C.C.C.C.G.G.G.G././.L.N.8.p.p.p.p.j.j.c.c.l.l.l.2.l.c.! ! ! ! ! d : 7 < * > X o . O O $ $ # # #                                                                                                       ",
"                                                                                                                              # # # $ % O - + o > & 2 6 q j ! ! ! ! :.x.l.l.j.a.a.a.a.x.x.x.S.S.S.S.S.U.~.lXlXlXtXtXtXtXtXtXtXtX1X1X1X1X1X1X1X1X1X1X1X1X1X1X1X1X1X1X1X1X1X1X1X1X1X1XtX1XtXtXtXtXtXlXlXlXlXlXC.C.C.C.C.C.G.G.G././././.~.~.~.~.E.'.p.p.j.j.j.c.c.l.l.l.2.2.2.*.j.X.! ! ! ! ! i e 4 * & X o + = O % $ # # #                                                                                                       ",
"                                                                                                                              # # $ $ % O - + o > , < ; q f ! ! ! ) a.l.l.l.p.p.8.8.8.8.a.a.a.x.x.x.x.S.C.C.C.C.C.C.C.C.lXlXlXlXlXlXlXlXlXtXtXtXtXtXtXtXtXtXtXtXtXtXtXtXtXlXlXlXlXlXlXlXlXlXlXC.C.C.C.C.C.C.C.G.G.G././././.~.~.~.~.|.|.|.|._.D.N.j.j.j.c.c.l.l.l.l.2.2.2.*.*.2.j.) ! ! ! ! 9 q 6 2 & > o + = O % $ $ # #                                                                                                       ",
"                                                                                                                              # # $ % O = . o @ > * < ; : l ! ! ! r.8.2.l.l.j.j.p.p.p.p.8.8.8.8.a.a.a.a./././.G.G.G.G.G.G.G.C.G.C.C.C.C.C.C.C.C.C.C.C.C.C.C.C.C.C.C.C.C.C.C.C.C.C.C.C.C.C.G.C.C.G.G.G.G././././.~.~.~.~.~.|.|.|.|._._._.#X#X#X=XN.j.j.c.c.l.l.l.l.2.2.2.*.*.*.>.c.X.! ! ! ! f : ; 2 & > @ o - O O $ $ # # #                                                                                                     ",
"                                                                                                                            # # # $ % O = . o X & * 4 7 : h ! ! ) x.2.2.2.l.c.c.j.j.j.j.p.p.p.p.8.8.8.8._.~.~.~.~.~.~././././././././.G.G.G.G.G.G.G.C.G.C.G.C.G.C.G.C.G.C.G.G.G.G./.G././././././././.~.~.~.~.~.~.|.|.|.|.|._._.#X#X#X#X!.!.!.&Xm.j.c.c.l.l.l.l.2.2.2.*.*.*.*.>.*.c.) ! ! ! k : ; < * > @ o . O O $ $ # # #                                                                                                     ",
"                                                                                                                            # # # $ % O - + o X & 2 6 e : ! ! ! r.p.*.2.2.l.l.l.l.c.c.c.j.j.j.p.p.p.8.8.I._._.|.|.|.|.|.|.~.~.~.~.~.~.~.~././././././././././././././././././././././.~./.~.~.~.~.~.~.|.|.|.|.|.|._._._.#X#X#X#X#X!.!.[.[.[.[.&XM.c.c.l.l.l.l.2.2.2.*.*.*.*.>.>.>.l.] ! ! ! l : 7 < * > X o . = O % $ # # #                                                                                                     ",
"                                                                                                                            # # # $ % O - + o > & 2 6 q 9 ! ! ) j.2.*.*.2.2.2.l.l.l.l.c.c.j.j.j.j.p.p.p.<X#X#X#X#X_._._._._.|.I.0.uX|.|.|.|.~.~.~.~.~.~.~.~.~.~.~.~.~.~.~.~.~.~.~.~.~.~.|.|.|.|.|.|._._._._._.#X#X#X#X#X!.!.!.^.wXQ.[.).).).I.'.U.c.l.l.l.l.2.2.2.*.*.*.*.>.>.>.>.*.*.! ! ! ! 5 e 6 * & X o . = O % $ $ # #                                                                                                     ",
"                                                                                                                            # # $ $ % O . + @ > , 2 ; q 9 ! ! { p.*.*.*.*.2.2.2.l.l.l.l.c.c.c.j.j.j.p.p.&X!.!.!.!.#X#X#X#X#X].b.<.<.=X_._._._._._.|.|.|.|.|.|.|.|.|.|.|.|.|.|.|.|._._._._._._._._._.#X#X#X#X#X!.!.!.!.[.[.[.[...-.-.3.T.T.T.^.N.a.l.l.l.l.2.2.2.2.*.*.*.>.>.>.>.b.b.l.oX! ! ! r e 6 2 & > @ + = O % $ $ # #                                                                                                     ",
"                                                                                                                            # # $ $ % = . o @ > * < ; : f ! ! *.l.>.*.*.*.*.2.2.2.2.l.l.l.c.c.c.j.j.j.j.M.).[.[.[.[.[.!.!.!.*.w.w.{.*.#X#X#X#X#X#X_._._._._._._._._._._._._._._.#X#X#X#X#X#X#X#X#X!.!.!.!.[.[.[.[.[.).).).).N.+.-.-.+.uXI.I.<Xm.c.l.l.l.2.2.2.*.*.*.*.>.>.>.>.b.b.b.*.w.! ! ! 9 q 6 2 & > @ + - O O $ $ # #                                                                                                     ",
"                                                                                                                            # # $ $ O = . o @ > * 4 7 : f ! ^ p.*.>.>.*.*.*.*.2.2.2.2.l.l.l.l.c.c.j.j.j.U.^.).).).).).).[._.w.w.w.w.w.&X!.!.!.!.!.!.!.#X!.!.!.!.!.#X#X!.!.!.!.!.!.!.!.!.!.[.[.[.[.[.[.[.).).).).).).T.T.T.T.b.u.:.:.=.1.I.].+Xz.l.l.l.2.2.2.*.*.*.*.>.>.>.>.b.b.b.=.b.l.) ! ! s q ; 2 , > @ + - O O $ $ # # #                                                                                                   ",
"                                                                                                                          # # # $ $ O = . o X > * 6 e : l ! ] c.>.>.>.>.*.*.*.*.2.2.2.2.l.l.l.l.c.c.c.j.z.=XT.T.T.T.T.).#XC...-.-.-.+.=.T.[.[.[.[.[.[.[.[.[.[.[.[.[.[.[.[.[.[.[.[.[.[.[.).).[.).).).).).T.T.T.T.T.T.I.I.I.z.:.u.:.{.7.=X|.^.E.p.l.2.2.2.2.*.*.*.*.>.>.>.>.b.b.b.=.=.=.2.%.! ! f : ; < * > @ + . O O $ $ # # #                                                                                                   ",
"                                                                                                                          # # # $ $ O - + o X & 2 6 e 5 l ! >.*.b.>.>.>.>.*.*.*.*.2.2.2.2.l.l.l.l.l.c.c.z.Q.^.I.I.I.I.!.G.C.<X{.-.+.+.+.U.).).).).).).).).).).).).).).).).).).).).).T.).).T.T.T.T.T.T.I.T.I.I.I.I.].].].<Xw. . .:.7.&.#X~.).&Xl.2.2.2.2.*.*.*.*.>.>.>.>.b.b.b.b.=.=.q.>.:.! ! f : 7 < * > X o . = O % $ # # #                                                                                                   ",
"                                                                                                                          # # # $ % O - + o X & 2 6 q 5 d ~ c.b.b.b.>.>.>.>.*.*.*.*.2.2.2.2.2.l.l.l.l.c.S.Q.N.].].].T./.G.G.G.3X-.u.u.-.q.].T.T.T.T.T.T.T.T.T.T.T.T.T.T.T.T.T.T.T.T.T.I.I.I.I.I.I.I.I.I.].].].].].].^.^.x.r. . .{...I.|._.#XQ.2.2.2.2.*.*.*.*.>.>.>.>.b.b.b.b.=.=.q.q.=.2.! ! l : e 4 * & X o . = O % $ # # #                                                                                                   ",
"                                                                                                                          # # # $ % O - + o > & 2 ; q 5 ! %.l.=.b.b.b.>.>.>.>.>.*.*.*.*.2.2.2.2.l.l.l.l.S.U.Q.=X^.^._.~./././.|.J.:.:.u.:.S.I.I.].I.I.I.I.I.I.I.I.I.I.I.I.I.I.].I.].I.].].].].].].].].^.^.^.^.^.<X^.<XE.-.r. .+.<.=X_._.#XT.N.2.2.2.*.*.*.*.>.>.>.>.b.b.b.b.=.=.q.q.q.w.*.6.! l : e 6 * & X o . = O % $ $ # #                                                                                                   ",
"                                                                                                                          # # $ $ % O . + @ > & < ; q 3 ! :.*.=.=.b.b.b.>.>.>.>.>.*.*.*.*.2.2.2.2.2.l.l.x.U.U.Q.E.).|.~.~.~.~.~.T.=.:. . .{.<X].].].].].].].].].].].].].].].].].].].].].^.^.^.^.^.^.^.<X<X<X<X<X+X+X+Xa.r.X.r.<.;.#X#X#X[.<XE.2.*.*.*.*.>.>.>.>.>.b.b.b.b.=.=.q.q.q.w.w.>.t.! l 5 e 6 2 & > o . = O % $ $ # #                                                                                                   ",
"                                                                                                                          # # $ $ % O . + @ > , < ; : u ! >.b.=.=.=.b.b.b.>.>.>.>.>.*.*.*.*.2.2.2.2.2.l.x.z.U.U.M._.|.|.aX|.aX|.|.&X:.r. . .j.^.<X^.^.^.^.^.^.^.^.^.^.^.^.^.^.<X^.<X<X<X<X<X<X<X<X+X+X+X+X+X+XE.E.E.'.X.X.`.+.*.).!.!.).^.+XD.l.*.*.*.>.>.>.>.>.b.b.b.=.=.=.q.q.q.w.w.w.=.w.! ! 5 q 6 2 & > o + - O % $ $ # #                                                                                                   ",
"                                                                                                                          # # $ $ % = . o @ > * 4 ; : 9 ~ 2.=.q.=.=.=.b.b.b.b.>.>.>.>.>.*.*.*.*.2.2.2.2.a.z.z.z.D.I.#X_._._._._.aX_.3.r.r. . .=X+X+X+X<X<X<X<X<X<X<X<X+X+X+X+X+X+X+X+X+X+X+X+X+XE.E.E.E.E.E.D.D.D.D.2.X.X. .{.^.[.[.).<X+X=X'.c.*.*.>.>.>.>.>.b.b.b.=.=.=.q.q.q.w.w.w.-.q.>.` ! 5 q ; 2 , > o + - O O $ $ # #                                                                                                   ",
"                                                                                                                          # # $ $ % = . o @ > * 4 7 : 9 _ 2.q.q.q.=.=.=.b.b.b.b.>.>.>.>.>.*.*.*.*.*.2.2.a.S.S.M.E.<X].[.#X#X#X#X#X#X[...X.X.X.l.E.+XE.E.E.E.E.E.E.E.E.E.+XE.E.E.E.E.E.E.E.D.E.D.D.D.D.D.D.D.=X=X=Xm.@.@.`.{.m.).).T.<XE.=XN.M.l.>.>.>.>.>.b.b.b.b.=.=.=.q.q.q.w.w.w.-.-.-.>./ ! 3 q ; 2 , > @ + - O O $ $ # #                                                                                                   ",
"                                                                                                                          # # $ $ % = . o X > * 6 e : 9 ' >.w.q.q.q.=.=.=.b.b.b.b.>.>.>.>.>.*.*.*.*.*.2.8.x.S.N.&XD.+X^.).!.!.!.!.!.!.^.r.X.X.X.N.D.D.D.E.D.E.D.E.D.E.D.D.D.D.D.D.D.D.D.D.=X=X=X=X=X=X&X&X&X&X&X&X*.@.#.u.p.).).I.<XE.&XN.M.z.2.>.>.>.>.b.b.b.b.=.=.=.q.q.q.w.w.w.-.-.-.:.b.$.! 3 : ; < * > @ + . O O $ $ # #                                                                                                   ",
"                                                                                                                          # # $ $ % = . o X > * 6 e : 9 r.b.w.w.q.q.q.q.=.=.=.b.b.b.b.>.>.>.>.>.*.*.*.*.8.x.z.M.N.&XD.+X<XI.[.[.dX[.[.[.Q.X.@.@.>.=X=X=X=X=X=X=X=X=X=X=X=X=X=X=X=X&X&X&X&X&X&X&X&X'.'.'.'.'.N.N.U.t.t.X.<.].T.].+XD.'.m.Q.z.x.2.>.>.>.b.b.b.b.=.=.=.q.q.q.w.w.w.-.-.-.:.:.=.@.! 3 : ; < * > @ + . O O $ $ # # #                                                                                                 ",
"                                                                                                                        # # # $ $ % = . o X & * 6 e 5 9 :.=.-.w.w.q.q.q.q.=.=.=.b.b.b.b.>.>.>.>.>.>.*.*.p.a.z.U.M.m.'.=XE.<X].T.).).).).).| @.@.@.z.'.&X&X&X&X&X&X&X&X&X'.'.'.'.'.'.'.'.'.'.'.N.N.N.N.N.N.N.m.m.q.t.#.u.=X].<X+X=X'.m.U.S.a.8.*.>.b.b.b.b.=.=.=.q.q.q.q.w.w.w.-.-.-.:.:.:.q.:.! t : ; < * > @ o . O O $ $ # # #                                                                                                 ",
"                                                                                                                        # # # $ % % - + o X & * 6 q 5 9 >.q.-.-.w.w.q.q.q.q.=.=.=.b.b.b.b.b.>.>.>.>.>.>.p.a.x.S.U.Q.m.N.&XE.+X^.].T.fXT.T.I.-.t.t.=.N.N.N.N.N.N.N.N.N.N.N.N.N.N.N.N.N.N.N.m.m.m.m.m.m.m.m.M.M.a.] ]  .;.^.+XE.=XN.M.U.S.a.p.p.*.b.b.b.b.=.=.=.q.q.q.q.w.w.-.-.-.:.:.:.:.r.-.=.! 9 : 7 4 * > @ o . O O % $ # # #                                                                                                 ",
"                                                                                                                        # # # $ % O - + o X & 2 6 q 5 f b.w.-.-.-.w.w.w.q.q.q.q.=.=.=.b.b.b.b.>.>.>.>.>.8.8.8.a.S.z.Q.M.N.&XD.+X<X^.].I.I.I.=X#.] t.x.m.m.m.m.m.m.m.m.m.m.m.m.m.m.m.m.M.M.M.m.M.M.M.M.M.Q.Q.Q.-.' @.*.+X+XE.&Xm.Q.z.x.8.p.p.j.2.b.b.=.=.=.=.q.q.q.q.w.w.-.-.-.:.:.:.r.r.r.-.q.~ 9 : e 6 * & @ o . = O % $ # # #                                                                                                 ",
"                                                                                                                        # # # $ % O - + o > & 2 6 q 5 9 b.-.:.-.-.-.w.w.w.q.q.q.q.=.=.=.b.b.b.b.b.>.>.>.p.8.8.8.a.x.S.U.M.m.'.=XE.+X<X<X^.].I.a.] ' w.M.M.M.M.M.M.M.M.M.M.M.M.M.M.Q.Q.Q.Q.Q.Q.Q.Q.U.U.U.U.U.p.{ ' -.&X+XD.'.m.Q.S.a.8.p.j.j.j.*.b.=.=.=.q.q.q.q.w.w.w.-.-.-.:.:.:.r.r.r.X.r.q./ 9 : e 6 * & X o . = O % $ # # #                                                                                                 ",
"                                                                                                                        # # # $ % O - + o > & 2 ; q 5 9 b.:.:.:.-.-.-.w.w.w.q.q.q.q.q.=.=.=.b.b.b.b.b.>./ $.p.8.8.8.a.S.U.Q.m.N.&XE.+X<X<X<X<X^.7.' ' l.U.U.U.U.Q.U.U.U.U.U.U.U.U.U.U.U.U.U.z.z.z.z.z.z.S.x.t.$.`.Q.E.=XN.M.U.S.a.p.j.j.j.j.c.2.=.=.=.q.q.q.q.w.w.w.-.-.-.:.:.:.r.r.r.X.X.r.w.( t : e 6 2 & X o . = O % $ $ # #                                                                                                 ",
"                                                                                                                        # # # $ % O - + @ > & 2 ; q 3 9 =.r.:.:.:.:.-.-.-.w.w.w.q.q.q.q.=.=.=.=.b.b.b.6.Q Q / *.p.8.8.a.x.z.Q.M.N.&XD.+X+X+X+X<X=XX.$.@.z.z.z.z.z.z.z.z.z.z.z.S.S.S.S.S.S.S.S.S.S.x.x.a.a.*.$.t.j.E.&XN.M.z.x.8.p.j.j.j.c.c.w.~ 6.q.q.q.q.w.w.w.-.-.-.-.:.:.:.r.r.r.X.X.X.X.w.} 0 : e 6 2 & X o . = O % $ $ # #                                                                                                 ",
"                                                                                                                        # # $ $ % O . + @ > & 2 ; q 3 s =.r.r.r.:.:.:.-.-.-.w.w.w.q.q.q.q.q.=.=.=.=.$.Q Q Q Q ` r.p.p.p.8.x.S.U.M.m.'.=XE.+X+X+X+XQ.{ $.*.x.x.x.x.x.x.x.x.x.x.x.x.x.x.x.x.a.a.a.a.a.a.8.8.t.{ =.D.'.m.Q.S.a.8.j.j.j.c.c.b.( Q Q Q ( q.q.w.w.w.-.-.-.:.:.:.:.r.r.r.X.X.@.@.X.-.oX0 5 e 6 2 & X o . = O % $ $ # #                                                                                                 ",
"                                                                                                                        # # $ $ % O . + @ > , 2 ; : 3 c q.X.r.r.r.:.:.:.-.-.-.-.w.w.w.q.q.q.q.q.=.X.Q Q Q Q Q Q Q / *.p.p.8.a.S.z.Q.m.N.&XD.E.+X+X+Xc.$.t.a.a.a.a.a.a.a.a.a.a.a.a.a.a.a.a.a.a.8.8.8.8.8.>.Z.r.N.'.M.U.S.a.p.j.j.c.c.*.%.Q Q Q Q Q Q [ w.w.-.-.-.-.:.:.:.r.r.r.X.X.X.@.@.@.@.-.] 0 5 e 6 2 & X o . = O % $ $ # #                                                                                                 ",
"                                                                                                                        # # $ $ % O . o @ > , < ; : 3 c -.X.X.r.r.r.:.:.:.:.-.-.-.w.w.w.w.q.q.q.w.` Q Q Q Q Q Q Q Q Q $.2.p.p.8.x.S.U.M.N.'.D.E.E.E.D.w.$.b.a.a.a.a.a.a.a.a.a.8.8.8.8.8.8.8.8.8.8.8.8.j.] ] a.N.M.z.x.8.j.c.c.c.*.%.Q Q Q Q Q Q Q Q Q ] -.-.-.-.:.:.:.r.r.r.X.X.X.@.@.@.@.t.:.] 0 5 q 6 2 & X o . = O % $ $ # #                                                                                                 ",
"                                                                                                                        # # $ $ % O . o @ > * < ; : 3 c -.X.X.X.r.r.r.r.:.:.:.-.-.-.-.w.w.w.w.q.( Q Q Q Q Q Q Q Q Q Q Q ` @.l.p.8.a.S.z.Q.m.'.=XE.E.E.N.t.{ p.8.8.8.8.8.8.8.8.8.8.8.8.8.8.8.p.p.p.p.p.q.$.*.m.Q.S.a.p.j.c.c.b.%.Q Q Q Q Q Q Q Q Q Q Q ! :.-.:.:.:.:.r.r.r.X.X.X.@.@.@.@.t.t.:.Y 0 5 q 6 2 & X o . = O % $ $ # #                                                                                                 ",
"                                                                                                                        # # $ $ % O . o @ > * < 7 : 3 c :.@.@.X.X.X.r.r.r.:.:.:.:.-.-.-.-.w.w.@.Q Q Q Q Q Q Q Q Q Q Q Q Q Q Q $.2.p.8.x.z.Q.M.N.&XD.E.E.;.$.q.p.p.p.8.p.p.p.p.p.p.p.p.p.p.p.p.p.p.j.c.$.-.Q.U.S.8.p.c.c.:.( Q Q Q Q Q Q Q Q Q Q Q Q Q Q oX:.:.:.r.r.r.X.X.X.X.@.@.@.@.t.t.] r.n 0 5 e 6 2 & X o . = O % $ $ # #                                                                                                 ",
"                                                                                                                        # # $ $ % O . o @ > * < 7 : 0 c :.@.@.@.X.X.X.r.r.r.r.:.:.:.:.-.-.-.-.^ Q Q Q Q Q Q Q Q Q Q Q Q Q Q Q Q Q ( -.8.a.S.U.M.m.'.=XD.D.>.$.j.p.p.p.p.p.p.p.p.p.p.p.j.j.j.j.j.j.j.w.{ x.z.x.8.j.b.{ ` Q Q Q Q Q Q Q Q Q Q Q Q Q Q Q Q ! X.:.r.r.r.X.X.X.@.@.@.@.t.t.t.] ] r.X.0 5 e 6 2 & X o . = O % $ $ # #                                                                                                 ",
"                                                                                                                        # # $ $ % O . o @ > * < 7 : 0 c :.@.@.@.@.X.X.X.X.r.r.r.:.:.:.:.-.-.@.Q Q Q Q Q Q Q Q  X] Q Q Q Q Q Q Q Q Q Q ` { b.x.z.Q.m.N.&XD.&XX.q.j.j.j.j.j.j.j.j.j.j.j.j.j.j.j.c.c.l.$.2.S.a.*.' ~ Q Q Q Q Q Q Q Q Q Q Q uXfXQ Q Q Q Q Q Q %.r.r.X.X.X.X.@.@.@.@.t.t.] ] ' ' X.X.0 : e 6 2 & X o . = O % $ $ # #                                                                                                 ",
"                                                                                                                        # # $ $ % O . o @ > * < 7 : 0 c r.t.t.@.@.@.@.X.X.X.r.r.r.r.:.:.:.:.6.Q Q Q Q Q Q Q Q 9.MXJ.Q Q Q Q Q Q Q Q Q Q Q Q ` %.=.a.M.N.&X=Xm.{ 2.j.j.j.j.j.j.j.c.c.c.c.c.c.c.c.c.:.@.=.{ ~ Q Q Q Q Q Q Q Q Q Q Q Q _ qX9.kXQ Q Q Q Q Q Q _ r.X.X.X.@.@.@.@.@.t.t.] ] ' ' { @.@.0 : e 6 * & X o . = O % $ # # #                                                                                                 ",
"                                                                                                                        # # $ $ % O . o @ > * < 7 : 0 j :.t.t.t.@.@.@.@.X.X.X.X.r.r.r.r.:.:.~ Q Q Q Q Q Q Q Q 9.9.9.iX] Q Q Q Q Q Q Q Q Q Q Q Q Q Q ) } <.j.0.rXr.c.c.c.c.c.c.c.c.c.c.c.2.=.:.t.( ! Q Q Q Q Q Q Q Q Q Q Q Q Q Q Q J.yX9.9.%XQ Q Q Q Q Q Q ~ X.X.X.@.@.@.@.t.t.t.] ] ' ' { ' @.@.0 : e 6 * & X o . = O % $ # # #                                                                                                 ",
"                                                                                                                        # # $ $ % O . o @ > * < 7 : 0 9 r.] ] t.t.@.@.@.@.@.X.X.X.X.r.r.r.r.Q Q Q Q Q Q Q Q Q 9.9.9.9.9.iX] Q Q Q Q Q Q Q Q Q Q Q Q Q Q Q Q Q Q Q ~ ( ( ( ( ( ( ( ( ~ Q Q Q Q Q Q Q Q Q Q Q Q Q Q Q Q Q Q Q Q J.%X9.9.9.9.qXQ Q Q Q Q Q Q ~ X.@.@.@.@.@.t.t.] ] ] ' ' { $.' @.t.0 : e 6 * & @ o . = O % $ # # #                                                                                                 ",
"                                                                                                                        # # $ $ % O . o @ > * < 7 : 3 9 X.' ] ] t.t.t.@.@.@.@.@.X.X.X.X.r.r.Q Q Q Q Q Q Q Q Q yX9.9.9.9.9.9.kX;.Q Q Q Q Q Q Q Q Q Q Q Q Q Q Q Q Q Q Q Q Q Q Q Q Q Q Q Q Q Q Q Q Q Q Q Q Q Q Q Q Q Q Q Q _ d.yX9.9.9.9.9.9.fXQ Q Q Q Q Q Q ^ @.@.@.@.t.t.t.] ] ' ' { { $.$.{ t.t.0 : 7 4 * > @ o . = O % $ # # #                                                                                                 ",
"                                                                                                                        # # $ $ % O . o @ > * < ; : 3 9 X.' ' ' ] ] t.t.t.@.@.@.@.@.X.X.X.X.Q Q Q Q Q Q Q Q Q kX9.9.9.9.9.9.9.9.yXqX<.Q Q Q Q Q Q Q Q Q Q Q Q Q Q Q Q Q Q Q Q Q Q Q Q Q Q Q Q Q Q Q Q Q Q Q Q Q Q _ uXkX9.9.9.9.9.9.9.9.9.;.Q Q Q Q Q Q Q 6.@.@.@.t.t.] ] ] ' ' { $.$.$.$.$.t.] 3 : 7 4 * > @ o . O O % $ # # #                                                                                                 ",
"                                                                                                                        # # $ $ % O . o @ > , < ; : 3 i @.' { ' ' ] ] t.t.t.@.@.@.@.@.X.X.X.~ Q Q Q Q Q Q Q Q uX9.9.9.9.9.9.9.9.9.9.9.yXiX;._ Q Q Q Q Q Q Q Q Q Q Q Q Q Q Q Q Q Q Q Q Q Q Q Q Q Q Q Q Q Q Q ] d.kX9.9.9.9.9.9.9.9.9.9.9.MXQ Q Q Q Q Q Q ! t.@.t.t.t.] ] ' ' { { $.$.$.Z.%.$.' ' 3 : 7 < * > @ o . O O $ $ # # #                                                                                                 ",
"                                                                                                                        # # $ $ % O . + @ > , 2 ; : 3 r @.' $.{ ' ' ' ] ] t.t.t.@.@.@.@.@.X.s.Q Q Q Q Q Q Q Q _ MX9.9.9.9.9.9.9.9.9.9.9.9.9.9.%XfX;._ Q Q Q Q Q Q Q Q Q Q Q Q Q Q Q Q Q Q Q Q Q Q Q <.uXiXyX9.9.9.9.9.9.9.9.9.9.9.9.9.9.fXQ Q Q Q Q Q Q ( t.t.t.] ] ] ' ' { $.$.$.$.$.%.[ $.' Y 3 : ; < * > @ o . O O $ $ # # #                                                                                                 ",
"                                                                                                                        # # $ $ % O . + @ > , 2 ; : 3 r Y ' $.$.$.{ ' ' ] ] ] t.t.t.@.@.@.@.t.` Q Q Q Q Q Q Q Q ;.9.9.9.9.9.9.9.9.9.9.9.9.9.9.9.9.yX;.Q Q Q Q Q Q Q Q Q Q Q Q Q Q Q Q Q Q Q Q Q Q _ iXMX9.9.9.9.9.9.9.9.9.9.9.9.9.9.9. X_ Q Q Q Q Q Q / t.t.] ] ] ' ' { { $.$.$.Z.%.%.[ [ $.{ n 3 : ; < * > @ o . O O $ $ # # #                                                                                                 ",
"                                                                                                                        # # $ $ % O . + @ > & 2 ; q 3 y n ' $.$.$.$.{ { ' ' ] ] ] t.t.t.@.@.@.{ ! Q Q Q Q Q Q Q Q uX9.9.9.9.9.9.9.9.9.9.9.9.MXiX<.Q Q Q Q Q Q Q Q Q Q Q Q Q Q Q Q Q Q Q Q Q Q Q Q Q Q _ uXkX9.9.9.9.9.9.9.9.9.9.9.9. X_ Q Q Q Q Q Q / t.t.] :.*.' ' { $.$.$.$.$.%.%.[ } oX$.$.n 3 : ; < * > @ + . O O $ $ # # #                                                                                                 ",
"                                                                                                                        # # # $ % O - + @ > & 2 ; q 5 y K { %.Z.$.$.$.$.{ ' ' ' ] ] ] t.t.t.@.@.{ ! Q Q Q Q Q Q Q Q ] iXMX9.9.9.9.9.9.%XfXJ.Q Q Q Q Q Q Q Q Q Q Q Q Q Q Q Q Q Q Q Q Q Q Q Q Q Q Q Q Q Q Q Q _ uXiX X9.9.9.9.9.9. Xd.Q Q Q Q Q Q ! [ X.] ] ' dX .{ $.$.$.$.Z.%.%.[ [ } oXoX$.Z.n 3 : ; < * > @ + . O O $ $ # # #                                                                                                 ",
"                                                                                                                        # # # $ % O - + o > & 2 ; q 5 y f { [ %.%.$.$.$.$.$.{ ' ' ' ] ] ] t.2.t.@.X.( Q Q Q Q Q Q Q Q Q Q <.J.J.J.] Q Q Q Q Q Q Q Q Q Q Q Q Q Q Q Q Q Q Q 3.fXfXfXJ.Q Q Q Q Q Q Q Q Q Q Q Q Q Q Q Q Q <.J.J.J._ Q Q Q Q Q Q Q / @.:.X.' ' fX6X{ $.$.$.$.$.%.%.[ [ oXoXoXs.$.%.k 3 : ; < * > @ + . O O $ $ # # #                                                                                                 ",
"                                                                                                                        # # # $ % O - + o X & 2 6 q 5 y c ' [ [ %.%.$.$.$.$.$.{ { ' ' ' ] ] h.e.t.:.-.t._ Q Q Q Q Q Q Q Q Q Q Q Q Q Q Q Q Q Q Q Q Q Q Q Q Q Q Q ^ _ $.r.w.}.sXsXsXkXq.r.$.6./ Q Q Q Q Q Q Q Q Q Q Q Q Q Q Q Q Q Q Q Q Q Q _ ] :.r.r.r.r.dXOX{.$.$.$.Z.%.%.[ [ } oXoXs.s.s.%.[ f 3 : ; < * > @ + - O O $ $ # # #                                                                                                 ",
"                                                                                                                        # # # $ $ % - + o X & * 6 q 5 0 s $.} } [ [ %.%.Z.$.$.$.$.{ { ' ' ' r.gXj.:.:.:.:.:.%.^ Q Q Q Q Q Q Q Q Q Q Q Q Q Q Q Q Q Q ` / oX] X.=.=.=.=.=.x.Y.sXsXsXzXc.=.=.=.q.q.r.t.%.^ ) Q Q Q Q Q Q Q Q Q Q Q Q Q ~ [ @.:.r.r.r.X.3.gXOXd.$.$.Z.%.%.[ [ } oXoXoXs.6.6.s.} oXf 3 : ; < * > @ + - O O $ $ # # #                                                                                                 ",
"                                                                                                                          # # $ $ % = . o X & * 6 e : 0 a $.oXoXoX} [ [ %.%.Z.$.$.$.$.$.{ ' ' h.}.d.=.:.:.:.:.:.:.t.oX/ ~ Q Q Q Q Q Q Q Q ~ _ %.@.:.q.q.q.q.q.q.q.q.q.q.7XY.sXsXsX5X'.q.q.q.q.q.q.q.w.w.w.w.@.$.6.^ ! Q Q Q Q ^ [ @.:.r.r.r.r.X.>.fXOXzXqXX.Z.%.%.%.[ [ } oXoXs.s.6.6.( 6.oXs.f 3 : ; < , > @ + - O O $ $ # #                                                                                                   ",
"                                                                                                                          # # $ $ % = . o X > * 6 e : 0 r Y oXs.oXoX} [ [ %.%.%.Z.$.$.$.$.$.{ { cX}.gXuXr.:.:.:.:.:.:.-.-.-.X.t.t.@.@.X.w.w.w.w.w.w.q.q.q.q.q.q.q.q.q.>.xXY.sXsXsX5XjX2.w.w.w.w.w.w.w.w.-.-.-.-.-.-.:.X.] ] :.:.r.r.r.r.X.X.w.1.gXiXcXqX=.%.%.%.[ [ } oXoXs.s.6.6.6.( ( s.s.6.s 3 q ; < , > @ + - O O $ $ # #                                                                                                   ",
"                                                                                                                          # # $ $ % = . o @ > * 4 7 : 3 r n } 6.s.s.oXoX} [ [ %.%.%.Z.$.$.$.$.$.-.gXkXzXiXy.r.r.:.:.:.:.:.:.:.-.-.-.-.-.-.-.-.w.w.w.w.w.w.w.w.w.w.w.w.z.xX5XsXsXsXG.d.O.w.w.w.-.-.-.-.-.-.-.:.:.:.:.:.:.:.r.r.r.r.r.X.X.=.7XqXaXpXdXxX=.%.%.[ [ } oXoXoXs.6.6.6.( ( ( _ 6.6.6.s 3 q ; < , > @ + - O O $ $ # #                                                                                                   ",
"                                                                                                                          # # $ $ % O . o @ > , < ; : 3 r f } 6.6.6.s.oXoXoX} [ [ %.%.%.$.$.$.$.@.*.aXG.5XcXG.7Xb.r.r.:.:.:.:.:.:.:.:.:.-.-.-.-.-.-.-.-.-.-.-.-.-.-.-.d.xX5XsXsXsXG.d.h.=.-.-.-.-.:.:.:.:.:.:.:.:.:.r.r.r.r.r.X.X.X.,.7XfXxXjXd.h.5.w.] $.[ } oXoXoXs.s.6.6.6.( ( ( _ _ 6.6.( r 3 q ; 2 , > @ + - O O $ $ # #                                                                                                   ",
"                                                                                                                          # # $ $ % O . + @ > & < ; : 3 y j oX( 6.6.6.6.s.oXoXoX} [ [ [ %.%.$.$.@.@.q.h.fXfX4XdXdXjX;.=.r.r.r.r.:.:.:.:.:.:.:.:.:.:.:.:.-.-.-.-.-.-.c.L.L.5XsXsXsXG.d.7X;.:.:.:.:.:.:.:.:.:.r.r.r.r.r.X.X.X.X.=.4.7Xh.5.1.F.3XO.wXX.' ' $.oXoXoXs.s.6.6.6.( ( ( _ _ _ _ ( ( _ r 5 q ; 2 , > o + - O O $ $ # #                                                                                                   ",
"                                                                                                                          # # # $ % O - + @ > & 2 ; q 5 y 9 s.( ( ( 6.6.6.s.s.oXoXoX} [ [ [ %.{ t.t.@.r.;.'.5.7X7Xh.d.d.7X;.2.r.r.r.r.r.r.:.:.:.:.:.:.:.:.:.:.:.:.:.O.jXL.5XsXsXsXG.h.7X1.q.:.:.r.r.r.r.r.r.r.r.X.X.X.X.=.j.3Xy.3Xz.0.3.,.J.e.q.' ' ' { $.oXs.s.6.6.6.( ( ( ( _ _ _ / _ ( ( l r 5 q ; 2 & > o + - O O $ $ # #                                                                                                   ",
"                                                                                                                          # # # $ % O - + o X & 2 6 q 5 y p $.( ( ( ( ( 6.6.6.6.s.oXoXoXoX} [ ' ] ] t.t.t.q.rX3.0.;.4.O.3X3Xy.F.0.j.w.r.r.r.r.r.r.r.r.r.r.r.:.:.:.-.h.jXL.fXsXsXsXqXh.5.1.j.r.r.r.r.r.X.X.X.X.X.@.@.@.q.3.rX&.| *.b.=.w.:.X.t.' ' { $.$.$.[ 6.6.6.( ( ( ( _ _ _ / / / _ _ _ k y 5 q 6 2 & > o + - O % $ $ # #                                                                                                   ",
"                                                                                                                          # # # $ $ O - + o X & 2 6 e 5 0 p l ( _ _ ( ( ( ( 6.6.6.6.s.s.oXoX} ' ' ' ' ] ] t.@.-.q.b.b.>.*.2.2.J.&.j.l.X.X.X.X.X.X.r.r.r.r.r.r.r.r.c.h.d.jXjXsXsXsXqX7X5.1.3X:.X.X.X.X.X.@.@.@.@.@.@.@.w.q.-.r.X.@.t.t.] ' ' ' { $.$.$.$.$.%.6.( ( ( ( _ _ _ / / / / / _ / / f y 5 q 6 2 & > o + = O % $ $ # #                                                                                                   ",
"                                                                                                                          # # # $ $ O = . o X > * 4 7 : 0 r f ( / _ _ _ ( ( ( ( 6.6.6.6.s.s.} $.{ ' ' ' ' ' ] ] t.t.@.@.@.X.X.r.:.:.-.@.@.@.@.@.X.X.X.X.X.X.X.X.X.3X7Xd.jXjXsXsXsXpX7X1.uXy.2.@.@.@.@.@.@.@.@.@.@.t.t.t.t.t.t.t.] ' ' ' { $.$.$.$.Z.%.%.%.[ s.( ( _ _ _ / / / / / ^ ^ / / ^ j y 5 e 6 2 & X o . = O % $ $ # #                                                                                                   ",
"                                                                                                                            # # $ $ % = . o @ > * < ; : 3 r s ( / / / _ _ _ ( ( ( ( 6.6.6.6.$.$.$.$.$.{ ' ' ' ' ' ] ] t.t.t.t.@.@.@.@.@.@.@.@.@.@.@.@.@.@.@.@.@.q.1.5.h.d.jXsXsXsXh.5.1.F.3X;.X.@.@.@.@.t.t.t.t.t.t.] ] ] ] ' ' ' { { $.$.$.$.$.%.%.[ [ } oXoX( _ _ _ / / / / ^ ^ ^ ^ / ^ ^ 9 y : e 6 * & X o . = O % $ $ # #                                                                                                   ",
"                                                                                                                            # # $ $ % O - + @ > * < ; q 5 y 8 _ / / / / / _ _ _ _ ( ( ( ( oX%.%.$.$.$.$.$.$.{ ' ' ' ' ' ' ] ] t.t.t.t.t.t.t.t.@.@.@.@.@.@.@.@.@.&.F.'.7Xd.d.MXsXsXh.5.1.y.O.;.=.t.t.t.t.t.] ] ] ' ' ' ' ' ' { $.$.$.$.$.Z.%.%.%.[ } oXoXoXs.6.6._ / / / / ^ ^ ^ ^ ^ ^ ^ ^ ~ p 0 : 7 4 * > X o . O O % $ # # #                                                                                                   ",
"                                                                                                                            # # # $ % O - + o X & 2 6 q 5 0 8 h / ^ / / / / / _ _ _ _ ( 6.} } [ %.%.%.$.$.$.$.$.$.{ { ' ' ' ' ' ' ' ] ] ] ] t.t.t.t.t.t.t.t.t.t.4.y.1.5.h.d.$XsXsX7X5.uXy.O.;.,.] ] ] ] ' ' ' ' ' ' { { $.$.$.$.$.Z.%.%.%.[ [ } oXoXs.s.6.6.6.6._ / / / ^ ^ ^ ^ ~ ~ ^ ^ ~ h r 0 : ; < * > @ + . O O $ $ # # #                                                                                                   ",
"                                                                                                                            # # # $ % O = . o X & 2 6 e : 0 p x / ^ ^ ^ / / / / / _ _ _ s.oXoXoX} [ [ %.%.%.$.Z.$.$.$.$.$.{ { { ' ' ' ' ' ' ' ' ' ] ] ] ] ] ] q.4.3XuX5.h.d.$XsXsX7X1.F.3X4.0.wX-.' ' ' ' ' { { $.$.$.$.$.$.$.%.%.%.[ [ } oXoXoXs.s.6.6.6.( ( ( _ / ^ ^ ^ ^ ~ ~ ~ ~ ~ ~ ~ k r 3 q ; < * > @ + . O O $ $ # # #                                                                                                   ",
"                                                                                                                            # # # $ % O = . o @ & * 4 7 : 3 p s ^ ^ ^ ^ ^ ^ / / / / / ( 6.6.s.s.oXoXoX} } [ %.%.%.%.$.$.$.$.$.$.$.$.{ { { ' ' ' ' ' ' ' ' ' ' | ;.O.y.1.7Xh.$XsXsX5.1.y.O.;.3.,.| { { $.$.$.$.$.$.$.Z.$.%.%.%.[ [ } oXoXoXs.s.6.6.6.6.( ( ( _ _ _ / ^ ^ ~ ~ ~ ~ ~ ~ ~ ~ ~ x r 3 q ; 2 , > @ + - O O $ $ # #                                                                                                     ",
"                                                                                                                              # # $ % % O . + @ > * < ; : 3 r 8 ^ ^ ~ ^ ^ ^ ^ ^ / / _ ( ( 6.6.6.6.s.s.oXoXoX} } [ [ %.%.%.%.$.Z.$.$.$.$.$.$.$.$.$.$.{ { { { t.,.0.4.y.uX5.h.>XsXsX5.uXy.O.;.3.,.J.X.$.$.$.Z.$.%.%.%.%.[ [ } } oXoXoXs.s.6.6.6.6.( ( ( ( _ _ _ / / / ~ ~ ~ ~ ~ ~ ) ~ ) ) ) s y 3 q 6 2 & > @ + - O % $ $ # #                                                                                                     ",
"                                                                                                                              # # $ $ % O - + o > , 2 ; q 5 y 8 k ^ ~ ~ ~ ^ ^ ^ ^ / _ _ ( ( ( ( 6.6.6.6.s.s.oXoXoXoX} } [ [ %.%.%.%.%.$.$.Z.$.$.$.$.$.$.$.$.+.&.3.;.O.F.1.7XOXsXsX1.F.3X4.0.wX&.| =.%.%.%.%.%.[ [ } } oXoXoXoXs.s.6.6.6.6.6.( ( ( _ _ _ _ / / / ^ ^ ^ ~ ~ ~ ) ) ) ) ) ` ` p y 5 e 6 2 & > o . = O % $ $ # #                                                                                                     ",
"                                                                                                                              # # # $ % O - + o > & 2 6 e 5 y p f ~ ~ ~ ~ ~ ~ ^ ^ / / _ _ _ _ ( ( ( ( 6.6.6.6.s.s.s.oXoXoXoX} } } [ [ [ %.%.%.%.%.%.%.%.$.$...J.rX0.O.y.1.5.OXsXsX1.F.O.4.0.,.J.e...] [ } } } oXoXoXoXs.s.s.6.6.6.6.6.( ( ( _ _ _ _ / / / / ^ ^ ^ ^ ~ ~ ) ) ) ) ) ) ` ` h p 0 5 7 4 * & X o . = O % $ # # #                                                                                                     ",
"                                                                                                                              # # # $ % O = . o X & * 4 7 : 0 p w ~ ~ ~ ~ ~ ~ ~ ^ ^ / / / / _ _ _ _ ( ( ( ( 6.6.6.6.6.s.s.s.s.oXoXoXoXoX} } } } [ [ [ [ [ t.>.| ,.3.4.3XuX5.zXsXMXuXy.O.;.3.,.J.e.o.u.oXoXoXoXs.s.s.6.6.6.6.6.( ( ( ( _ _ _ _ _ / / / / ^ ^ ^ ^ ~ ~ ~ ~ ) ) ` ` ` ` ` ! x r 0 : ; < * > X o . O O % $ # # #                                                                                                     ",
"                                                                                                                                # # $ % % O . + @ > * < ; : 3 r 8 h ) ) ) ) ~ ~ ^ ^ ^ ^ / / / / / _ _ _ _ ( ( ( ( ( 6.6.6.6.6.6.s.s.s.s.s.oXoXoXoXoXoXoXoXr.o.e.&.wX0.O.y.1.bXsX$XuX3X4.0.wX&.| ..7.{.[ s.6.6.6.6.6.6.6.( ( ( ( _ _ _ _ _ / / / / ^ ^ ^ ^ ^ ~ ~ ~ ~ ~ ) ` ` ` ` ` ! ! ! f r 3 : ; < * > @ o . O O $ $ # # #                                                                                                     ",
"                                                                                                                                # # $ $ % O - + @ > , 2 6 q 3 y 8 x ) ) ) ) ) ~ ~ ~ ^ ^ ^ ^ ^ / / / / / _ _ _ _ _ ( ( ( ( ( 6.6.6.6.6.6.6.6.6.s.s.s.s.s.oX+.7...J.,.3.4.3XuXpXsX.XF.3X4.0.rXJ.e...7.+.] 6.6.6.( ( ( ( ( _ _ _ _ _ _ / / / / ^ ^ ^ ^ ^ ~ ~ ~ ~ ~ ) ) ) ) ` ! ! ! ! ! ! ` u y 3 : 6 2 , > @ + - O O $ $ # # #                                                                                                     ",
"                                                                                                                                # # $ $ % O - + o > & 2 6 e 5 y p s ` ` ` ) ) ~ ~ ~ ~ ~ ^ ^ ^ ^ ^ ^ / / / / / _ _ _ _ _ _ ( ( ( ( ( ( ( 6.6.6.6.6.6.6.6.$.u.<...e.&.wX;.O.F.pXsX.Xy.O.;.3.,.J.e.o.<.u.`.6.( ( ( _ _ _ _ _ _ / / / / / ^ ^ ^ ^ ^ ^ ~ ~ ~ ~ ~ ) ) ) ` ` ` ` ! ! ! ! ! ! h p y 5 q 6 2 & > o + - O % $ $ # #                                                                                                       ",
"                                                                                                                                # # $ $ % O = . o X & * 4 7 : 0 p i d ` ` ` ) ) ) ) ~ ~ ~ ~ ~ ^ ^ ^ ^ ^ ^ ^ / / / / / _ _ _ _ _ _ _ _ ( ( ( ( ( ( ( ( ( '  .+.7.e.J.rX0.4.y.pXsX.Xy.O.;.wX&.| ..7.{. .@.%._ _ _ _ _ / / / / / / ^ ^ ^ ^ ^ ^ ~ ~ ~ ~ ~ ) ) ) ) ` ` ` ` ! ! ! ! ! ! ! ! k p 0 5 q 6 2 & X o + = O % $ $ # #                                                                                                       ",
"                                                                                                                                  # $ $ % % O . o @ > * < ; : 3 r 8 k ! ! ` ` ` ` ) ) ) ) ~ ~ ~ ~ ~ ^ ^ ^ ^ ^ ^ ^ ^ / / / / / / _ _ _ _ _ _ _ _ _ _ _ ( { @.u.<...| ,.3.;.3XdXsX.X3X4.0.rX&.e...7.+. .t.$._ / / / / / / ^ ^ ^ ^ ^ ^ ^ ~ ~ ~ ~ ~ ~ ) ) ) ) ` ` ` ! ! ! ! ! ! ! ! ! ! ! j r 0 : e < * > X o . = O % $ # # #                                                                                                       ",
"                                                                                                                                  # $ $ $ % O - + @ > & 2 6 q 5 y p j ! ! ! ! ` ` ` ` ) ) ) ) ) ~ ~ ~ ~ ~ ~ ^ ^ ^ ^ ^ ^ ^ ^ / / / / / / / / / _ _ _ _ ( Z.t. .{.o.e.J.rX0.O.y.sX.XO.;.3.,.J.e.o.<.u.`.] Z.( / ^ ^ ^ ^ ^ ^ ^ ^ ~ ~ ~ ~ ~ ~ ~ ) ) ) ) ` ` ` ` ! ! ! ! ! ! ! ! ! ! ! ! ! t r 3 : ; 2 , > @ o . O O $ $ # # #                                                                                                       ",
"                                                                                                                                  # # $ $ % O - + o X & * 6 q 5 0 p i d ! ! ! ! ! ! ` ` ` ` ) ) ) ) ) ~ ~ ~ ~ ~ ~ ~ ^ ^ ^ ^ ^ ^ ^ ^ ^ ^ / / / / / / / ( [ ' `.+.7...| ,.3.4.y.sX.XO.;.wX,.| *.7.{. .@.{ s./ ^ ^ ^ ^ ^ ~ ~ ~ ~ ~ ~ ~ ) ) ) ) ) ` ` ` ` ! ! ! ! ! ! ! ! ! ! ! ! ! ! ! h 8 y 5 q ; 2 & > @ + . O O $ $ # # #                                                                                                       ",
"                                                                                                                                  # # $ $ % O = . o X > * < e : 3 r 8 k ! ! ! ! ! ! ! ! ! ` ` ` ` ) ) ) ) ) ~ ~ ~ ~ ~ BXDXmXmXNXNXmXmXGXBX^ ^ ^ ^ ^ ^ ^ _ oX'  .{.o.e.&.wX;.O.sX.X4.0.rX&.| ..7.`.$._ ^ ^ ^ ~ ~ ~ ~ SXGXmX9X9X9X9X9XNXmXFX_ ` ` ! ! ! ! ! ! ! ! ! ! ! ! ! ! ! ! ! ` f p 0 5 q 6 2 & > o + - O % $ $ # #                                                                                                         ",
"                                                                                                                                    # $ $ % % O . o @ > , 2 ; : 3 y 8 j ! ! ! ! ! ! ! ! ! ! ! ! ` ` ` ` ` ) ) ) ) VXNX9X9X9X9X9X9X9X9X9X9XNXmXFXBX^ ^ ^ ^ ^ ^ / 6.] {.J.,.0.4.sX>X4.3.,.| u.$./ ~ ~ ~ ~ ~ ~ ] VXmXNX9X9X9X9X9X9X9X9Xf.9X9XNXFX! ! ! ! ! ! ! ! ! ! ! ! ! ! ! ! ! ! d 1 r 0 : e 6 * & X o + - O % $ $ # #                                                                                                         ",
"                                                                                                                                    # $ $ $ % O . + @ > & 2 ; q 5 y p i d ! ! ! ! ! ! ! ! ! ! ! ! ! ! ` ` ` ` _ mX9X9X9X9X9X9X9X9X9X9X9X9X9X9X9X9X9XmXGXVXBX~ ~ ~ ) ) ) _ #.7.fXO. .`._ ` ) ) ) ~ ~ 6.SXGXLXf.9X9Xf.f.f.f.f.f.f.f.f.9Xf.P.f.f.PX! ! ! ! ! ! ! ! ! ! ! ! ! ! ! ! ! x 8 r 3 : e 6 * > X o . = O % $ $ # #                                                                                                         ",
"                                                                                                                                    # # $ $ % O - + o X & * 6 e : 0 r i f ! ! ! ! ! ! ! ! ! ! ! ! ! ! ! ! ! ! mX9X9X9X9X9X9X9X9X9X9X9X9X9X9X9X9X9X9X9X9X9X9X9XNXmXGXDXSXBXZ.Q Q Q Q Q Q Q ^ BXDXPXNXf.f.f.9Xf.f.f.f.f.f.f.f.f.f.f.f.f.f.f.f.f.f.PX! ! ! ! ! ! ! ! ! ! ! ! ! ! ! ! 9 8 r 3 : ; 4 * > X o . = O % $ $ # # #                                                                                                       ",
"                                                                                                                                    # # $ $ % O = . o X > * 4 7 : 3 r 8 u d ! ! ! ! ! ! ! ! ! ! ! ! ! ! ! ! FX9X9X9X9X9X9Xf.f.f.9Xf.f.f.f.f.f.f.f.f.f.f.f.f.f.9X9Xf.9X9Xf.f.f.f.NXmXmXLXf.f.f.f.f.f.f.f.f.f.f.f.f.f.f.f.f.f.f.P.P.P.P.P.P.P.P.P.P.SX! ! ! ! ! ! ! ! ! ! ! ! ! ! k a 8 y 3 : ; < , > X o . = O % $ $ # # # #                                                                                                     ",
"                                                                                                                                  # # # $ $ % O = . o @ > , < ; q 3 y 8 a x ! ! ! ! ! ! ! ! ! ! ! ! ! ! ! ! NXf.f.f.f.f.f.f.f.f.f.f.f.f.f.f.f.f.f.f.f.f.f.f.f.P.P.f.f.f.f.f.f.f.f.f.f.f.f.P.P.P.P.P.P.P.P.P.P.P.P.P.P.P.P.P.P.P.P.P.P.P.P.P.P.P.K.NX/ ! ! ! ! ! ! ! ! ! ! ! ! ! 9 a 8 y 3 q ; < , > X o . - O O $ $ $ # # # # #                                                                                                 ",
"                                                                                                                                # # # $ $ $ % O = . o @ > & < ; q 5 y p a w d ! ! ! ! ! ! ! ! ! ! ! ! ! Q SXf.f.f.f.f.f.f.f.f.f.f.f.f.f.f.f.f.f.f.P.P.P.P.P.P.P.P.P.P.P.P.P.P.P.P.P.P.P.P.P.P.P.P.P.P.P.P.K.K.K.K.K.K.K.K.K.K.K.K.K.K.K.K.K.K.K.K.K.VX! ! ! ! ! ! ! ! ! ! ! ! k 1 a p y 3 q ; < , > X o + - O O % $ $ $ # # # # #                                                                                               ",
"                                                                                                                              # # # # $ $ $ % O = . o @ > & < ; q 5 0 p a t f ! ! ! ! ! ! ! ! ! ! ! ! ! ! DXP.P.P.P.P.P.P.P.P.P.P.P.P.P.P.P.P.P.P.P.P.P.P.P.P.P.P.P.K.K.K.K.K.K.K.K.K.K.K.K.K.K.K.K.K.K.K.K.K.K.K.K.K.K.K.K.K.K.K.K.K.K.K.K.K.K.i.i.LX! ! ! ! ! ! ! ! ! ! ! ^ A g 1 p y 3 : ; 4 * & > @ + . = O O % $ $ $ $ # # # # #                                                                                           ",
"                                                                                                                            # # # # $ $ $ % % O - . o X > & < ; q 5 0 p i t s d ! ! ! ! ! ! ! ! ! ! ! ! ! mXP.P.P.P.P.P.P.P.P.P.K.K.K.K.K.K.K.K.K.K.K.K.K.K.K.K.K.K.K.K.K.K.K.K.K.K.K.K.K.K.K.K.K.K.K.K.K.K.i.i.i.i.i.i.i.i.i.i.i.i.i.i.i.i.i.i.i.i.i.! ! ! ! ! ! ! ! ! ! } ;.O.4.;.J g r : e 6 * & > @ o + . = O O % $ $ $ $ $ # # # # #                                                                                       ",
"                                                                                                                        # # # # # $ $ $ % % O = . + o X > , < ; q 5 0 p g A J.n ! ! ! ! ! ! ! ! ! ! ! ! ! mXK.K.K.K.K.K.K.K.K.K.K.K.K.K.K.K.K.K.K.K.K.K.K.K.K.K.K.K.K.i.i.i.i.i.i.i.i.i.i.i.i.i.i.i.i.i.i.i.i.i.i.i.i.i.i.i.i.i.i.i.i.i.i.i.i.i.i.i.i.BX! ! ! ! ! ! ! ! ( 4.O.4.;.0.0.3.3.m V ; 2 * & > X o + . - = O O % $ $ $ $ # # # # #                                                                                     ",
"                                                                                                                    # # # # # $ $ $ % % % O = - + o @ > & * 4 ; q r c rX&.J.J.J./ ! ! ! ! ! ! ! ! ! ! ! ` mXK.K.K.K.K.K.K.K.K.K.i.i.i.i.i.i.i.i.i.i.i.i.i.i.i.i.i.i.i.i.i.i.i.i.i.i.i.i.i.i.i.i.i.i.i.i.i.i.i.i.i.i.g.g.g.g.g.g.g.g.g.g.g.g.g.g.g.g.g.VX! ! ! ! ! ! ! ) 4.O.4.;.0.0.3.wX,.,.&.A g ; * & > X o + . . = O O % % $ $ $ $ # # # # #                                                                                 ",
"                                                                                                                # # # # # $ $ $ $ % % O O = - . o @ X > , 2 6 r m wX,.&.&.J.J.| {.! ! ! ! ! ! ! ! ! ! ! Q mXi.i.i.i.i.i.i.i.i.i.i.i.i.i.i.i.i.i.i.i.i.i.i.i.i.i.i.i.i.i.i.i.i.g.g.g.g.g.g.g.g.g.g.g.g.g.g.g.g.g.g.g.g.g.g.g.g.g.g.g.g.g.g.g.g.g.g.g.g.DX! ! ! ! ! ! ! e.O.4.h.OXOXkXqXL.3.&.J.| e.e.m r & > X o o + . - O O O % % $ $ $ # # # #                                                                                 ",
"                                                                                                            # # # # # $ $ $ $ % % % O = - . + o @ X > & * V b rX,.,.&.&.J.3.| e.e.} ! ! ! ! ! ! ! ! Q Q ` mXi.i.i.i.i.i.i.i.i.i.i.i.i.g.i.g.g.g.g.g.g.g.g.g.g.g.g.g.g.g.g.g.g.g.g.g.g.g.g.g.g.g.g.g.g.g.g.g.g.g.g.g.g.g.g.A.A.A.A.A.A.A.A.A.A.A.A.A.A.mXQ ! ! ! ! ! } O.4.4.gXzXzXzXzXzXzXaXy.| e.......K B > X @ o o + . = O O O % $ $ $ $ # # #                                                                               ",
"                                                                                                          # # # # # $ $ $ % % % O O - . . + o @ X > & V J wXwX,.,.&.0.5XyXbX| e.e.7.! ! ! ! ! ! ! Q Q Q Q mXg.g.g.g.g.g.g.g.g.g.g.g.g.g.g.g.g.g.g.g.g.g.g.g.g.g.g.g.g.g.g.g.g.g.g.g.A.A.A.A.A.A.A.A.A.A.A.A.A.A.A.A.A.A.A.A.A.A.A.A.A.A.A.A.n.n.n.n.n.AXQ Q ! ! ! ! 3.O.4.jXkXkXkXkXbXkXkXkXkXqXO...o.7.7.<.n B > X @ o + . - = O O % $ $ $ $ # # #                                                                             ",
"                                                                                                        # # # # $ $ $ $ % % O O = . . + o @ X > 6 B F 3.wXwXrX,.3XG.hXeXeXeXy.e..... .! ! ! ! ! Q Q Q Q Q AXg.g.g.g.g.g.g.g.g.g.g.g.g.g.g.g.g.A.A.A.A.A.A.A.A.A.A.A.A.A.A.A.A.A.A.A.A.A.A.A.A.A.A.A.A.n.n.n.n.n.n.n.n.n.n.n.n.n.n.n.n.n.n.n.n.n.n.n.A.AXQ Q Q ! ! t.O.4.;.cXbXgXbXbXbXbXgXbXgXbXbXaX;.7.<.{.+.u.n a > X o o + . - O O O % $ $ $ # # #                                                                           ",
"                                                                                                      # # # # $ $ $ % % O O - . + o o @ X > 6 I P 0.3.3.wXrXy.gXyXyXyXyXyXhXOX......e._ ! ! ! Q Q Q Q Q Q GXA.A.A.A.A.A.A.A.A.A.A.A.A.A.A.A.A.A.A.A.A.A.A.A.A.A.A.n.n.n.n.n.n.n.n.n.n.n.n.n.n.n.n.n.n.n.n.n.n.n.n.n.n.n.n.n.n.n.n.n.n.H.H.H.H.H.H.H.H.AXQ Q Q Q ! J.4.4.d.gXgXgXgXgXgXiXgXgXgXiXgXiXgXdXe.+.u. .`.`.K r > X o o + . = O O % $ $ # # # #                                                                         ",
"                                                                                                  # # # # # $ $ % % % O = . + + o @ X > q b ;.0.0.3.3.wXh.gXhXhXhX$XhX$X$X$X$XuX..o.o.J.! ! Q Q Q Q Q Q ! DXA.A.A.A.A.A.A.A.n.n.n.n.n.n.n.n.n.n.n.n.n.n.n.n.n.n.n.n.n.n.n.n.n.n.n.n.n.n.n.n.n.n.H.H.H.H.H.H.H.H.H.H.H.H.H.H.H.H.H.R.H.H.H.H.H.H.H.H.H.AXQ Q Q Q ( 4.4.;.qXiXiXiXiXiXiXiXiXcXiXiXiXiXiXiXiXh.<. .`.#.t.] j > X @ o + . - O O % $ $ # # # #                                                                       ",
"                                                                                                # # # # $ $ $ % % O O - . + o @ X > L b 4.;.0.0.0.3.h.zX$X$X.X.X.X.X X.X X X XgX..o.7.,.' Q Q Q Q Q Q Q Q BXn.n.n.n.n.n.n.n.n.n.n.n.n.n.n.n.n.n.n.n.n.n.n.H.H.H.H.H.H.H.H.H.H.H.H.H.H.H.H.H.H.H.H.H.H.H.H.H.H.H.H.H.H.H.H.H.H.R.R.R.R.R.R.R.R.R.R.R.R.DXQ Q Q Q o.4.;.F.cXcXcXcXcXcXcXcX5XcXcX5X5X5X5X5X5X5XqX;.#.t.] { Z.n r > @ o + . - O O % $ $ # # #                                                                       ",
"                                                                                              # # # # $ $ $ % % O = - . o o @ X V D 4.4.;.;.0.0.fX}..X.X X X X XXXXXXX>X>X>X>X>Xh.7.7...| Q Q Q Q Q Q Q Q / n.n.n.n.H.H.H.H.H.H.H.H.H.H.H.H.H.H.H.H.H.H.H.H.H.H.H.H.H.H.H.H.H.H.H.H.H.H.R.R.R.R.R.R.R.R.R.R.R.R.R.R.R.v.R.v.R.R.R.R.R.R.R.R.R.R.v.v.v.FXQ Q Q Q 0.;.0.L.5X5X5X5X5X5X5X5X5X5XG.5X5X5X5X5X5X5X5XG.xX{.' { %.} Y 9 > X o + . - O O % $ $ # # #                                                                     ",
"                                                                                            # # # # $ $ $ % O O = . + o @ X V F O.4.4.;.;.0.6XY.XXXXXXXX>X>X>X>X,X,X,X,X%X%X%X%XkX7.7.<._ Q Q Q Q Q Q Q Q Q LXH.H.H.H.H.H.H.H.H.H.H.H.H.H.R.H.R.H.R.R.R.R.R.R.R.R.R.R.R.R.R.R.R.v.R.v.R.R.R.R.R.R.R.R.R.R.v.v.v.v.v.v.v.v.v.v.v.v.v.v.v.v.k.v.v.v.v.v.BXQ Q Q Z.;.0.0.qXG.G.G.G.qXqXqXqXqXqXqXqXqXqXqXqXqXqXqXqXqXpXO.Z.[ } 6.( 9 > X o + . - O O % $ $ # # #                                                                   ",
"                                                                                          # # # # $ $ $ % % O - . + o @ > > I O.4.4.4.3XaX%X>X>X>X>X,X,X,X%X%X%X%X%XY.Y.}.}.}.OXOX1.<.{.Z.Q Q Q Q Q Q Q Q W FXR.R.R.R.R.R.R.R.R.R.R.R.R.R.R.R.R.R.R.R.R.R.R.R.R.R.R.R.v.v.v.v.v.v.v.v.v.v.v.v.v.v.v.v.k.v.v.v.v.v.v.v.v.v.v.v.v.k.k.k.k.k.v.k.k.k.k.IXQ Q Q Q 7.;.0.F.qXqXqXqXqXqXaXqXaXqXaXaXaXaXaXaXaXaXaXaXaXaXaXaXL.+.6.( _ / u > X o + . = O O % $ $ # # #                                                                 ",
"                                                                                        # # # # $ $ $ % % O - . + o @ > & , ; F 4.4.4XY.,X,X%X%X%X%XY.Y.Y.}.}.}.OXOXzXzXzXzXzXzXkXgX..{. .Q Q Q Q Q Q Q Q Q Z.R.R.R.R.R.R.R.R.v.v.v.v.v.v.v.v.v.v.v.v.v.v.v.v.v.k.v.v.v.v.v.v.v.v.v.v.v.k.v.k.k.k.k.k.v.k.k.k.k.k.k.k.k.k.k.k.k.k.k.k.k.k.k.k.k.k.k.AXQ Q Q Q 3.0.3.d.aXaXaXpXaXpXaXpXpXpXpXpXpXpXpXpXpXdXpXpXdXpXpXpXpXd.6.( / ^ x & > @ o + . = O O $ $ $ # # #                                                               ",
"                                                                                      # # # $ $ $ % % O = . + o @ X > & 6 B F ;.4.;.xXY.Y.Y.}.}.}.}.OXOXOXzXzXzXzXkXkXkXkXbXbXbXgXgX7X+.+.) Q Q Q Q Q Q Q Q Q AXv.v.v.v.v.k.v.v.v.v.v.v.v.v.v.v.v.v.v.k.k.k.k.k.v.k.k.k.k.k.k.k.k.k.k.k.k.k.k.k.k.k.k.k.k.k.k.k.k.k.k.k.k.B.B.B.B.B.B.B.B.B.B.B.B.B.SXQ Q Q %.0.0.3.4XpXpXpXpXpXdXdXdXdXdXdXdXdXdXdX4XdXdX4X4X4X4X4X4X4Xe.( _ / ^ i * & > X o + . = O O $ $ $ # # #                                                             ",
"                                                                                    # # # $ $ $ % % O = . + o @ > > 6 I P 4.;.0.0.;.0.cXOXOXzXzXzXzXkXkXkXbXbXbXbXbXgXgXgXiXiXiXcXcXG.7.u._ Q Q Q Q Q Q Q Q Q BXk.k.k.k.k.v.k.k.k.k.k.k.k.k.k.k.k.k.k.k.k.k.k.k.k.k.k.k.k.k.k.k.B.k.B.B.B.B.B.B.B.B.B.B.B.B.B.B.B.B.B.B.B.B.B.B.B.B.B.B.B.B.B.B.B.IXQ Q Q Q +.0.3.;.dXdXdXdX4X4X4X4X4X4X4X4XfXfXfXfXfXfXfXfXfXfXfXfXfXd.( _ / ^ l ; < * & > X o + . = O O $ $ $ # # #                                                           ",
"                                                                                    # # $ $ $ % % O - . + o @ > & L F 4.4.;.0.0.3.0.0.uXkXkXkXkXbXbXbXgXgXgXgXiXiXiXcXcXcX5X5X5X5XG.G.5.u.{ Q Q Q Q Q Q Q Q Q ` AXk.k.k.k.k.k.k.k.k.k.k.k.k.k.B.B.B.B.B.B.B.B.B.B.B.B.B.B.B.B.B.B.B.B.B.B.B.B.B.B.B.B.B.B.B.B.B.B.2X2X2X2X2X2X2X2X2X2X2X2X2X2X2X2XVXQ Q Q Q &.3.wXF.4XfXfXfXfXfXfXfX6X6X6X6X6XxXxXxXxXxXxXxXxXL.xXL.xX.._ / ^ ^ o.s 6 < * & > X o + . = O O $ $ $ # # #                                                         ",
"                                                                                  # # $ $ $ % % O - . + o @ > & I O.4.4.;.;.0.0.1.d.3.3.fXgXgXgXgXiXiXiXcXcXcX5X5X5X5XG.qXqXqXqXaXaXaXpX7.`.Q Q Q Q Q Q Q Q Q Q BXB.B.B.B.B.B.B.B.B.B.B.B.B.B.B.B.B.B.B.B.B.B.B.B.B.B.B.B.B.B.2X2X2X2X2X2X2X2X2X2X2X2X2X2X2X2X2X2X2X2X2X2X2X2X2X2X2X2X2X2X(.(.(.AXQ Q Q Q ^ 3.wXrX7X6X6XxXxXxXxXxXxXxXL.L.L.L.L.L.L.jXjXjXjXjXjXjXjXh.} / ^ ^ } e...K 0 < * & > @ o + . = O % $ $ $ # # #                                                       ",
"                                                                                # # # $ $ $ % O - . + o X > & b O.4.4.;.;.F.G.}.Y.Y.uXwX0.5XcXcXcX5X5X5X5XG.qXqXqXqXaXaXaXpXpXpXdXdXdX4XuX`.) Q Q Q Q Q Q Q Q Q Q JXB.B.B.B.B.B.B.B.B.B.2X2X2X2X2X2X2X2X2X2X2X2X2X2X2X2X2X2X2X2X2X2X2X2X2X2X2X2X2X2X2X(.(.(.(.(.(.(.(.(.(.(.(.(.(.(.(.(.(.(.(.KX{ Q Q Q Q { wXrX,.d.L.L.L.L.L.jXjXjXjXjXjXd.d.d.d.d.d.d.d.d.d.d.d.d.J._ / ^ ~ +...o.7.<.g q * & > @ o + . = O % $ $ $ # # #                                                     ",
"                                                                              # # # $ $ $ % O = . + o X > & b O.O.4.4.O.G.%XY.}.}.}.aXrX,.5.5XG.G.qXqXqXqXaXaXpXpXpXdXdXdX4X4XfXfXfX6XxXxX`./ Q Q Q Q Q Q Q Q Q Q ^ CX2X2X2X2X2X2X2X2X2X2X2X2X2X2X2X2X2X2X2X2X(.(.(.(.(.(.(.(.(.(.(.(.(.(.(.(.(.(.(.(.(.(.(.(.(.(.(.(.(.(.0X0X0X0X0X0X0X0X0X0XSXQ Q Q Q Q {.wX,.,.jXjXjXd.d.d.d.d.d.d.h.h.h.h.h.h.h.h.h.h.7X7X7X7X5.s./ ^ ~ / ....7.<.{.u.n a * & > @ o + . O O % $ $ $ # # #                                                   ",
"                                                                            # # # $ $ % O O - . + @ X > , b O.O.4.4.jX}.Y.}.}.}.OXzXzX4.,.,.6XaXaXaXpXpXpXdXdXdX4X4XfXfX6XxXxXL.L.jXjXd.O.`.} Q Q Q Q Q Q Q Q Q Q !  .KX2X(.(.(.(.(.(.(.(.(.(.(.(.(.(.(.(.(.(.(.(.(.(.(.(.(.(.(.(.(.(.0X0X0X0X0X0X0X0X0X0X0X0X0X0X0X:X0X:X0X0X0X0X0X:X:X:X:XVXQ Q Q Q Q Q J.,.,.0.d.d.h.h.h.h.h.h.7X7X7X7X7X7X7X5.5.5.5.5.5.5.5.5.../ ^ ~ )  ...4.;.{.u. .`.#.K ; & > @ o + . = O O $ $ $ # # # #                                               ",
"                                                                          # # # $ $ % % O - . + o X > , I O.O.4.4.aXY.}.}.}.OXzXzXzXkXL.&.&.;.dXdXdX4X4XfXfX6X6XxXxXL.L.jXjXd.d.h.h.h.7X+.#.Z.Q Q Q Q Q Q Q Q Q Q Q Q SX(.(.(.(.(.(.(.(.(.(.(.(.0X0X0X0X0X0X0X0X0X0X0X0X0X0X:X0X:X0X:X0X0X0X:X0X:X:X:X:X:X:X:X:X:X:X:X:X:X:X:X:X:X:X:X:X:XVXQ ! Q Q Q Q ` rX,.&.4.h.7X7X7X7X5.5.5.5.5.5.5.1.1.1.1.1.1.1.uXuXuXuXy.6.^ ^ ~ ^ ..o.G.kXG.y.`.#.] { Y j & > @ o + . = O O $ $ $ # # #                                               ",
"                                                                        # # # # $ $ % O = . + o X > , B O.O.4.4.qX}.}.}.OXzXzXkXkXkXbXiX,.&.J.uXfX6XxXxXxXL.jXjXjXd.d.h.h.h.7X7X5.5.1.0.#.#.t.! Q Q Q Q Q Q Q Q Q Q Q ` VX0X0X0X0X0X0X0X0X:X0X:X0X0X0X0X0X:X:X:X:X:X:X:X:X:X:X:X:X:X:X:X:X:X:X:X:X:X:X:X:X:X:X:X:X:X:XW.W.W.W.W.W.W.W.KXVXQ Q Q Q Q Q Q } ,.&.J.O.5.5.5.5.1.1.1.1.1.uXuXuXF.F.F.F.y.y.y.y.y.y.y.7.^ ^ ~ ) `.o.J.gXgXgXbX5X4.{ Z.} 6.k r > @ o + . = O % $ $ $ # # #                                             ",
"                                                                        # # # $ $ % O = . + o X > , L P O.O.4.qX}.}.OXzXzXzXkXkXbXbXgXgX5.| J.&.d.jXjXd.d.d.h.h.7X7X5.5.5.1.1.uXF.y.y.<.#.t.] ~ Q Q Q Q Q Q Q Q Q Q Q Q ! ZXKX:X:X:X:X:X:X:X:X:X:X:X:X:X:X:X:X:X:X:X:X:X:X:X:X:XW.:XW.W.W.W.W.W.W.W.W.W.W.W.W.W.W.W.W.W.W.W.W.W.W.W.HX+.Q ` Q Q Q Q Q Q #.&.J.J.3X1.1.uXuXF.F.F.y.y.y.y.y.3X3X3X3XO.O.O.O.O.O.;.( ^ ~ ) ~ 7.7.1.iXiXiXiXiXiX5XF.' ( / ^ j < @ o . - O O % $ $ $ # #                                             ",
"                                                                      # # # $ $ $ % O - + o @ > & 2 D O.O.4.qX}.OXzXzXzXkXkXbXbXgXgXiXiXqXe.| | 0.h.h.7X7X5.5.5.1.1.uXF.y.y.3XO.O.4.,.#.t.] ' _ Q Q Q Q Q Q Q Q Q Q Q Q Q Q u.HX:X:X:X:X:X:XW.W.W.W.W.W.W.W.W.W.W.W.W.W.W.W.W.W.W.W.W.W.W.W.W.W.W.W.W.W.W.W.-XW.-X-X-X-X-X-X-X-X-XJX_ Q Q Q Q Q Q Q Q Q 7.&.J.| y.F.y.y.y.3X3X3XO.O.O.O.O.4.4.4.4.4.;.;.;.;.0.{.^ ~ ) ` { 7.<.dX5XcXcXcXcXcXcXcXG.t.^ ~ ) x X @ + . - O O $ $ $ # # #                                           ",
"                                                                      # # $ $ $ % O - . o @ > & 2 I O.O.4.dXOXzXzXkXkXkXbXbXgXgXiXiXcXcX5X3Xe.e.e.y.5.1.1.uXF.y.y.3XO.O.4.4.;.0.3.3.{.t.] ] { 6.Q Q Q Q Q Q Q Q Q Q Q Q Q Q Q / JXW.W.W.W.W.W.W.W.W.W.W.W.W.W.W.-XW.-XW.-X-X-X-X-X-X-X-X-X-X-X-X-X-X-X-X-X-X-X-X-X-X-X-X-X-X-XCX+.Q Q Q Q Q Q Q Q Q Q Q | J.| e.3X3XO.O.O.O.4.4.4.;.;.;.0.0.0.0.0.0.3.3.3.wX,._ ^ ~ ) ) 7.7.e.G.G.G.G.G.G.5X5X5X5./ ^ ) ! 8 > X @ o . = O % $ $ $ # #                                           ",
"                                                                    # # # $ $ % O = . + @ X & * : O.O.4.d.zXzXkXkXkXbXbXgXgXiXiXcXcX5X5X5XfX......| y.y.3XO.O.4.4.;.0.3.3.wX,.,.&.| #.] ] ' { } Q Q Q Q Q Q Q Q Q Q Q Q Q Q Q Q Q ZXCX-X-X-X-X-X-X-X-X-X-X-X-X-X-X-X-X-X-X-X-X-X-X-X-X-X-X-X-XV.-X-XV.V.V.V.V.V.V.V.V.V.V.CXZXQ Q Q Q Q Q Q Q Q Q Q Q ~ J.J.e.J.4.4.4.;.;.0.0.0.0.3.3.3.wXwXwXrX,.,.,.,.,.,.{.^ ~ ) ` { 7.{.3XaXaXqXqXqXaXqXqXpX} ^ ) ` f 2 & > X o + . O O % $ $ # # #                                         ",
"                                                                    # # $ $ % % O - + o X > , 2 D O.4.uXbXkXkXkXbXbXgXgXiXiXcXcX5X5X5XG.qXqX0.o.....,.4.;.0.0.3.wXrX,.&.J.J.| e.e.u.t.] ' { Z.Z.Q Q Q Q Q Q Q Q Q Q Q Q Q Q Q Q Q Q Q rXHX-X-X-X-X-X-XV.-XV.-XV.V.V.V.V.V.V.V.V.V.V.V.V.V.V.V.V.V.V.V.V.V.V.V.V.V.V.V.qXZXQ Q Q Q Q Q Q Q Q Q Q Q Q Q ( J.| e.| 0.0.0.3.3.wXwXwXrX,.,.,.,.&.&.&.J.J.J.J.J.| ( ~ ) ` ! +.<.+.L.pXpXpXpXpXpXpXpX,.^ ~ ` d 5 4 * & > @ o . = O % $ $ $ # #                                         ",
"                                                                  # # # $ $ % O = . o @ > & 2 V O.O.4.cXkXkXbXbXgXgXiXiXcXcX5X5X5XG.qXqXaXaXh.7.o.....rXrX,.,.&.J.| e.e.....o.7.<.t.] ' { { Z.%.` Q Q Q Q Q Q Q Q Q Q Q Q Q Q Q Q Q Q Q Q ZXqXV.V.V.V.V.V.V.V.V.V.V.V.V.V.V.V.V.V.V.V.V.V.V.V.V.V.V.V.V.V.V.V.V.HX5._ Q Q Q Q Q Q Q Q Q Q Q Q Q Q Q Q ] | e...| wXwXrX,.,.,.&.&.J.J.J.J.J.| | e.e.e.e.e... .~ ) ` ! 6.<.{.o.4X4X4X4X4X4XdXdXL.^ ~ ` ! Q w ; < * & X o + - O O % $ $ # # #                                       ",
"                                                                # # # $ $ % % O - + @ > & * < F O.4.fXkXbXbXgXgXgXiXiXcX5X5X5XG.qXqXaXaXpXpXdXe.7.o.7...J.| e.....o.o.7.<.{.+.u.`.] ] { { Z.%.[ ~ Q Q Q Q Q Q Q Q Q Q Q Q Q Q Q Q Q Q Q Q ! Q _ 3XiXW.V.V.V.V.V.V.V.V.V.V.V.V.V.V.V.V.V.V.V.V.V.V.V.V.V.W.iX5.{ Q ! Q Q Q Q Q Q Q Q Q Q Q Q Q Q Q Q Q u.e.e...| &.&.J.J.J.J.| | e.e.e.e...........o.o.o.7._ ) ` ! ! u.{.u.0.6X6X6X6X6X6X6X6X .~ ) ! } <.d 8 6 2 , > @ o . = O % $ $ $ # #                                       ",
"                                                                # # # $ $ % O = . o X > , 2 B O.4.4.iXbXbXgXgXiXiXcXcX5X5XG.qXqXaXaXpXpXdXdX4XF.<.<.7.7.o.o.7.7.<.{.+.u. . .`.#.] ] ' { Z.%.[ } ^ Q Q Q Q Q Q Q Q Q Q Q Q Q Q Q Q Q Q Q Q Q Q Q Q Q Q +.5.qXHXV.V.V.V.V.V.V.V.V.V.V.V.V.V.V.V.V.UXiX5.ZXQ Q ! ! Q Q Q Q Q Q Q Q Q Q Q Q Q Q Q Q Q Q Q 7.e.....e.| | e.e.e.e.........o.o.7.7.7.7.7.<.<.{.t.~ ) ` ! 6.{.+. .7XL.L.L.L.L.L.L.O.^ ) ` ! J.4._ h ; < * & > @ + . O O % $ $ # # #                                     ",
"                                                              # # # $ $ % O = . o @ > & 2 6 F 4.4.;.uXiXgXiXiXcXcX5X5XG.qXqXaXaXpXpXdXdX4XfXfXL.7.{.<.<.<.{.{.+.u.u. . .`.`.#.t.] ' { Z.Z.[ } } / Q Q Q Q Q Q Q Q Q Q Q Q Q Q Q Q Q Q Q Q Q Q Q Q Q Q Q Q ! ! Q +.ZX3XL.L.qXCXCXCXCXCXJXL.wXZXQ Q Q ! ! Q Q Q Q Q Q Q Q Q Q Q Q Q Q Q Q Q Q Q Q Q Q Q e.....o...........o.o.7.7.7.<.<.<.{.{.+.+.u.u.u.u.^ ) ` ! !  .+.u.<.d.d.d.d.d.d.d.d.} ) ` ! { | ,.| Q f 6 2 * > X o . - O O $ $ # # #                                     ",
"                                                              # # # $ $ % O - + o X & * < 5 ] ;.4.;.0.F.qXcXcX5X5XG.qXqXqXaXpXpXdXdX4XfXfX6XxXL.0.+.+.<.{.{.+.u.u. . .`.`.#.#.] ' { Z.Z.%.} } s._ Q Q Q Q Q Q Q Q Q Q Q Q Q Q Q Q Q Q Q Q Q Q Q Q Q Q Q Q Q Q Q ! ! Q Q Q ! Q ! ! ! ! ` Q Q Q Q Q Q Q Q Q Q Q Q Q Q Q Q Q Q Q Q Q Q Q Q Q Q Q Q Q Q ^ ....o.7.o.o.7.7.7.<.<.{.{.+.+.u.u. . . . .`.`.`.Z.) ` ! ! / +.u. .&.7X7X7X7X7X7X7X..~ ` ! )  .7...J.Z.Q a 6 2 & > @ + . = O % $ $ # # #                                   ",
"                                                            # # # $ $ % O = . o @ > , 2 6 k ~ 4XxXy.0.3.;.pX5XG.qXqXqXaXaXpXdXdX4X4XfX6XxXL.jXjX7X+.u.+.+.+.+.u. . .`.`.`.#.] ' { { Z.%.[ } s.6.( Q Q Q Q Q Q Q Q Q Q Q Q Q Q Q Q Q Q Q Q Q Q Q Q Q Q Q Q Q Q Q Q Q Q Q Q Q Q Q Q Q Q Q Q Q Q Q Q Q Q Q Q Q Q Q Q Q Q Q Q Q Q Q Q Q Q Q Q Q Q Q Q Q _ ..o.7.7.<.<.{.+.+.u.u. . . .`.`.`.`.#.#.t.] ] ] ^ ` ! ! ! #.u. .`.O.1.5.1.1.1.1.O./ ) ! ! 6.t. .{.o.7.Q h ; < * > X o . - O O $ $ # # #                                   ",
"                                                            # # # $ $ % = . + o X & * 4 u Q 3.dX4X6X7X0.wX0.4XqXqXaXaXpXpXdX4X4XfX6XxXL.jXjXd.h.h.J. . .+.u.u. . . .`.`.#.t.] { { Z.%.[ } s.6.( ( ! Q Q Q Q Q Q Q Q Q Q Q Q Q Q Q Q Q Q Q Q Q Q Q Q Q Q Q Q Q Q Q Q Q Q Q Q Q Q Q Q Q Q Q Q Q Q Q Q Q Q Q Q Q Q Q Q Q Q Q Q Q Q Q Q Q Q Q Q Q Q Q Q { ..o.7.<.{.{.u. . .`.`.`.#.t.t.] ] ' { { Z.Z.6.^ ` ! ! ! ^ +. .`.u.F.F.y.y.y.y.y.#.) ! ! ` 6.%.' `.u.<.6.Q j 6 2 & > o + . = O $ $ $ # #                                   ",
"                                                            # # $ $ % O - . o @ > , 2 ; h ~ xXfXxXL.jXh.4.,.,.d.aXpXpXdXdX4XfX6XxXL.L.jXd.d.h.7X5.O. .`. .u. . . .`.`.#.t.] ' { Z.Z.[ } s.6.6.( _ ` Q Q Q Q Q Q Q Q Q Q Q Q Q Q Q Q Q Q Q Q Q Q Q Q Q Q Q Q Q Q Q Q Q Q Q Q Q Q Q Q Q Q Q Q Q Q Q Q Q Q Q Q Q Q Q Q Q Q Q Q Q Q Q Q Q Q Q Q Q Q Q Q ] o.7.<.{.{.+.u. .`.`.#.] ' { Z.Z.%.[ } s._ ^ ~ ) ` ! ! ! '  .`.#...O.O.O.O.O.4.J.) ` ! ! ~ / ( } Z.t. . .Q d 5 < * > @ o . - O % $ $ # # #                                 ",
"                                                          # # # $ $ % O . + o X & * 6 j Q | 6XL.jXd.h.7X5.O.&.&.7XdXdX4XfX6XxXL.L.jXd.d.h.7X7X5.1.uX7.`.`. . .`.`.`.#.#.] ' { Z.Z.[ } } 6.6.( _ _ ) Q Q Q Q Q Q Q Q Q Q Q Q Q Q Q Q Q Q Q Q Q Q Q Q Q Q Q Q Q Q Q Q Q Q Q Q Q Q Q Q Q Q Q Q Q Q Q Q Q Q Q Q Q Q Q Q Q Q Q Q Q Q Q Q Q Q Q Q Q Q Q Q  .7.7.{.+.+.u. .`.`.#.] ' { Z.[ } 6.( _ / ^ ~ ) ` ! ! ! ) u. .`.t.,.;.0.0.0.0.0.s.` ! ! ! ) ~ ^ _ 6.[ { #.^ Q f 6 2 & X o + . O O $ $ $ # #                                 ",
"                                                          # # $ $ % % = . o @ > , 2 ; h Q 7XL.d.h.7X5.1.uXy.4.&.J.3XfX6XxXxXL.jXd.d.h.h.7X5.1.1.F.y.,.`.#.`.`.`.`.#.#.t.] { { Z.%.} } s.6.( ( _ / ) Q Q Q Q Q Q Q Q Q Q Q Q Q Q Q Q Q Q Q Q Q Q Q Q Q Q Q Q Q Q Q Q Q Q Q Q Q Q Q Q Q Q Q Q Q Q Q Q Q Q Q Q Q Q Q Q Q Q Q Q Q Q Q Q Q Q Q Q Q Q Q Q +.7.<.{.+.u. . .`.#.t.' { Z.[ } 6.( _ / ^ ~ ) ` ! ! ! ! Z. .`.t.`.wXrXrX,.,.,.u.` ! ! Q Q ! ` ) ^ / ( s.Z.6.Q d 5 2 & > @ o . = % % $ $ # #                                 ",
"                                                        # # # $ $ % O - + o > & * 4 j Q } jXd.h.7X5.1.F.y.O.4.0.J.e.4.xXL.jXd.d.h.h.7X5.5.1.uXy.y.O.4. .t.] `.`.#.#.t.] ' { Z.%.[ } s.6.( ( _ / / ~ Q Q Q Q Q Q Q Q Q Q Q Q Q Q Q Q Q Q Q Q Q Q Q Q Q Q Q Q Q Q Q Q Q Q Q Q Q Q Q Q Q Q Q Q Q Q Q Q Q Q Q Q Q Q Q Q Q Q Q Q Q Q Q Q Q Q Q Q Q Q Q Q 7.<.{.+.u. . .`.#.t.] { Z.[ } 6.( _ / ^ ~ ) ` ! ! ! ! )  .`.#.] +.J.J.J.J.J.e.^ ! ! ! Q Q Q ! ! ` ~ ^ _ 6.} Q ! f 6 * & X o + . O O $ $ $ #                                 ",
"                                                        # # $ $ % % = . o @ > , 2 6 l Q ..h.7X5.1.uXy.3XO.4.0.3.rX| e.,.d.d.h.h.7X5.5.1.uXF.y.O.O.4.;.e.] ] t.#.#.] ] ' { Z.%.[ } s.6.6.( _ / / ^ ~ Q Q Q Q Q Q Q Q Q Q Q Q Q Q Q Q Q Q Q Q Q Q Q Q Q Q Q Q Q Q Q Q Q Q Q Q Q Q Q Q Q Q Q Q Q Q Q Q Q Q Q Q Q Q Q Q Q Q Q Q Q Q Q Q Q Q Q Q Q Q Q ^ <.{.+.u. . .`.#.t.] { Z.[ } 6.( _ / ^ ^ ~ ) ` ! ! ! ! } `.#.] { o.e.........{ ` ! ! Q Q Q Q Q Q ! ` ) ~ / _ ` Q h ; 2 & > @ o . O O % $ $ # #                               ",
"                                                      # # # $ $ % O - + o X & * < p Q Q ;.7X5.1.F.y.O.4.;.0.wX,.&.J.....J.7X7X5.5.1.uXF.y.3XO.4.;.0.3.,.t.' { t.t.] ' { Z.Z.[ } } 6.6.( _ _ / ^ ^ ~ Q Q Q Q Q Q Q Q Q Q Q Q Q Q Q Q Q Q Q Q Q Q Q Q Q Q Q Q Q Q Q Q Q Q Q Q Q Q Q Q Q Q Q Q Q Q Q Q Q Q Q Q Q Q Q Q Q Q Q Q Q Q Q Q Q Q Q Q Q Q Q / {.+.u. . .`.`.#.] { Z.%.} s.( _ / ^ ^ ~ ) ` ! ! ! ! ` `.#.] { { 7.7.7.7.7.`.` ! ! Q Q Q Q Q Q Q Q ! ! ` ) ^ ) Q Q 9 < * > X o + = O % $ $ $ #                               ",
"                                                      # # # $ $ % O . + @ > & 2 6 x Q Q 5.1.uXy.3X4.;.0.3.rX,.J.| e.....o.e.y.1.uXF.y.3XO.4.;.0.3.wX,.&.{.{ Z.{ ] ' { Z.Z.%.} } s.6.( _ _ / ^ ^ ^ ~ Q Q Q Q Q Q Q Q Q Q Q Q Q Q Q Q Q Q Q Q Q Q Q Q Q Q Q Q Q Q Q Q Q Q Q Q Q Q Q Q Q Q Q Q Q Q Q Q Q Q Q Q Q Q Q Q Q Q Q Q Q Q Q Q Q Q Q Q Q Q Q s.{.+.u. .`.`.#.] { Z.%.} s.6.( _ / ^ ~ ) ` ! ! ! ! ! 6.`.t.' Z.#.+. .] s.~ ` ! ! ! Q Q Q Q Q Q Q Q Q Q ! ` ) ` Q Q x 6 2 & > @ + - O O % $ $ # #                             ",
"                                                      # # $ $ % O = . o X > * < ; h Q Q uXF.3XO.4.0.3.wX,.&.J.e.e...o.7.7.7.7.O.y.3XO.4.;.0.3.wX,.&.J.| ..Z.Z.%.' { { Z.%.[ } s.6.( ( _ / / ^ ^ ~ ) ! Q Q Q Q Q Q Q Q Q Q Q Q Q Q Q Q Q Q Q Q Q Q Q Q Q Q Q Q Q Q Q Q Q Q Q Q Q Q Q Q Q Q Q Q Q Q Q Q Q Q Q Q Q Q Q Q Q Q Q Q Q Q Q Q Q Q Q Q Q Q } +.u. .`.`.#.] ' { Z.[ s.6.( _ / ^ ~ ) ` ! ! ! ! ! ` #.#.' Z.[ %.s._ ^ ~ ) ! ! ! Q Q Q Q Q Q Q Q Q Q Q Q Q ! ! Q Q d ; < * > X o . = O % $ $ # #                             ",
"                                                    # # # $ $ % O - + o > & 2 6 p Q Q [ y.O.4.;.0.wX,.&.J.| e...o.7.<.{.+.<.<.<.,.4.4.0.0.wX,.,.J.| e.....`.%.} %.{ Z.%.[ } s.6.( ( _ / / ^ ^ ~ ) ) ! Q Q Q Q Q Q Q Q Q Q Q Q Q Q Q Q Q Q Q Q Q Q Q Q Q Q Q Q Q Q Q Q Q Q Q Q Q Q Q Q Q Q Q Q Q Q Q Q Q Q Q Q Q Q Q Q Q Q Q Q Q Q Q Q Q Q Q Q Q Q ] u. .`.`.#.] ' { Z.[ } 6.( _ / ^ ^ ~ ` ! ! ! ! ! ! ( #.] { %.} 6._ / ~ ) ! ! ! ! Q Q Q Q Q Q Q Q Q Q Q Q Q Q Q Q Q Q u 6 2 & > o + - O O $ $ # #                             ",
"                                                    # # $ $ % O = . o @ > * < ; j Q Q } O.4.0.3.wX,.&.J.e.....o.7.<.+.u. . .+.{.+.J.0.wXrXe.e.o.{.+.`.#.' %.[ } s.Z.Z.[ } s.6.6.( _ _ / ^ ^ ~ ~ ) ` ! Q Q Q Q Q Q Q Q Q Q Q Q Q Q Q Q Q Q Q Q Q Q Q Q Q ~ ( ( ( ( ( ( ( ( ( ( ] #.#.#.#.#.#.#.#.#.#.#.o.Q Q Q Q Q Q Q Q Q Q Q Q Q Q Q Q Q Q Q Q Q ]  . .`.#.t.] { Z.[ } 6.( _ / ^ ^ ~ ) ` ! ! ! ! ! ! ] ] { Z.} 6._ / ^ ) ` ! ! ! Q Q Q Q Q Q Q Q Q Q Q Q Q Q Q Q Q Q Q f ; 2 , > X o . = O % $ # # #                           ",
"                                                  # # # $ $ % O = . o X & * 4 7 x Q Q ^ ;.0.wX,.&.J.| e...o.7.<.{.+. . .`.#.t.u.u.u.+. .`.`.#.t.] ' { Z.%.[ } s.6.} [ } } 6.6.( _ _ / ^ ^ ~ ~ ) ` ` ! Q Q Q Q Q Q Q Q Q Q Q Q Q Q Q Q Q Q Q Q Q Q Q Q Q / e.| | | | | | | | | | | | | | | | | | | | | ] Q Q Q Q Q Q Q Q Q Q Q Q Q Q Q Q Q Q Q Q Q `. .`.#.t.] { Z.%.} s.6.( _ / ^ ~ ) ` ! ! ! ! ! ! / t.{ Z.} 6.( / ^ ~ ` ! ! ! Q Q Q Q Q Q Q Q Q Q Q Q Q Q Q Q Q Q Q Q l ; < * & X o . - O % $ # # #                           ",
"                                                  # # # $ $ % O - + o X & 2 6 e l Q Q Q 3.rX,.J.| e.....7.7.{.+.u. .`.`.t.] { {  . . .`.`.#.t.] ' { Z.Z.[ } s.6.( ( } } s.6.( ( _ / ^ ^ ^ ~ ) ) ` ! Q Q Q Q Q Q Q Q Q Q Q Q Q Q Q Q Q Q Q Q Q Q Q Q Q Q Q ^ 7.o.o.o.o.o.o.o.o.o.o.o.o.o.o.o.o.o.o.o.{.` Q Q Q Q Q Q Q Q Q Q Q Q Q Q Q Q Q Q Q Q Q  .`.`.#.] { Z.%.} s.6.( _ / ^ ~ ) ` ! ! ! ! ! ! ! { ' Z.[ s.( _ ^ ~ ` ! ! ! ! Q Q Q Q Q Q Q Q Q Q Q Q Q Q Q Q Q Q Q Q d e 6 2 & > o + - O O $ $ # #                           ",
"                                                  # # # $ $ % O . + @ > , < ; q d Q Q Q o.&.J.| e...o.7.<.{.u. . .`.#.] ' { Z.%.Z.`.`.`.#.t.] ' { Z.Z.%.} } 6.6.( _ 6.s.6.( ( _ / / ^ ^ ~ ) ) ` ! ! Q Q Q Q Q Q Q Q Q Q Q Q Q Q Q Q Q Q Q Q Q Q Q Q Q Q Q Q / u.u.u.u.u.u.u.u.u.u.u.u.u.u.u.u.u.u.u.^ Q Q Q Q Q Q Q Q Q Q Q Q Q Q Q Q Q Q Q Q Q Q `.`.#.] ' { Z.[ } 6.( _ / ^ ~ ) ` ! ! ! ! ! ! ! / ] { %.s.( _ ^ ~ ) ! ! ! ! Q Q Q Q Q Q Q Q Q Q Q Q Q Q Q Q Q Q Q Q Q Q 0 6 2 , > @ + . O O % $ # #                           ",
"                                                  # # $ $ $ O = . o X > * 4 ; : Q Q Q Q { | e.....7.<.{.+.u. .`.#.t.] { Z.%.} } 6.} #.#.#.] ] { { Z.%.} } 6.6.( _ _ / 6.6.( _ / / ^ ^ ~ ~ ) ` ! ! ! Q Q Q Q Q Q Q Q Q Q Q Q Q Q Q Q Q Q Q Q Q Q Q Q Q Q Q Q Q / #.#.#.#.#.#.#.#.#.#.#.#.#.#.#.#.#.[ Q Q Q Q Q Q Q Q Q Q Q Q Q Q Q Q Q Q Q Q Q Q ^ `.#.] ' { Z.[ } 6.( _ / ^ ^ ~ ) ` ! ! ! ! ! ! ! [ { %.} 6._ / ^ ) ` ! ! ! ! Q Q Q Q Q Q Q Q Q Q Q Q Q Q Q Q Q Q Q Q Q Q w ; < * > @ o . = O % $ # # #                         ",
"                                                  # # $ $ % O = . o X & 2 6 e i Q Q Q Q ` ....o.7.<.+.u. .`.`.#.] ' { Z.[ } s.6.( _ } #.t.] ' { Z.%.[ } s.6.( _ _ / ^ ( ( _ _ / ^ ^ ~ ~ ) ` ` ! ! ! Q Q Q Q Q Q Q Q Q Q Q Q Q Q Q Q Q Q Q Q Q Q Q Q Q Q Q Q Q Q ^ [ [ [ [ [ [ [ [ [ [ [ [ [ [ [ } ! Q Q Q Q Q Q Q Q Q Q Q Q Q Q Q Q Q Q Q Q Q Q ~ #.t.] { Z.%.} s.( _ / ^ ^ ~ ) ` ! ! ! ! ! ! ! ~ { Z.} 6.( / ^ ) ` ! ! ! ! Q Q Q Q Q Q Q Q Q Q Q Q Q Q Q Q Q Q Q Q Q Q Q w e 6 * & X o . = O % $ # # #                         ",
"                                                # # # $ $ % O - + o X & 2 6 q 9 Q Q Q Q Q [ 7.<.{.+.u. .`.#.t.] { Z.%.} s.6.( ( _ / / s.] ' { Z.%.[ } s.6.( ( _ / ^ ^ ^ _ _ / ^ ^ ^ ~ ) ` ` ! ! ! ! ! Q Q Q Q Q Q Q Q Q Q Q Q Q Q Q Q Q Q Q Q Q Q Q Q Q Q Q Q Q Q ~ _ _ _ _ _ _ _ _ _ _ _ _ _ _ ) Q Q Q Q Q Q Q Q Q Q Q Q Q Q Q Q Q Q Q Q Q Q Q / t.] { Z.%.} s.6.( _ / ^ ~ ) ` ! ! ! ! ! ! ! ! } Z.[ 6.( / ^ ~ ` ! ! ! ! Q Q Q Q Q Q Q Q Q Q Q Q Q Q Q Q Q Q Q Q Q Q Q Q 9 q 6 2 & X o + - O O $ # # #                         ",
"                                                # # # $ $ % O - + @ > & < ; q 9 Q Q Q Q Q Q ' +.u. .`.`.#.] ' { Z.[ } s.6.( _ / / ^ ^ ~ } { Z.Z.[ } s.6.( ( _ / / ^ ^ ~ / / / ^ ^ ~ ) ) ` ! ! ! ! ! ! Q Q Q Q Q Q Q Q Q Q Q Q Q Q Q Q Q Q Q Q Q Q Q Q Q Q Q Q Q Q Q ` ` ` ` ` ` ` ` ` ` ` ` ` ` Q Q Q Q Q Q Q Q Q Q Q Q Q Q Q Q Q Q Q Q Q Q Q Q ( ] ' { Z.} s.6.( _ / ^ ~ ) ` ! ! ! ! ! ! ! ! ~ Z.[ s.( _ ^ ~ ) ! ! ! ! ! Q Q Q Q Q Q Q Q Q Q Q Q Q Q Q Q Q Q Q Q Q Q Q Q 9 q ; 2 & > o + - O O $ # # #                         ",
"                                                # # # $ $ % O . o @ > , < ; : 9 Q Q Q Q Q Q Q Z. .`.#.] ' { Z.%.} s.6.( _ _ / ^ ^ ^ ~ ~ ) } Z.%.} } 6.6.( _ / / ^ ^ ~ ) ^ / ^ ^ ~ ) ) ` ! ! ! ! ! ! ! Q Q Q Q Q Q Q Q Q Q Q Q Q Q Q Q Q Q Q Q Q Q Q Q Q Q Q Q Q Q Q Q Q ! ! ! ! ! ! ! ! ! ! ! Q Q Q Q Q Q Q Q Q Q Q Q Q Q Q Q Q Q Q Q Q Q Q Q Q _ ' { Z.[ } 6.( _ / ^ ^ ) ` ! ! ! ! ! ! ! ! ! ( %.} 6._ / ~ ) ! ! ! ! ! Q Q Q Q Q Q Q Q Q Q Q Q Q Q Q Q Q Q Q Q Q Q Q Q Q 9 q ; < , > @ + . O O $ $ # #                         ",
"                                                # # # $ $ % = . o @ > * 4 7 : 9 Q Q Q Q Q Q Q Q _ ] ] { Z.Z.[ } 6.6.( _ / / ^ ^ ~ ~ ) ) ` ) s.[ } s.6.( _ _ / ^ ^ ~ ) ) ` ^ ^ ~ ~ ) ` ` ! ! ! ! ! ! ! Q Q Q Q Q Q Q Q Q Q Q Q Q Q Q Q Q Q Q Q Q Q Q Q Q Q Q Q Q Q Q Q Q Q ! ! ! ! ! ! ! ! ! Q Q Q Q Q Q Q Q Q Q Q Q Q Q Q Q Q Q Q Q Q Q Q Q Q Q 6.{ Z.[ } 6.( _ / ^ ^ ~ ) ` ! ! ! ! ! ! ! ! ` Z.} 6._ / ^ ) ` ! ! ! ! ! Q Q Q Q Q Q Q Q Q Q Q Q Q Q Q Q Q Q Q Q Q Q Q Q Q 9 : ; < * > @ + . O O $ $ # #                         ",
"                                                # # $ $ $ % = . o X > * 6 e : 9 Q Q Q Q Q Q Q Q Q ` ( %.[ } s.6.( _ _ / ^ ^ ^ ~ ~ ) ) ` ` ! ) s.s.6.( _ _ / ^ ^ ~ ~ ) ` ! ~ ~ ~ ) ` ` ! ! ! ! ! ! ! ! Q Q Q Q Q Q Q Q Q Q Q Q Q Q Q Q Q Q Q Q Q Q Q Q Q Q Q Q Q Q Q Q Q Q Q ! ! ! ! ! ! ! Q Q Q Q Q Q Q Q Q Q Q Q Q Q Q Q Q Q Q Q Q Q Q Q Q Q Q } Z.%.} s.6.( _ ^ ^ ~ ) ` ! ! ! ! ! ! ! ! ! ( } 6.( / ^ ~ ` ! ! ! ! ! Q Q Q Q Q Q Q Q Q Q Q Q Q Q Q Q Q Q Q Q Q Q Q Q Q Q 9 : ; < * > @ o . = % $ $ # #                         ",
"                                                # # $ $ % % = . o X & * 6 e 5 9 Q Q Q Q Q Q Q Q Q Q Q Q ) ^ / ( _ / / ^ ^ ~ ~ ) ` ` ! ! Q Q Q ) 6.( ( _ / ^ ^ ~ ~ ) ` ` ! ` ~ ) ) ` ! ! ! ! ! ! ! ! ! Q Q Q Q Q Q Q Q Q Q Q Q Q Q Q Q Q Q Q Q Q Q Q Q Q Q Q Q Q Q Q Q Q Q Q Q Q Q Q Q Q Q Q Q Q Q Q Q Q Q Q Q Q Q Q Q Q Q Q Q Q Q Q Q Q Q Q Q Q 6.%.} s.6.( _ / ^ ~ ) ` ! ! ! ! ! ! ! ! ! ` [ s.( _ ^ ~ ` ! ! ! ! ! Q Q Q Q Q Q Q Q Q Q Q Q Q Q Q Q Q Q Q Q Q Q Q Q Q Q Q 9 : 7 4 * > @ o . = O $ $ # #                         ",
"                                                # # $ $ % % - + o X & * 6 q 5 s Q Q Q Q Q Q Q Q Q Q Q Q Q Q Q Q Q ! ! ! ! ! Q Q Q Q Q Q Q Q Q Q ~ ( _ / / ^ ^ ~ ) ` ` ! ! ! ) ) ` ! ! ! ! ! ! ! ! ! ! Q Q Q Q Q Q Q Q Q Q Q Q Q Q Q Q Q Q Q Q Q Q Q Q Q Q Q Q Q Q Q Q Q Q Q Q Q Q Q Q Q Q Q Q Q Q Q Q Q Q Q Q Q Q Q Q Q Q Q Q Q Q Q Q Q Q Q Q Q s.[ } 6.( _ / ^ ~ ) ` ! ! ! ! ! ! ! ! ! ! / s.( _ ^ ~ ) ! ! ! ! ! ! Q Q Q Q Q Q Q Q Q Q Q Q Q Q Q Q Q Q Q Q Q Q Q Q Q Q Q 9 : 7 4 * > X o . = O $ $ # #                         ",
"                                                # # $ $ % O - + o > & 2 6 q 5 s Q Q Q Q Q Q Q Q Q Q Q Q Q Q Q Q Q Q Q Q Q Q Q Q Q Q Q Q Q Q Q Q Q ^ / / ^ ^ ~ ) ) ` ! ! ! ! ` ` ! ! ! ! ! ! ! ! ! ! ! Q Q Q Q Q Q Q Q Q Q Q Q Q Q Q Q Q Q Q Q Q Q Q Q Q Q Q Q Q Q Q Q Q Q Q Q Q Q Q Q Q Q Q Q Q Q Q Q Q Q Q Q Q Q Q Q Q Q Q Q Q Q Q Q Q Q Q Q Q [ } 6.( _ / ^ ^ ~ ) ` ! ! ! ! ! ! ! ! ! ! s.6._ / ^ ) ` ! ! ! ! ! Q Q Q Q Q Q Q Q Q Q Q Q Q Q Q Q Q Q Q Q Q Q Q Q Q Q Q Q 9 : e 6 * > X o . = O $ $ # #                         ",
"                                                # # $ $ % O - + o > & 2 ; q 5 s Q Q Q Q Q Q Q Q Q Q Q Q Q Q Q Q Q Q Q Q Q Q Q Q Q Q Q Q Q Q Q Q Q Q ^ ^ ^ ~ ) ) ` ! ! ! ! ! ! ` ! ! ! ! ! ! ! ! ! ! ! Q Q Q Q Q Q Q Q Q Q Q Q Q Q Q Q Q Q Q Q Q Q Q Q Q Q Q Q Q Q Q Q Q Q Q Q Q Q Q Q Q Q Q Q Q Q Q Q Q Q Q Q Q Q Q Q Q Q Q Q Q Q Q Q Q Q Q Q Q } 6.( _ / 6.`.#.] { Z.Z.6.! ! ! ! ! ! ! ^ 6.( / ^ ) ` ! ! ! ! ! ! Q Q Q Q Q Q Q Q Q Q Q Q Q Q Q Q Q Q Q Q Q Q Q Q Q Q Q Q 9 : e 6 * > X o . = O $ $ # #                         ",
"                                                # # $ $ % O - + @ > & 2 ; q 5 s Q Q Q Q Q Q Q Q Q Q Q Q Q Q Q Q Q Q Q Q Q Q Q Q Q Q Q Q Q Q Q Q Q Q ! ^ ~ ~ ) ` ! ! ! ! ! ! ! ! ! ! ! ! ! ! ! ! ! ! ! Q Q Q Q Q Q Q Q Q Q Q Q Q Q Q Q Q Q Q Q Q Q Q Q Q Q Q Q Q Q Q Q Q Q Q Q Q Q Q Q Q Q Q Q Q Q Q Q Q Q Q Q Q Q Q Q Q Q Q Q Q Q Q Q Q Q Q Q s. .J.O.1.h.h.h.7X7X5.1.1.1.1.uX,.J.{.[ ! 6.( / ^ ~ ` ! ! ! ! ! ! Q Q Q Q Q Q Q Q Q Q Q Q Q Q Q Q Q Q Q Q Q Q Q Q Q Q Q Q Q 9 : e 6 * > X o . = O $ $ # #                         ",
"                                                # # $ $ % O - + @ > & 2 ; q 3 s Q Q Q Q Q Q Q Q Q Q Q Q Q Q Q Q Q Q Q Q Q Q Q Q Q Q Q Q Q Q Q Q Q Q Q ` ~ ) ` ` ! ! ! ! ! ! ! ! ! ! ! ! ! ! ! ! ! ! ! Q Q Q Q Q Q Q Q Q Q Q Q Q Q Q Q Q Q Q Q Q Q Q Q Q Q Q Q Q Q Q Q Q Q Q Q Q Q Q Q Q Q Q Q Q Q Q Q Q Q Q Q Q Q Q Q Q Q Q Q Q Q Q Q )  .J.1.7X7X5.5.5.5.1.1.1.uXuXF.F.y.y.y.y.3X3XO.y.3.<.s.~ ) ! ! ! ! ! ! Q Q Q Q Q Q Q Q Q Q Q Q Q Q Q Q Q Q Q Q Q Q Q Q Q Q Q Q Q Q 9 : e 6 * & X o . = O $ $ # #                         ",
"                                                # # $ $ % O - + @ > & 2 ; q 3 s Q Q Q Q Q Q Q Q Q Q Q Q Q Q Q Q Q Q Q Q Q Q Q Q Q Q Q Q Q Q Q Q Q Q Q Q ` ` ` ! ! ! ! ! ! ! ! ! ! ! ! ! ! ! ! ! ! ! ! Q Q Q Q Q Q Q Q Q Q Q Q Q Q Q Q Q Q Q Q Q Q Q Q Q Q Q Q Q Q Q Q Q Q Q Q Q Q Q Q Q Q Q Q Q Q Q Q Q Q Q Q Q Q Q Q Q Q Q Q Q Q t.rX7X5.5.5.5.1.1.1.uXuXF.F.y.y.y.3X3XO.O.O.O.y.3XO.y.3XO.4.J.' ) ! ! ! ! ! Q Q Q Q Q Q Q Q Q Q Q Q Q Q Q Q Q Q Q Q Q Q Q Q Q Q Q Q Q Q 9 5 e 6 2 & X o . = O $ $ # # #                       ",
"                                                # # $ $ % O - + @ > & 2 ; : 3 s Q Q Q Q Q Q Q Q Q Q Q Q Q Q Q Q Q Q Q Q Q Q Q Q Q Q Q Q Q Q Q Q Q Q Q Q Q ` ! ! ! ! ! ! ! ! ! ! ! ! ! { { {.o.o.o.o.....o.Z.Z.) Q Q Q Q Q Q Q Q Q Q Q Q Q Q Q Q Q Q Q Q Q Q Q Q Q Q Q Q Q Q Q Q Q Q Q Q Q Q Q Q Q Q Q Q Q Q Q Q Q Q Q Q Q Q ) +.3X5.5.1.1.1.uXuXF.F.y.y.y.3X3XO.O.O.4.4.4.;.;.0.0.4.O.O.4.;.0.wX,.J.#.) ! ! Q Q Q Q Q Q Q Q Q Q Q Q Q Q Q Q Q Q Q Q Q Q Q Q Q Q Q Q Q Q Q 9 5 e 6 2 & X o . = O $ $ # # #                       ",
"                                                # # $ $ % O - + @ > & 2 ; : 3 s Q Q Q Q Q Q Q Q Q Q Q Q Q Q Q Q Q Q Q Q Q Q Q Q Q Q Q Q Q Q Q Q Q Q Q Q Q Q ! ! ! ! ! ! ! ! Z.7.,.y.5.5.5.5.5.5.5.5.5.5.5.5.5.5.uX0...] ) Q Q Q Q Q Q Q Q Q Q Q Q Q Q Q Q Q Q Q Q Q Q Q Q Q Q Q Q Q Q Q Q Q Q Q Q Q Q Q Q Q Q Q Q Q Q Q Q <.y.1.1.uXuXF.F.y.y.y.3X3XO.O.O.4.4.4.;.;.0.0.0.3.3.wXwXrX,.rXwXwX,.&.J.J.J.e.] ` Q Q Q Q Q Q Q Q Q Q Q Q Q Q Q Q Q Q Q Q Q Q Q Q Q Q Q Q Q Q Q 9 5 e 6 2 & X o . = O $ $ # # #                       ",
"                                              # # # $ $ % O - + @ > , 2 ; : 3 s Q Q Q Q Q Q Q Q Q Q Q Q Q Q Q Q Q Q Q Q Q Q Q Q Q Q Q Q Q Q Q Q Q Q Q Q Q Q Q ! ! ! ! `.e.y.1.1.1.1.1.1.1.1.1.1.1.1.1.1.1.1.1.1.1.1.1.1.1.;.u./ Q Q Q Q Q Q Q Q Q Q Q Q Q Q Q Q Q Q Q Q Q Q Q Q Q Q Q Q Q Q Q Q Q Q Q Q Q Q Q Q Q Q Q ' 4.F.F.F.y.y.y.3X3XO.O.4.4.4.;.;.;.0.0.0.3.3.wXwXrX,.,.,.&.&.J.J.J.| | | e.e.e.....<.( Q Q Q Q Q Q Q Q Q Q Q Q Q Q Q Q Q Q Q Q Q Q Q Q Q Q Q Q Q Q 9 5 e 6 * & X o . = O $ $ # # #                       ",
"                                              # # # $ $ % O - + @ > & 2 ; : 3 s Q Q Q Q Q Q Q Q Q Q Q Q Q Q Q Q Q Q Q Q Q Q Q Q Q Q Q Q Q Q Q Q Q Q Q Q Q Q Q Q / ..O.F.F.F.F.F.F.F.F.F.F.F.F.F.F.F.F.F.F.F.F.F.F.F.F.F.F.F.F.F.3.#.) Q Q Q Q Q Q Q Q Q Q Q Q Q Q Q Q Q Q Q Q Q Q Q Q Q Q Q Q Q Q Q Q Q Q Q Q Q Q ) | y.y.3X3XO.O.O.4.4.4.;.;.0.0.0.3.3.wXwXwXrX,.,.&.&.J.J.J.| | e.e.e.e...........o.o.7.7.<.t.! Q Q Q Q Q Q Q Q Q Q Q Q Q Q Q Q Q Q Q Q Q Q Q Q Q Q Q Q 9 : e 6 * & X o . = O $ $ # #                         ",
"                                                # # $ $ % O - + @ > & 2 ; : 3 G Q Q Q Q Q Q Q Q Q Q Q Q Q Q Q Q Q Q Q Q Q Q Q Q Q Q Q Q Q Q Q Q Q Q Q Q Q Q } J.O.3XO.O.O.O.O.O.O.O.O.O.O.O.3X3X3X3X3X3X3X3X3X3X3X3X3X3X3X3X3X3X3X3X4.+.) Q Q Q Q Q Q Q Q Q Q Q Q Q Q Q Q Q Q Q Q Q Q Q Q Q Q Q Q Q Q Q Q Q Q Q { 4.O.O.O.4.4.4.;.;.0.0.0.3.3.wXwXrX,.,.,.&.&.J.J.J.| | e.e.e...........o.o.7.7.<.<.<.{.{.+.u.u.`.~ Q Q Q Q Q Q Q Q Q Q Q Q Q Q Q Q Q Q Q Q Q Q Q Q Q Q Q 9 : e 6 * > X o . = O $ $ # #                         ",
"                                                # # $ $ % O - + @ > & 2 ; q 3 T ^ Q Q Q Q Q Q Q Q Q Q Q Q Q Q Q Q Q Q Q Q Q Q Q Q Q Q Q Q Q Q Q Q Q Q Q ^ ..;.;.;.4.4.4.4.4.4.4.4.4.4.4.4.4.4.4.4.4.4.4.4.4.4.4.4.4.4.4.4.4.4.4.4.4.4.4.0. .) Q Q Q Q Q Q Q Q Q Q Q Q Q Q Q Q Q Q Q Q Q Q Q Q Q Q Q Q Q Q Q Q u.4.4.4.;.;.0.0.0.3.3.wXwXrX,.,.,.&.&.J.J.J.| | e.e.e.........o.o.7.7.7.<.<.{.{.+.+.u.u. . . .`.`.`.`./ Q Q Q Q Q Q Q Q Q Q Q Q Q Q Q Q Q Q Q Q Q Q Q Q Q Q 8 : e 6 * > X o . = O $ $ # #                         ",
"                                                # # $ $ % O - + @ > & 2 ; q 5 L e.Q Q Q Q Q Q Q Q Q Q Q Q Q Q Q Q Q Q Q Q Q Q Q Q Q Q Q Q Q Q Q Q Q Q `.3.3.3.3.0.0.0.0.0.0.0.0.0.0.0.0.0.0.0.0.0.0.0.0.0.0.0.0.0.0.0.0.0.0.0.0.0.0.0.0.0.0.rX{ Q Q Q Q Q Q Q Q Q Q Q Q Q Q Q Q Q Q Q Q Q Q Q Q Q Q Q Q Q Q 7.;.0.0.0.3.3.wXwXrX,.,.,.&.&.J.J.J.| | e.e.e.........o.o.7.7.7.<.<.{.{.+.+.u.u. . . .`.`.`.#.#.t.] ] ' { ^ Q Q Q Q Q Q Q Q Q Q Q Q Q Q Q Q Q Q Q Q Q Q Q ! h 0 : e 4 * > X o . = O $ $ # #                         ",
"                                                # # $ $ % O - + o > & 2 ; q 5 y m Q Q Q Q Q Q Q Q Q Q Q Q Q Q Q Q Q Q Q Q Q Q Q Q Q Q Q Q Q Q Q Q / ..,.,.,.,.,.,.,.,.,.,.,.,.,.rX,.,.rXrXrXrXrXrXrXrXrXrXrXrXrXrXrXrXrXrXrXrXrXrXrXrXrXrXwXwXwXo.~ Q Q Q Q Q Q Q Q Q Q Q Q Q Q Q Q Q Q Q Q Q Q Q Q Q Q ` | 3.3.wXwXrX,.,.,.&.&.J.J.J.| | e.e.e.........o.o.7.7.7.<.<.{.{.+.+.u.u. . . .`.`.`.#.#.t.] ] ' { { Z.Z.%.[ } ~ Q Q Q Q Q Q Q Q Q Q Q Q Q Q Q Q Q Q Q Q Q Q Q x 0 : 7 4 * > X o . = O $ $ # #                         ",
"                                                # # $ $ % O - + o X & 2 6 q 5 y a Q Q Q Q Q Q Q Q Q Q Q Q Q Q Q Q Q Q Q Q Q Q Q Q Q Q Q Q Q Q Q 6.e.J.&.J.J.J.J.J.J.J.J.J.J.J.J.J.J.J.J.J.J.J.J.J.J.J.J.J.J.J.J.J.J.&.&.&.&.&.&.&.&.&.&.&.&.&.&.&.| %.Q Q Q Q Q Q Q Q Q Q Q Q Q Q Q Q Q Q Q Q Q Q Q Q ` e.rX,.,.,.&.&.J.J.J.| | e.e.e.......j.J.o.7.7.7.<.<.{.{.+.+.u.u. . . .`.`.`.#.#.t.] ] ' { { Z.Z.%.[ } } s.6.6.( ( ) Q Q Q Q Q Q Q Q Q Q Q Q Q Q Q Q Q Q Q Q Q Q w 3 : ; < * > @ o . = % $ $ # #                         ",
"                                                # # $ $ % % = + o X & * 6 e 5 0 p k Q Q Q Q Q Q Q Q Q Q Q Q Q Q Q Q Q Q Q Q Q Q Q Q Q Q Q Q Q Z.e.e.e.e.e.e.e.e.e.e.e.e.e.e.e.e.e.e.e.e.e.e.e.e.e.e.e.e.e.e.| | | | | | | | | | | ,.0.8.| | | | | | | #.Q Q Q Q Q Q Q Q Q Q Q Q Q Q Q Q Q Q Q Q Q Q Q u.&.&.J.J.J.| | e.e.e.........o.o.7.| '.I.M.8.e.{.+.u.u. . . .`.`.`.#.#.t.] ] ' { { Z.Z.%.[ } } s.6.6.( ( _ _ / / ^ ^ ! Q Q Q Q Q Q Q Q Q Q Q Q Q Q Q Q Q Q Q Q l r 3 : ; < * > @ o . O O $ $ # #                         ",
"                                                # # $ $ % % = . o X > * 6 e : 0 r w Q Q Q Q Q Q Q Q Q Q Q Q Q Q Q Q Q Q Q Q Q Q Q Q Q Q Q Q #.............................................................................| j.S.M.I./.T.z............... .` Q Q Q Q Q Q Q Q Q Q Q Q Q Q Q Q Q Q Q Q `.| | e.e.e.e.........o.o.7.7.7.<.<.{.U.!.zX;X_.M.a.*.u.`.`.#.#.t.] ] ' { { Z.Z.%.[ } } s.6.6.( ( _ _ / / ^ ^ ^ ~ ~ ) ) ` Q Q Q Q Q Q Q Q Q Q Q Q Q Q Q Q Q Q Q Q j y 3 q ; < * > @ + . O O $ $ # #                         ",
"                                                # # # $ $ % O . o @ > , < ; : 3 y 8 k Q Q Q Q Q Q Q Q Q Q Q Q Q Q Q Q Q Q Q Q Q Q Q Q Q Q ] 7.7.7.7.7.7.7.7.7.7.7.7.7.7.7.7.7.7.7.7.7.7.7.7.7.7.7.7.7.7.7.7.7.7.7.7.o.l.a.S.+X~.*XOXOX@X+XM...7.7.7.7.7.7.u.` Q Q Q Q Q Q Q Q Q Q Q Q Q Q Q Q Q Q 6.e.........o.o.o.7.7.<.<.{.{.+.+.u.u.j.=X8X;XvXgX8X!.N.p.b.t.{ { Z.Z.Z.%.[ } } s.6.6.( ( _ _ / / ^ ^ ^ ~ ~ ) ) ` ` ! ! ! ! Q Q Q Q Q Q Q Q Q Q Q Q Q Q Q Q Q Q Q l 8 0 5 q 6 2 , X o + - O O $ # # #                         ",
"                                                # # # $ $ % O . + @ > & < ; q 5 y p 9 d Q Q Q Q Q Q Q Q Q Q Q Q Q Q Q Q Q Q Q Q Q Q Q Q ( +.+.+.+.+.+.+.+.+.+.+.+.+.+.+.+.+.+.+.+.+.+.+.+.+.+.+.+.+.+.{.{.{.{.{.7.2.p.8.E.tX;X;X*X*X*X@X1XD.&XJ.{.{.{.{.{.{.`.! Q Q Q Q Q Q Q Q Q Q Q Q Q Q Q Q ) 7.o.o.7.7.7.<.<.{.{.+.+.u.u. . . .`.*.N./.8X1X1XtXtXlXC.).z.2.`.} } s.6.6.6.( ( _ _ / / ^ ^ ^ ~ ) ) ) ` ` ! ! ! ! ! ! ! ! ! ! Q Q Q Q Q Q Q Q Q Q Q Q Q Q Q Q Q Q s p 0 : e 6 2 & X o + - O % $ # # #                         ",
"                                                # # # $ $ % O - + o > & 2 6 e : 0 r i x Q Q Q Q Q Q Q Q Q Q Q Q Q Q Q Q Q Q Q Q Q Q Q ^  . . . . . . . . . . . . . . . . . . . . . . . . . . . . . . . . . .q.2.l.j.&X/.1X1X1X8X8XvXvX;X;XtXD.D.M.7. . . . . .] Q Q Q Q Q Q Q Q Q Q Q Q Q Q Q Q `.7.<.<.{.{.+.+.u.u. . . .`.`.`.#.#.*.N.].tXlXC.C.G.G./.~.|.aXE.l.-.6._ _ _ / ^ ^ ^ ~ ~ ) ) ` ` ! ! ! ! ! ! ! ! ! ! ! ! ! ! ! ! Q Q Q Q Q Q Q Q Q Q Q Q Q Q Q Q Q k i r 3 : 7 4 * & X o . = O % $ # # #                         ",
"                                                  # # $ $ % O = . o X > * 4 7 : 3 r 8 a h Q Q Q Q Q Q Q Q Q Q Q Q Q Q Q Q Q Q Q Q Q ! ] #.#.#.#.#.#.#.#.#.#.#.#.#.#.#.#.#.#.#.#.#.#.#.#.#.#.#.#.#.#.#.#.u.=.*.2.M.#XG.G.5XC.5XlXtXtX1X1X1X8XC.E.D.E.z.7.`.`.`.`.} Q Q Q Q Q Q Q Q ~ j.].b.~ Q _ {.+.+.u.u. . . .`.`.`.#.#.t.] ] #.j.N.E.C.G./.~.~.|._.#X#XdXdX4XI.S.q.6.^ ~ ~ ) ) ` ` ! ! ! ! ! ! ! ! ! ! ! ! ! ! ! ! ! ! ! ! ! ! Q Q Q Q Q Q Q Q Q Q Q Q Q Q Q d 1 8 r 3 : ; < * > @ + . = % % $ # # #                         ",
"                                                  # # $ $ % O = . o @ > * < ; q 5 y 8 a 9 d Q Q Q Q Q Q Q Q Q Q Q Q Q Q Q Q Q Q Q Q } { { { { { { { { { { { { { ' ' ' ' ' ' ' ' ' ' ' ' ' ' ' ' ' ' ] -.b.>.c.^.#X_._.|.~.~.~./.G.G.C.C.lXlXtXlX^.D.E.+X'.j.<.] ] ^ Q Q Q Q Q :.z.T.!.|.!.T.z.l. . . .`.`.`.#.#.t.] ] ' { { Z.>.M.'.D.|.~.|._.#X!.dX).).T.T.6XxXL.jXuXb./ ` ! ! ! ! ! ! ! ! ! ! ! ! ! ! ! ! ! ! ! ! ! ! ! ! ! ! ! Q Q Q Q Q Q Q Q Q Q Q Q Q Q Q j i p y 5 q 6 2 , > o + - O O % $ # #                           ",
"                                                  # # # $ $ % O . + o > & 2 6 e : 0 p i t f Q Q Q Q Q Q Q Q Q Q Q Q Q Q Q Q Q Q Q ) [ [ [ [ [ [ [ [ [ [ [ [ [ [ [ [ [ [ [ [ [ [ [ [ [ [ [ %.%.%.%.] w.q.b.z.xXfX).4X[.dX!.#X#X_.|.|.~.~./.G.G.C.C.!.<XE.+X<X^.+XN.N.2.2.m.=X).).).|.1X;X1X|.).).I.'.8.>.] ] ' { { Z.Z.%.w.j.m.&X'.+X#X#X!.[.[.).T.I.I.].^.^.<Xd.E.D.7X'.b.~ ! ! ! ! ! ! ! ! ! ! ! ! ! ! ! ! ! ! ! ! ! ! ! ! ! ! ! ! Q Q Q Q Q Q Q Q Q Q Q Q Q x a 8 r 0 : e 6 2 & > o . - O O $ $ # #                           ",
"                                                  # # # $ $ % O - + o X > * < ; q 5 y p i t k Q Q Q Q Q Q Q Q Q Q Q Q Q Q Q Q Q Q _ 6.6.6.6.6.6.6.6.6.6.6.6.6.6.6.6.6.6.6.6.6.6.6.6.6.6.6.6.6.6.] :.w.>.N.d.jX^.L.].I.I.T.T.).).[.!.!.#X_._.|.~.~././.[.^.+X<X^.^.].].I.I.T.[.|.lX1X1X1X1X1XC.!.T.T.I.I.].<XN.m.M.M.'.E.D.=X&X&X^.[.[.).T.T.I.].^.^.<X+XE.D.=X&X'.1.uXF.Q.>.~ ! ! ! ! ! ! ! ! ! ! ! ! ! ! ! ! ! ! ! ! ! ! ! ! ! ! ! Q Q Q Q Q Q Q Q Q Q Q Q l t i p y 3 q ; < * > X o . = O % $ # # #                           ",
"                                                    # # $ $ % % = . + @ > & 2 6 e : 0 r 8 a 1 l Q Q Q Q Q Q Q Q Q Q Q Q Q Q Q Q ` / / / / / / / / / / / / / / / / / / / / / / / / / / / / / _ ' r.:.l.1.&X7XD.h.E.d.+X<X^.^.].].I.T.T.).).[.!.!.#X_._.|.|.|.!.).).[.!.!.|./.C.C.C.lXC.lXC.C.C.C./.!.T.].^.^.<X<X+XE.E.D.=XD.<XT.T.I.I.].^.^.<X+XE.D.=X&X'.N.uXm.M.Q.O.z.;.0.=.~ ! ! ! ! ! ! ! ! ! ! ! ! ! ! ! ! ! ! ! ! ! ! ! ! ! ! ! Q Q Q Q Q Q Q Q Q Q h w a 8 r 0 : e 6 2 & > @ + - O O % $ # # #                           ",
"                                                    # # # $ $ % O - + o X & * < ; q 3 y p i t w h Q Q Q Q Q Q Q Q Q Q Q Q Q Q Q ) ~ ~ ~ ~ ~ ~ ~ ~ ~ ~ ~ ~ ~ ~ ~ ~ ~ ~ ~ ~ ~ ~ ~ ~ ~ ~ ~ ~ ^ { @.r.j.y.y.F.uX1.1.&X&X=XD.D.E.+X+X<X^.^.].].I.I.T.).).[.[.!.#X#X_._.|.|.|.~.~.~.~./.~.~.~.~./.~.~.~.|.|.#X[.T.].^.<X<X<X<X].I.I.].^.^.<X+XE.D.=X&X'.'.N.m.M.Q.U.z.S.x.3.8.p.j.c.X.` ! ! ! ! ! ! ! ! ! ! ! ! ! ! ! ! ! ! ! ! ! ! ! ! ! ! Q Q Q Q Q Q Q Q Q d s t i p y 3 : ; < * > X o . = O O $ $ # #                             ",
"                                                    # # # $ $ % O = . + @ > & 2 6 7 : 3 r 8 a t 9 h Q Q Q Q Q Q Q Q Q Q Q Q Q Q ! ! ! ! ! ! ! ! ! ! ! ! ! ! ! ! ! ! ! ! ! ! ` ` ` ` ` ` ` [ ] :.&.0.;.;.z.O.Q.Q.M.m.m.N.'.'.&X=XD.D.E.+X+X<X^.^.].].I.I.T.T.).).).[.[.!.!.!.#X#X#X#X_.#X_.!.#X!.!.!.[.[.).).T.T.I.I.].].^.<X+X+XE.D.D.&X&X'.N.m.M.Q.U.z.S.x.a.8.p.j.c.l.2.*...=.$.! ! ! ! ! ! ! ! ! ! ! ! ! ! ! ! ! ! ! ! ! ! ! ! ! ! Q Q Q Q Q Q Q Q d s 1 a 8 r 0 : e 6 2 & > @ o . O O % $ $ # #                             ",
"                                                      # # # $ $ % O - + o X > * < 6 q 5 0 r 8 a 1 s d Q Q Q Q Q Q Q Q Q Q Q Q Q ! ! ! ! ! ! ! ! ! ! ! ! ! ! ! ! ! ! ! ! ! ! ! ! ! ! ! ! 6.$.r.e.l.c.j.p.wX3.0.x.S.z.U.Q.Q.M.m.m.N.'.&X&X=XD.D.E.+X+X<X<X^.^.].].I.I.I.T.T.T.T.T.).).T.).).T.).T.T.T.I.I.].].].^.^.<X+XE.E.D.=X=X'.'.N.m.M.Q.Q.z.S.x.a.8.p.j.c.l.2.*.>.b.=.q.w.:.@._ ! ! ! ! ! ! ! ! ! ! ! ! ! ! ! ! ! ! ! ! ! ! ! ! ! Q Q Q Q Q Q Q d j 1 t 8 p 0 5 q ; < * > X o + - O O $ $ $ # #                             ",
"                                                      # # # $ $ % O = . o @ > & * 4 7 : 3 y p i t 1 j d Q Q Q Q Q Q Q Q Q Q Q ! ! ! ! ! ! ! ! ! ! ! ! ! ! ! ! ! ! ! ! ! ! ! ! ! ! ! ! / } @.=.o.b.>.*.2.2.l.c.j.p.8.a.x.x.S.z.U.Q.M.M.m.m.N.'.'.&X=XD.D.E.E.E.+X<X<X<X^.^.^.^.].^.].].].^.].^.^.^.<X<X<X+X+XE.E.D.D.=X&X'.N.N.m.M.M.Q.U.S.S.x.a.8.j.c.l.2.*.>.>.b.=.q.-.:.r.@.t.' $.~ ! ! ! ! ! ! ! ! ! ! ! ! ! ! ! ! ! ! ! ! ! ! ! ! ! Q Q Q Q Q d j 1 t a p y 3 : e 6 * & > @ o . = O % $ $ # #                               ",
"                                                        # # $ $ % % O - + o X > , 2 6 e : 3 y p a t 1 s h Q Q Q ! ! ! ! ! ! ! ` ` ` ` ` ` ` ` ` ` ` ` ` ` ` ` ` ` ` ` ` ` ` ` ` ` ` ~ 6.} { ] t.@.r.:.-.w.q.=.b.>.*.*.2.l.c.j.p.8.a.x.S.z.U.U.Q.M.M.m.N.N.'.'.&X=X=XD.D.D.E.E.E.E.E.E.E.+XE.E.E.E.D.D.D.=X=X&X&X'.'.N.m.m.M.M.Q.U.z.S.x.a.8.8.p.j.l.l.2.*.>.b.=.q.w.-.:.X.@.t.' $.$.6.` ` ` ` ` ` ` ` ` ` ` ` ` ` ` ` ` ` ` ` ` ` ` ` ` Q Q Q Q d j 1 t a 8 r 3 : q ; < , > X o + - O O $ $ $ # #                               ",
"                                                        # # # $ $ % % O - + o X > , < ; e : 3 y 8 i t 1 9 h Q Q Q ` ` ` ` ` ` ) ) ) ) ) ) ) ) ) ) ) ) ) ) ) ) ) ) ) ) ) ) ) ) ) ) ) / ( s.} $.{ ] t.@.r.:.-.w.q.=.b.>.*.2.2.l.c.j.p.8.a.x.S.z.U.U.Q.M.M.m.m.N.N.'.'.&X&X=X=X=XD.D.D.D.D.D.D.D.D.D.=X=X=X&X'.'.'.N.N.m.m.M.Q.Q.U.z.S.x.a.8.8.p.j.c.l.2.*.>.b.b.=.w.-.:.r.X.@.t.' $.[ oX/ ) ) ) ) ) ) ) ) ) ) ) ) ) ) ) ) ) ` ` ` ` ` ` ! Q Q Q d j 1 t a 8 r 0 5 q ; < * > X o + . O O % $ $ # #                                 ",
"                                                          # # # $ $ % O = . + @ X & * < ; q 5 0 r 8 i t 1 9 h Q Q ! ) ) ) ) ) ~ ~ ~ ~ ~ ~ ~ ~ ~ ~ ~ ~ ~ ~ ~ ~ ~ ~ ~ ~ ~ ~ ~ ~ ~ ~ ~ / _ 6.oX%.$.' t.@.X.r.:.-.w.=.=.b.>.*.2.l.l.c.j.p.8.a.x.S.z.z.U.Q.M.M.m.m.m.N.N.'.'.'.&X&X&X&X=X=X=X=X=X&X&X&X&X'.'.'.N.N.N.m.m.M.M.Q.U.U.z.S.x.a.8.8.p.j.c.l.2.*.>.>.b.=.q.w.:.:.X.@.t.' $.%.oX6.( ~ ~ ~ ~ ~ ~ ~ ~ ~ ) ) ) ) ) ) ) ) ) ) ) ) ) ` Q Q Q h s 1 t a 8 r 0 5 q ; 4 2 & > @ o . = O O $ $ $ # #                                 ",
"                                                          # # # $ $ $ % O - . o @ > & 2 4 ; q 5 0 r 8 a t 1 u k Q Q ` ~ ~ ~ ^ ^ ^ ^ ^ ^ ^ ^ ^ ^ ^ ^ ^ ^ ^ ^ ^ ^ ^ ^ ^ ^ ^ ^ ^ ^ ^ ^ ^ _ ( 6.} %.$.' t.@.X.r.:.w.q.=.b.>.>.*.2.l.l.j.j.p.8.a.x.x.S.z.U.U.Q.M.M.m.m.m.N.N.N.'.'.'.'.'.'.'.'.'.'.'.'.'.N.N.N.m.m.m.M.M.Q.Q.U.z.S.S.x.a.8.8.p.j.c.l.2.*.*.>.b.=.q.w.-.:.r.@.' [ [ $.[ s.6._ / ^ ^ ~ ~ ~ ~ ~ ~ ~ ~ ~ ~ ~ ~ ~ ~ ~ ~ ~ ~ ) Q Q ` h 9 u t a 8 p y 3 : 7 6 2 , > @ o + - O O % $ $ # # #                                 ",
"                                                            # # # $ $ % O O . + o @ > , 2 6 7 q 5 0 r 8 a t 1 u x Q Q ) ^ ^ ^ / / / / / / / / / / / / / / / / / / / / / / / / / ~ ~ ^ / _ 6.s.[ $.oX[ ( %.' :.-.w.q.=.b.>.>.*.2.l.l.c.j.p.8.a.a.x.S.z.z.U.Q.Q.M.M.M.m.m.m.N.N.N.N.N.'.N.'.N.N.N.N.N.m.m.m.m.M.M.Q.Q.U.U.z.S.x.x.a.8.p.p.j.c.l.2.*.*.>.b.=.q.w.-.:.@./ ! Q Q Q Q ~ _ ( / ^ ^ ^ ^ ^ ^ ^ ^ ^ ^ ^ ^ ^ ^ ^ ^ ^ ^ ^ ^ ^ ! Q Q k w u 1 a 8 p y 3 : e 6 2 * > X o + . = O % $ $ $ # # #                                 ",
"                                                            # # # # $ $ % O = . + o X > * 2 6 7 : 3 0 r 8 a t 1 u f d Q ~ _ _ _ _ _ _ _ _ _ _ _ _ _ _ _ _ _ _ _ _ _ _ _ _ _ _ _ ` ) ~ ^ / _ ^ ) Q Q Q Q Q Q ! s.-.w.q.=.b.>.>.*.2.l.l.c.j.p.8.8.a.x.x.S.z.U.U.U.Q.Q.M.M.M.M.m.m.m.m.m.m.m.m.m.m.m.M.m.M.M.M.Q.Q.U.U.z.S.S.x.a.8.8.p.j.j.c.l.2.*.*.>.b.=.q.w.-.r.( Q Q Q Q Q Q Q Q Q ` ^ ^ ~ _ _ _ _ _ _ _ _ _ _ _ _ _ _ _ _ _ / ! Q d f u u 1 a 8 p y 3 : q 6 < * & > @ + . = O O $ $ $ # # #                                   ",
"                                                              # # # $ $ % % O = . + @ > & * 2 6 e : 3 0 r 8 a t 1 u j h Q ^ ( ( ( ( ( ( ( ( ( ( ( ( ( ( ( ( ( ( ( ( 6.6.6.6.6.^ ! ) ~ ) ! Q Q Q Q Q Q Q Q Q Q Q _ -.w.q.=.b.>.>.*.2.2.l.c.j.p.p.8.a.a.x.x.S.z.z.U.U.Q.Q.Q.Q.M.M.M.M.M.M.M.M.M.M.M.M.Q.Q.Q.U.U.U.z.S.S.x.x.a.8.8.p.j.c.l.l.2.*.*.>.b.=.=.q.-.r.~ Q Q Q Q Q Q Q Q Q Q Q Q ) ) / ( ( ( ( ( ( ( ( ( ( ( ( ( ( ( ( ` Q d j u 1 1 a i p y 3 : q ; < * & > @ o . - O O % $ $ # # #                                     ",
"                                                                # # # $ $ $ % O = . o @ > & * 2 6 7 : 5 0 r 8 i t 1 u 9 k Q / } } } } } } } } } } } } } } } } } } } } } } } } ~ ! ! Q Q Q Q Q Q Q Q Q ) ! Q Q Q Q oX-.w.q.=.b.>.>.*.2.2.l.c.j.j.p.8.8.a.a.x.x.S.S.z.z.U.U.U.U.U.Q.Q.Q.Q.Q.Q.Q.Q.U.U.U.U.U.z.z.S.S.x.x.a.8.8.p.j.j.c.l.l.2.*.*.>.b.=.=.q.w.r.~ Q Q Q ~ _ 6.} 6.( ^ ! Q Q Q ) ) } } } } } } } } } } } } } } 6.` Q l 9 u 1 t a 8 p 0 3 : e 6 < * & > @ o + - O O % $ $ $ # # #                                     ",
"                                                                # # # # $ $ $ % O = + o @ > & * < 6 7 : 5 0 r 8 i t 1 u w f d _ %.%.%.%.%.%.%.%.%.%.%.%.%.%.%.%.%.%.%.%.%.%.%._ ! Q Q Q Q Q ` / 6.%.%.%.Z.Z.( ) Q ! :.-.w.q.:.r.$.{ 6._ _ _ s.@.@.b.2.8.8.a.a.x.x.x.S.S.z.z.z.z.U.U.U.U.U.U.U.z.z.z.z.S.S.S.x.x.a.a.l.=.X.oX( ( ~ Q Q _ _ _ s.$.t.X.-.w.-.~ Q Q ~ } %.%.%.%.%.%.%.[ / Q Q ) ^ s.%.%.%.%.%.%.%.%.%.%.%.%.6.! d f w u 1 t a 8 p y 5 : e 6 < * & > @ o + . O O % $ $ $ # # #                                       ",
"                                                                  # # # # $ $ % % O . + o @ > & * < 6 7 q 5 0 r 8 i a 1 u u 9 l ^ { { { { { { { { { { { { { { { { { { { { { { 6.Q Q Q ` ( %.{ { { { { { { { { { ^ Q } 6.^ Q Q Q Q Q Q Q Q Q Q Q Q Q Q ~ $.=.8.8.a.a.x.x.x.x.S.S.S.S.S.S.S.S.S.S.S.S.x.x.x.x.a.>.{ ~ Q Q Q Q Q Q Q Q Q Q Q Q Q Q Q Q Q ) ~ Q Q 6.{ { { { { { { { { { { [ ` Q } Z.{ { { { { { { { { { { } ! h s w u 1 t i 8 r y 3 : e 6 < * & > @ o + . = O % $ $ $ # # #                                         ",
"                                                                    # # # $ $ $ % % = . + o @ > & * 2 6 7 q 5 0 r p i a t 1 u w f d ' ] ] ] ] ] ] ] ] ] ] ] ] ] ] ] ] ] ] ] ] ^ Q ~ %.] ] ] ] ] ] ] ] ] ] ] ] ] ] ^ Q Q Q Q Q Q Q Q Q Q Q Q Q Q Q Q Q Q Q Q ~ X.j.8.8.a.a.a.a.x.x.x.x.x.x.x.x.x.x.a.a.a.8.w.~ Q Q Q Q Q Q Q Q Q Q Q Q Q Q Q Q Q Q Q Q Q Q Q s.] ] ] ] ] ] ] ] ] ] ] ] ] ' ) ^ ] ] ] ] ] ] ] ] ] ] ] 6.d x w u u 1 t i 8 r 0 3 : e 6 < * & > X o + . = O O $ $ $ # # # #                                         ",
"                                                                      # # # $ $ $ % O = . + o @ > & * 2 6 ; q 5 3 y p 8 a t 1 u w s k { `.`.`.`.`.`.`.`.`.`.`.`.`.`.`.`.`.`.`./ { `.`.`.`.`.`.`.`.`.`.`.`.`.`.`.`.] Q Q Q Q Q ! ^ ^ ( 6.6.6.6.^ ^ Q Q Q Q Q Q Q ` q.p.p.8.8.8.8.8.8.a.a.a.8.8.8.8.8.8.>.~ Q Q Q Q Q Q ! ^ ( 6.6.Z.{ { s.6.6./ ^ ) Q Q Q Q } `.`.`.`.`.`.`.`.`.`.`.`.`.`.`.#.) ] `.`.`.`.`.`.`.`.`._ h s w u 1 t a i p r 0 5 : e 6 < * & > X o + . - O O % $ $ # # # #                                           ",
"                                                                          # # # $ $ % % O - . o @ X > , 2 < ; q : 3 0 r 8 i a t 1 u w j Y  . . . . . . . . . . . . . . . . . . . . . . . . . . . . . . . . . . . . .^ / s.] `. . . . . . . . . . . .#.Z._ ! Q Q Q Q oXl.j.p.p.p.p.p.p.p.p.p.p.p.p.c.$.Q Q Q Q ! _ Z.#. . . . . . . . . . . . . . . .t.{ }  . . . . . . . . . . . . . . . . .`.t. . . . . . . .#.d f w u 1 t a i 8 r 0 3 : q ; 6 2 * & > @ o + . = O O % $ $ # # #                                               ",
"                                                                            # # # $ $ % % O - . o @ X > & * 4 ; e : 5 0 r p i a t 1 u w w x <.+.+.+.+.+.+.+.+.+.+.+.+.+.+.+.+.+.+.+.+.+.+.+.+.+.+.+.+.+.+.+.+.+.+.+.+.+.+.+.+.+.+.+.+.+.+.+.+.+.+.+.+.+.+.+.{ ^ Q Q Q / 2.c.j.j.j.j.j.j.j.j.j.j.l./ Q Q Q ) { u.+.+.+.+.+.+.+.+.+.+.+.+.+.+.+.+.+.+.+.+.+.+.+.+.+.+.+.+.+.+.+.+.+.+.+.+.+.+.+.+.+.+.+.+.+.+.' k 9 w u 1 t a i p r 0 5 : e ; 4 2 , & > @ o + . = O O % $ $ # # #                                                 ",
"                                                                              # # # $ $ % % O - + o @ X > & * < 6 e q 5 0 y p 8 i t 1 1 u w s n <.<.<.<.<.<.<.<.<.<.<.<.<.<.<.<.<.<.<.<.<.<.<.<.<.<.<.<.<.<.<.<.<.<.<.<.<.<.<.<.<.<.<.<.<.<.<.<.<.<.<.<.<.<.<.<.`.) Q Q / 2.l.l.l.l.c.c.c.l.l.2./ Q Q ) ] <.<.<.<.<.<.<.<.<.<.<.<.<.<.<.<.<.<.<.<.<.<.<.<.<.<.<.<.<.<.<.<.<.<.<.<.<.<.<.<.<.<.<.<.<.<.<.+.l s w u 1 1 t i 8 p y 0 5 : e ; < 2 , > > @ o + . = O O % $ $ # # #                                                   ",
"                                                                              # # # $ $ $ % % O - . o o X > & * 2 6 ; q 5 3 y r 8 i a t 1 u u w c ..o.o.o.o.o.o.o.o.o.o.o.o.o.o.o.o.o.o.o.o.o.o.o.o.o.o.o.o.o.o.o.o.o.o.o.o.o.o.o.o.o.o.o.o.o.o.o.o.o.o.o.o.o.o.o.7.[ Q Q ^ *.2.2.2.2.2.2.2.2.^ Q Q s.7.o.o.o.o.o.o.o.o.o.o.o.o.o.o.o.o.o.o.o.o.o.o.o.o.o.o.o.o.o.o.o.o.o.o.o.o.o.o.o.o.o.o.o.o.o.o...n j w u u 1 t a i 8 r y 3 5 q 7 6 < * & > X @ o + . = O O % $ $ # # #                                                     ",
"                                                                                # # # $ $ $ % % O - . + o @ > & * 2 4 ; q : 5 0 y p 8 a t 1 1 u w 9 K ................................................................................................................`.Q Q oX*.*.*.*.*.*.*.$.Q Q `...............................................................................................A f w w u 1 1 t a 8 p y 0 5 : q ; 6 2 * & > X o + . . = O O % $ $ # # #                                                       ",
"                                                                                  # # # $ $ $ % O O - . + o @ > & , 2 < ; e : 5 3 y p 8 i a t 1 u w w j A | | | | | | | | | | | | | | | | | | | | | | | | | | | | | | | | | | | | | | | | | | | | | | | | | | | | | | |  .Q Q r.>.>.>.>.>.:.Q Q  .| | | | | | | | | | | | | | | | | | | | | | | | | | | | | | | | | | | | | | | | | | | | | | | m 9 w u u 1 t a i 8 r y 3 5 : e ; 4 2 * & > X o + . - = O O $ $ $ # # #                                                         ",
"                                                                                    # # # $ $ $ % % O = . + o @ X > & * 2 6 ; e : 5 0 y p 8 i a t 1 u u w c A &.&.&.&.&.&.&.&.&.&.&.&.&.&.&.&.&.&.&.&.&.&.&.&.&.&.&.&.&.&.&.&.&.&.&.&.&.&.&.&.&.&.&.&.&.&.&.&.&.&.&.&.&.&.u.Q ~ b.b.b.b.b./ Q u.&.&.&.&.&.&.&.&.&.&.&.&.&.&.&.&.&.&.&.&.&.&.&.&.&.&.&.&.&.&.&.&.&.&.&.&.&.&.&.&.&.&.&.&.&.&.m 9 w u u 1 t a i 8 r y 0 5 : e ; 6 2 * & > X @ o + . = O O % $ $ $ # # #                                                           ",
"                                                                                      # # # $ $ $ $ % O O - . o o @ > & * 2 < 6 7 q : 3 0 r p 8 a t 1 1 u w w c A ,.,.,.,.,.,.,.,.,.,.,.,.,.,.,.,.,.,.,.,.,.,.,.,.,.,.,.,.,.,.,.,.,.,.,.,.,.,.,.,.,.,.,.,.,.,.,.,.,.,.,.,.,.] Q ] =.=.=.@.Q Z.,.,.,.,.,.,.,.,.,.,.,.,.,.,.,.,.,.,.,.,.,.,.,.,.,.,.,.,.,.,.,.,.,.,.,.,.,.,.,.,.,.,.,.,.,.J s w w u 1 t a i 8 p y 0 3 : q 7 6 < 2 * & > X o o + . O O O % $ $ $ # # #                                                             ",
"                                                                                        # # # # $ $ $ % % O - . + o @ X > & * 2 6 ; q : 5 3 y r 8 i a t 1 1 u w w c A 3.3.3.3.3.3.3.3.3.3.3.3.3.3.3.3.3.3.3.3.3.3.3.3.3.3.3.3.3.3.3.3.3.3.3.3.3.3.3.3.3.3.3.3.3.3.3.3.3.3.3.3._ ) q.q.q.^ ^ rX3.3.3.3.3.3.3.3.3.3.3.3.3.3.3.3.3.3.3.3.3.3.3.3.3.3.3.3.3.3.3.3.3.3.3.3.3.3.3.3.3.3.3.J s w w u 1 1 t a 8 8 r y 3 5 : q ; 6 2 * & > > @ o + . - = O O % $ $ # # # #                                                               ",
"                                                                                          # # # # $ $ $ % % O = . + o o X > & * 2 < ; e q : 3 0 r p 8 i a t 1 u u w w c F ;.;.;.;.;.;.;.;.;.;.;.;.;.;.;.;.;.;.;.;.;.;.;.;.;.;.;.;.;.;.;.;.;.;.;.;.;.;.;.;.;.;.;.;.;.;.;.;.;.;.e.Q t.-.r.Q ..;.;.;.;.;.;.;.;.;.;.;.;.;.;.;.;.;.;.;.;.;.;.;.;.;.;.;.;.;.;.;.;.;.;.;.;.;.;.;.;.;.P J s w w u 1 1 t a i 8 r y 0 5 : q 7 6 4 2 * & > X @ o + . - O O % $ $ $ # # # #                                                                 ",
"                                                                                            # # # # $ $ $ % % O = - . + o @ > > & * < 6 ; e : 5 3 y r p 8 a t 1 1 u u w 9 g J O.O.O.O.O.O.O.O.O.O.O.O.O.O.O.O.O.O.O.O.O.O.O.O.O.O.O.O.O.O.O.O.O.O.O.O.O.O.O.O.O.O.O.O.O.O.O.O.O.} _ :.[ ( O.O.O.O.O.O.O.O.O.O.O.O.O.O.O.O.O.O.O.O.O.O.O.O.O.O.O.O.O.O.O.O.O.O.O.O.O.O.O.O.P m 9 w w u u 1 t a i 8 p y 0 3 5 q e ; 6 2 * & > > @ o o . . = O O % $ $ $ # # # #                                                                   ",
"                                                                                              # # # # $ $ $ % % O O - . + o @ X > & * 2 < 6 7 q : 5 0 y r 8 i a t 1 1 u u w w s m P y.y.y.y.y.y.y.y.y.y.y.y.y.y.y.y.y.y.y.y.y.y.y.y.y.y.y.y.y.y.y.y.y.y.y.y.y.y.y.y.y.y.y.y.y.y.,.! X.^ ..y.y.y.y.y.y.y.y.y.y.y.y.y.y.y.y.y.y.y.y.y.y.y.y.y.y.y.y.y.y.y.y.y.y.y.y.y.y.J g 9 w w u u 1 t a i 8 p r 0 3 5 : q ; 6 < 2 * & > X @ o + . - = O O % $ $ $ # # # #                                                                     ",
"                                                                                                # # # # # $ $ % % % O = . + o o @ > > & * 2 6 ; e q : 3 0 y p 8 i a t 1 1 u u w w 9 g J uX1.1.1.1.1.1.1.1.1.1.1.1.1.1.1.1.1.1.1.1.1.1.1.1.1.1.1.1.1.1.1.1.1.1.1.1.1.1.1.1.1.1.1.1.6.{ ~ 1.1.1.1.1.1.1.1.1.1.1.1.1.1.1.1.1.1.1.1.1.1.1.1.1.1.1.1.1.1.1.1.1.1.1.1.F c 9 9 w w u 1 1 t a i i p r y 3 5 : q 7 ; < 2 * & > > @ o o + . = O O % $ $ $ # # # #                                                                         ",
"                                                                                                  # # # # # $ $ $ $ % O O - . + o o X > > & * 2 6 ; e q : 5 0 y r p 8 i a t 1 1 u u w w 9 g D 5.5.5.5.5.5.5.5.5.5.5.5.5.5.5.5.5.5.5.5.5.5.5.5.5.5.5.5.5.5.5.5.5.5.5.5.5.5.5.5.5.5...(  .5.5.5.5.5.5.5.5.5.5.5.5.5.5.5.5.5.5.5.5.5.5.5.5.5.5.5.5.5.5.5.5.7XF b s 9 w w u u 1 1 t a i 8 p r 0 3 5 : e ; 6 < 2 * & > > X o o + . = O O O % $ $ $ $ # # #                                                                           ",
"                                                                                                      # # # # $ $ $ $ % % O = - . + o @ X > & , 2 < 6 ; e q : 3 0 y r p 8 a a t 1 1 u u w w 9 9 g D 7Xh.h.h.h.h.h.h.h.h.h.h.h.h.h.h.h.h.h.h.h.h.h.h.h.h.h.h.h.h.h.h.h.h.h.h.h.h.h.F.` &.h.h.h.h.h.h.h.h.h.h.h.h.h.h.h.h.h.h.h.h.h.h.h.h.h.h.h.h.h.h.D g s 9 w w u u u 1 t t a i 8 p r 0 3 5 : q ; 6 4 2 * & > > X @ o + . - O O O % $ $ $ $ # # # #                                                                             ",
"                                                                                                        # # # # # $ $ $ % % O O = . . o o @ > > & * 2 < 6 ; q : 5 3 0 y r p 8 i a t t 1 1 u u w w w 9 s b D d.d.d.d.d.d.d.d.d.d.d.d.d.d.d.d.d.d.d.d.d.d.d.d.d.d.d.d.d.d.d.d.d.d.d.d._ 1.d.d.d.d.d.d.d.d.d.d.d.d.d.d.d.d.d.d.d.d.d.d.d.d.d.d.h.b g 9 9 w w w u u 1 1 t a a i 8 p r y 3 5 : q e ; 4 2 * , & > X @ o + . . = O O % % $ $ $ $ # # #                                                                                 ",
"                                                                                                            # # # # $ $ $ % % % O O - . + o @ X > & & * 2 < 6 7 q : : 3 0 y r p 8 i a a t 1 1 1 u u w w w 9 9 g b D jXL.L.L.L.L.L.L.L.L.L.L.L.L.L.L.L.L.L.L.L.L.L.L.L.L.L.L.L.L.L.L.+.L.L.L.L.L.L.L.L.L.L.L.L.L.L.L.L.L.L.L.L.L.L.L.M b g s w 9 w w w u u 1 1 t t a i i p r y 0 3 5 : q e ; 6 < * , & > X @ o o + . - = O O % $ $ $ $ # # # # #                                                                                 ",
"                                                                                                              # # # # # $ $ $ % % O O = - . + o @ X > & , * 2 4 6 ; e : 5 3 0 y r p 8 8 i a a t 1 1 u u u w w w 9 w 9 s g v M M 6X6X6X6X6X6X6X6X6X6X6X6X6X6X6X6X6X6X6X6X6X6X6X6X6X6XF.6X6X6X6X6X6X6X6X6X6X6X6X6X6X6X6X6XxXM v b g 9 9 9 w w w u u u 1 1 t t a a i 8 p r y 0 3 5 : q 7 ; 6 < 2 * & > > X o o + . - = O O % $ $ $ $ $ # # # #                                                                                     ",
"                                                                                                                  # # # # $ $ $ $ % % O O = . . o o @ X > & , * 2 4 6 ; q : : 5 3 0 y r p 8 8 i a t t 1 1 1 u u u w w w 9 9 9 9 9 g g v v M M 4X4X4X4X4X4X4X4X4X4X4X4X4X4X4X4X4X4X4X4X4X4X4X4X4X4X4X4X4X4X6XM M v b g 9 9 9 9 w w w w u u u 1 1 1 t t a a i 8 p p r y 0 3 5 : q e ; 6 < 2 * & > > X @ o + . - = O O O % $ $ $ $ # # # # #                                                                                       ",
"                                                                                                                    # # # # # $ $ $ % % % O O - . + + o @ X > > & * 2 < 6 ; 7 q q : 5 3 0 y r p p 8 i i a a t 1 1 1 1 u u u u w w w w 9 9 9 9 9 9 g g g b v v v v z z z z z z z z z z v v v v v g g g 9 9 9 9 w w w w w w u u u u 1 1 1 1 t t a i i 8 8 p r y 0 3 3 5 : q e ; 6 < < * , & > > X o o + . - = O O % % $ $ $ $ # # # # #                                                                                           ",
"                                                                                                                        # # # # # $ $ $ % % O O = - . + + o @ X > > & * 2 2 4 6 ; e q : 5 5 3 0 y r r p 8 8 i a a t t t 1 1 1 1 u u u u w w w w w w w w w w 9 w 9 9 9 9 9 9 9 9 9 9 9 9 9 9 w 9 w w w w w w u w u u u u 1 1 1 1 t t t a a i i 8 p p r y 0 0 3 5 : q q 7 ; 6 < 2 * , & > > X @ o + . - = O O O % $ $ $ $ $ # # # #                                                                                               ",
"                                                                                                                            # # # # $ $ $ $ % % O O = - . + o o @ X > > & , * 2 < 6 ; 7 q q : 5 5 3 0 y y r p 8 8 8 i i a a t t t t 1 1 1 1 u u u u u u u u u u u u w u w u w u w u w w u u u u u u u u u 1 1 1 1 1 1 t t t a a i i i 8 8 p r r y 0 3 3 5 : : q e ; 6 6 2 2 * , & > > X @ o + + - = O O O % $ $ $ $ $ # # # # #                                                                                                 ",
"                                                                                                                              # # # # $ $ $ $ % % % O O = - . + o o @ X > > & & * 2 < 4 6 ; 7 q q : : 5 3 0 0 y r r p p 8 8 8 i i a a a t t t t t 1 1 1 1 1 1 1 1 1 1 1 1 1 1 1 1 1 1 1 1 1 1 1 1 1 1 t t t t t a a a i i i 8 8 p p r r y 0 0 3 5 5 : q q e ; 6 6 < < 2 , & > > X @ o o + + . - O O O % % $ $ $ $ # # # # #                                                                                                     ",
"                                                                                                                                  # # # # $ $ $ $ % % % O O = - . + + o @ @ X > > & * * 2 < 6 6 ; 7 e q : : 5 5 3 0 0 y y r r p p p 8 8 8 i i i a a a a a a a a t t t t t t t t t t t t t a a a a a a a i i i i 8 8 8 p p r r y y 0 0 3 5 5 5 : q e 7 ; 6 6 < < 2 * , & > > X @ o o + . . - = O O % % $ $ $ $ # # # # #                                                                                                         ",
"                                                                                                                                      # # # # # $ $ $ $ % % O O O = - . + o o o @ X > > & & * * 2 < 4 6 ; ; e q q : : : 5 5 3 3 0 0 y y r r r r p p p p 8 8 8 8 8 8 8 8 8 8 8 8 8 8 8 8 8 8 8 8 p p p p r r r y y y 0 0 3 3 5 5 5 : : q q e ; ; 6 4 4 2 2 * , & > > > X @ o o + . . - = O O O % $ $ $ $ # # # # #                                                                                                               ",
"                                                                                                                                          # # # # # $ $ $ $ % % % O O = - . + + o o @ X > > > & , * * 2 2 < 6 6 ; ; 7 e q q : : : 5 5 3 3 3 0 0 0 0 y y y y y y y y r r r r r r r r r y y y y y y y 0 0 0 3 3 3 5 5 5 5 : : q q e 7 7 ; 6 6 < < 2 * * , & & > > X @ @ o + + . - = O O O O % $ $ $ $ # # # # #                                                                                                                   ",
"                                                                                                                                              # # # # # $ $ $ $ % % % O O = - . . + o o @ @ X X > > & & , * 2 2 2 < 4 6 6 ; ; 7 e q q q : : : : 5 5 5 5 5 5 3 3 3 3 3 3 3 3 3 3 3 3 3 3 3 3 3 5 5 5 5 5 5 : : : q q q e 7 7 ; 6 6 4 4 2 2 * * , , & > > > X @ @ o o + . . - = O O O % % $ $ $ $ # # # # #                                                                                                                       ",
"                                                                                                                                                  # # # # # # $ $ $ $ % % O O O = - . . + o o o @ X X > > > & & , * * 2 2 < < 4 6 6 ; ; ; ; 7 e e e q q q q q q q : : : : : : : : : : : q q q q q q q e e e ; ; ; 6 6 6 4 4 2 2 2 * * , , & > > > X X @ o o o + . . - - O O O O % % $ $ $ $ # # # # #                                                                                                                           ",
"                                                                                                                                                      # # # # # # $ $ $ $ % % % O O = = - . . + o o o @ @ X X > > > & & , * * * 2 2 2 < < < 4 6 6 6 6 6 ; ; ; ; ; ; ; ; ; ; ; ; ; ; ; ; ; ; ; ; ; 6 6 6 6 6 < < < < 2 2 * * , , & & > > > X X @ o o o o + + . - = = O O O % % $ $ $ $ $ # # # # #                                                                                                                               ",
"                                                                                                                                                          # # # # # # $ $ $ $ $ % % % O O O = - . . + + o o o @ @ X X > > > > & & & & , * * * * 2 2 2 2 2 2 2 < < < < < < < < < < < < < < < < < < 2 2 2 2 * * * * , , & & > > > > X X @ @ o o o + + . . . - = O O O O O $ $ $ $ $ # # # # # # #                                                                                                                                 ",
"                                                                                                                                                                # # # # # # $ $ $ $ % % % % O O O = = - - . . + + + o o o @ @ @ X X > > > > > > > & & & & & & & & & , , , , , , , , , , , , , , & & & > > > > > > > X X @ @ @ o o o o + + . . . - = O O O O O % % $ $ $ $ $ $ # # # # # #                                                                                                                                       ",
"                                                                                                                                                                    # # # # # # # $ $ $ $ $ % % % O O O O = = - . . . . + + + o o o o @ @ @ @ X X X X X > > > > > > > > > > > > > > > > > > > > X X X X X @ @ @ @ o o o o o + + . . . - - = = O O O O O % % $ $ $ $ $ $ # # # # # # #                                                                                                                                           "
};
