/* XPM */
static char *a85102e14d084264fdc20d50cacf4155PAX7zMdsNV6jLtjq[] = {
/* columns rows colors chars-per-pixel */
"256 256 256 2 ",
"   c #47704C",
".  c black",
"X  c black",
"o  c #010100",
"O  c black",
"+  c black",
"@  c #030301",
"#  c black",
"$  c black",
"%  c black",
"&  c black",
"*  c black",
"=  c #020000",
"-  c #030100",
";  c #010100",
":  c #010000",
">  c black",
",  c #010000",
"<  c #020000",
"1  c #010000",
"2  c black",
"3  c #020000",
"4  c #030000",
"5  c #020000",
"6  c black",
"7  c black",
"8  c black",
"9  c #8E0101",
"0  c #5B0904",
"q  c #8A0101",
"w  c #840101",
"e  c #5A0B01",
"r  c #750101",
"t  c None",
"y  c #8F0202",
"u  c #6B0C01",
"i  c #7D0102",
"p  c #4A0102",
"a  c #5E0102",
"s  c #24120D",
"d  c #C6B716",
"f  c #2D0400",
"g  c #E4AB00",
"h  c #6E5409",
"j  c #EFE20B",
"k  c #B5B8BB",
"l  c #ADACAE",
"z  c #DFD629",
"x  c #7F6000",
"c  c #E6DA0F",
"v  c #D49C00",
"b  c #F8D000",
"n  c #FAEF00",
"m  c #9C9C9E",
"M  c #626365",
"N  c #807E80",
"B  c #F4AE01",
"V  c #DDD92B",
"C  c #C59200",
"Z  c #B28800",
"A  c #787070",
"S  c #A9AAAD",
"D  c #818386",
"F  c #1D1A1B",
"G  c #F9F751",
"H  c #352D20",
"J  c #725F60",
"K  c #F9F627",
"L  c #C78320",
"P  c #F6F574",
"I  c #F6F254",
"U  c #A39E9E",
"Y  c #940203",
"T  c #FFB980",
"R  c #231F20",
"E  c #D20303",
"W  c #D70303",
"Q  c #900202",
"!  c #C80202",
"~  c #DF0303",
"^  c #CD0202",
"/  c #C30202",
"(  c #EA0303",
")  c #DB0303",
"_  c white",
"`  c #E70303",
"'  c #E50303",
"]  c #EF0303",
"[  c #C00203",
"{  c #B50202",
"}  c #AC0102",
"|  c #9F0202",
" . c #ED0303",
".. c #9C0202",
"X. c #FFD2AF",
"o. c #BC0203",
"O. c #B80203",
"+. c #F5F6F7",
"@. c #B20102",
"#. c #ECEEF0",
"$. c #A50202",
"%. c #FFC28F",
"&. c #F0F2F4",
"*. c #FFC000",
"=. c #A20202",
"-. c #F9F9FA",
";. c #E20303",
":. c #FFBD88",
">. c #980202",
",. c #F10303",
"<. c #FFC798",
"1. c #A90202",
"2. c #F00303",
"3. c #F44343",
"4. c #E8EAED",
"5. c #FFCCA4",
"6. c #FCFDFD",
"7. c #F44C4C",
"8. c #F47878",
"9. c #FFCA9F",
"0. c #F37171",
"q. c #F46363",
"w. c #F46A6A",
"e. c #D70C0C",
"r. c #F43A3A",
"t. c #AF0202",
"y. c #F48181",
"u. c #F45C5C",
"i. c #F55555",
"p. c #D21616",
"a. c #FFD8B8",
"s. c #FFD6B3",
"d. c #CB4141",
"f. c #FFCFA9",
"g. c #F48888",
"h. c #F28F8F",
"j. c #CB4E4D",
"k. c #F19595",
"l. c #CB5958",
"z. c #D01F1F",
"x. c #F22929",
"c. c #F33131",
"v. c #E3E6E9",
"b. c #EEA9A8",
"n. c #EFA2A2",
"m. c #DEE2E6",
"M. c #EDAFAF",
"N. c #CD2727",
"B. c #CC3838",
"V. c #CC2F2F",
"C. c #FFFD05",
"Z. c #F19C9B",
"A. c #FFCB00",
"S. c #D28B8B",
"D. c #CC6262",
"F. c #D59494",
"G. c #D89D9D",
"H. c #CD6B6A",
"J. c #D08383",
"K. c #FFDCBF",
"L. c #DBE0E3",
"P. c #ECB6B6",
"I. c #D07B7B",
"U. c #CE7373",
"Y. c #D8DCE0",
"T. c #DAA8A8",
"R. c #C81A1A",
"E. c #FFF402",
"W. c #D20D0D",
"Q. c #C00F0F",
"!. c #FEB600",
"~. c #FFD400",
"^. c #CDD2D7",
"/. c #ED7E7E",
"(. c #C5CBD1",
"). c #CA0E0E",
"_. c #BE1E1E",
"`. c #D2D7DC",
"'. c #C32828",
"]. c #F9A972",
"[. c #FDFC8D",
"{. c #C04040",
"}. c #C33633",
"|. c #DEB1B1",
" X c #C44A49",
".X c #ECBDBD",
"XX c #FFDC00",
"oX c #B82B2B",
"OX c #B11C1C",
"+X c #B83937",
"@X c #312D2B",
"#X c #EC8989",
"$X c #FEFD71",
"%X c #FFE401",
"&X c #B50D0D",
"*X c #BF5454",
"=X c #FFEC01",
"-X c #B04241",
";X c #890201",
":X c #B64D4C",
">X c #BAC0C6",
",X c #FFAD00",
"<X c #B71515",
"1X c #FEFE51",
"2X c #EA9E9D",
"3X c #BE5E5E",
"4X c #AE2726",
"5X c #C36767",
"6X c #AB3433",
"7X c #4B4848",
"8X c #FFFD30",
"9X c #C57172",
"0X c #FDFCB0",
"qX c #9D1F1F",
"wX c #EE5352",
"eX c #EE1919",
"rX c #E0BABA",
"tX c #C87B7C",
"yX c #461819",
"uX c #6A1112",
"iX c #FFE3CD",
"pX c #89898B",
"aX c #EA9A8D",
"sX c #E76865",
"dX c #9D9EA0",
"fX c #841010",
"gX c #950E0E",
"hX c #717072",
"jX c #FF9F00",
"kX c #B93907",
"lX c #483F1C",
"zX c #CE9B09",
"xX c #B7989D",
"cX c #AB6467",
"vX c #9B3430",
"bX c #5B5419",
"nX c #ADA310",
"mX c #E3423F",
"MX c #E69367",
"NX c #735B14",
"BX c #5C5A5B",
"VX c #968011",
"CX c #776E14",
"ZX c #DD8276",
"AX c #D67B57",
"SX c #D8D30A",
"DX c #B48085",
"FX c #D6D55E",
"GX c #7D7A3F",
"HX c #AC850C",
"JX c #CCC111",
"KX c #B0AE3E",
"LX c #ECD0CF",
"PX c #5E5B39",
"IX c #BA2106",
"UX c #000600",
/* pixels */
"                                                                                                                                                                                                                                                # # # # # # # # # # # # # # # # #                                                                                                                                                                                                                                               ",
"                                                                                                                                                                                                                                      # # # # # # # # # # # # # # # # # # # # # # # # # # #                                                                                                                                                                                                                                     ",
"                                                                                                                                                                                                                              # # # # # # # # # # # # # # # # # # # # # # # # # # # # # # # # # # #                                                                                                                                                                                                                             ",
"                                                                                                                                                                                                                        # # # # # # # # # # O O O O O O O O O O O O O O O O O O O O O # # # # # # # # # # #                                                                                                                                                                                                                     ",
"                                                                                                                                                                                                                  # # # # # # # # O O O O O O . . . . . . % % % % % % . . . . . . . O O O O O O # # # # # # # # #                                                                                                                                                                                                               ",
"                                                                                                                                                                                                              # # # # # # # # O O O . . . % % % % % % % % % % % % % % % % % % % % % % % . . . O O O O O # # # # # # # #                                                                                                                                                                                                         ",
"                                                                                                                                                                                                          # # # # # # # O O . . . % % % % % $ $ $ UXUXUXUX+ + + + + + + UXUXUXUX$ $ $ $ $ $ % % % . . . O O O # # # # # # # #                                                                                                                                                                                                   ",
"                                                                                                                                                                                                  # # # # # # O O O . . . % % % $ UXUX+ + + + + + + * * * * * * * * * * * * * * + + + + + UXUX$ $ $ $ $ % % . . . O O O O # # # # # #                                                                                                                                                                                           ",
"                                                                                                                                                                                              # # # # # # O O O . . % % % % $ UX+ + + + * * * * * X X X X X X X X X X X X X X X * * * * * + + + + UXUX$ $ $ $ % % . . . O O O # # # # #                                                                                                                                                                                         ",
"                                                                                                                                                                                            # # # # # O O O . . % % % $ UXUX+ + * * * * X X X X @ @ @ @ @ e u u u u u h @ @ @ @ @ @ X X X * * * * + + + + UX$ $ $ $ % % . . O O O # # # # #                                                                                                                                                                                     ",
"                                                                                                                                                                                        # # # # # O O O . . % % % $ UX+ + + * * X X X @ @ @ u i w y q Y Y Y Y Y Y Y Y Y Y Y q y w i u - @ @ X X X * * * + + + + UX$ $ $ % % . . O O O # # # # #                                                                                                                                                                                 ",
"                                                                                                                                                                                      # # # # O O O . . % % % $ UX+ + + * * X X @ @ e i y Y Y Y Y Y >.Y Y Y Y Y Y Y Y Y Y Y >.Y Y >.Y >.q w 0 h @ @ X X * * * + + + + UX$ $ $ % . . O O # # # # #                                                                                                                                                                               ",
"                                                                                                                                                                                  # # # # # O O . . % % $ UX+ + * * * X X @ @ 4 i q Y Y Y Y Y Y Y Y Y Y Y Y Y Y Y Y Y Y Y Y Y Y Y Y Y Y >.>.>.Y q w e o @ @ X X * * * + + UX$ $ $ % . . O O # # # # #                                                                                                                                                                           ",
"                                                                                                                                                                                # # # # # O O . . % $ UX+ + + * X X @ @ o u y Y >.>.Y Y Y Y Y Y Y Y Y Y Y Y Y Y Y Y Y Y Y Y Y Y Y Y Y Y Y Y Y Y Y Y >.q w e o @ @ X X * * + + UX$ $ $ % . . O O # # # #                                                                                                                                                                         ",
"                                                                                                                                                                              # # # # O O . . % % $ + + + * * X @ @ o 0 q Y Y Y Y Y Y Y Y Y Y Y >.>.>.>.>.>...............>.>.>.>.>.>.Y Y Y Y Y Y Y Y Y >.Y q 0 - @ @ X X * * + + UX$ $ % % . O O # # # # #                                                                                                                                                                     ",
"                                                                                                                                                                            # # # # O O . . % % $ + + * * X @ @ o u q Y >.Y Y Y Y Y Y >.>.>.......| | | | | | | | | | | | | | | | | ......>.>.>.Y Y Y Y Y Y >.>.9 w 4 o @ X X * * + + UX$ $ % . . O # # # # #                                                                                                                                                                   ",
"                                                                                                                                                                          # # # # O O . % % % UX+ + * X X @ o 4 y Y Y Y Y Y Y >.>.>.....| | | =.=.=.=.$.$.$.$.$.$.$.$.$.$.$.$.$.=.=.=.=.| | | ....>.>.>.Y Y Y Y >.>.Y w 4 o @ X X * + + + UX$ $ % . O O # # # #                                                                                                                                                                 ",
"                                                                                                                                                                        # # # O O O . % % $ UX+ * * X @ o o i 9 Y Y Y Y Y >.>.....| | =.=.$.$.$.$.$.1.1.1.1.1.1.} } } 1.1.1.1.1.1.$.$.$.$.$.=.=.| | ....>.>.Y Y Y Y Y >.>.w = o @ X * * + + UX$ $ % . O O # # # #                                                                                                                                                               ",
"                                                                                                                                                                      # # # # O . . % % UX+ + * X @ o o < y Y Y Y Y >.>.....| =.=.$.$.$.4X{.D.H.F.F.F.F.F.F.F.D.D.}.<Xt.t.t.t.t.} } } } 1.1.1.$.$.$.=.=.| ....>.>.Y Y Y Y Y 9 i & o @ X X * + + UX$ % % . O # # # #                                                                                                                                                             ",
"                                                                                                                                                                    # # # # O . . % $ UX+ * * X @ o & u 9 Y Y Y >.>...| | =.$.$.OX*XJ.P..X.X.X.X.X.X.X.X.X.X.X.X.X.X.Xb.U. X&X@.@.@.t.t.t.t.} } 1.1.$.$.$.=.| | ..>.>.Y Y Y Y Y y e o o @ X * * + UX$ $ % . O O # # #                                                                                                                                                           ",
"                                                                                                                                                                  # # # # O . % % $ UX+ * * X @ o & i Y Y Y >.....| =.=.$.t *XG..X.X.X.X.X.X.X.X.X.X.X.X.X.XP..XP..XP.P..XP.P.ZXd.{ { { @.@.@.t.t.} } 1.1.$.$.=.=.| ....>.Y Y Y Y 9 i & o @ X * * + UX$ $ % . O O # # #                                                                                                                                                         ",
"                                                                                                                                                                # # # # O . % % $ + + * X X @ o & w Y Y >.>...| =.$.$.OXI..X.X.X.X.X.X.X.X.X.X.X.X.X.X.XP.P..XP.P.P.P.P.P.P.P.P.P.2Xl.Q.O.{ { { @.@.t.t.} } 1.1.$.$.=.| ..>.>.Y Y Y Y y < o @ X X * + + $ $ % . O O # # #                                                                                                                                                       ",
"                                                                                                                                                              # # # # O . % % $ + + * X @ o & < y Y >.>...| =.$.$.OXI..X.X.X.X.X.X.X.X.X.X.X.XP..XP.P.P.P.P.P.P.P.P.P.P.P.P.M.P.M.P.M.b.l.O.O.O.O.{ { @.@.t.t.} 1.1.$.$.=.| ..>.>.Y Y Y q e & o @ X * + + $ $ % . O O # # #                                                                                                                                                     ",
"                                                                                                                                                              # # # O O % % $ + + * X X o o = q Y >...| =.$.$.1.D.M..X.X.X.X.X.X.X.XP..XP.P.P.P.P.P.P.P.P.P.P.P.P.P.P.M.M.M.P.M.M.M.M.M.M.2XV.o.o.O.O.O.{ { @.@.t.} } 1.$.$.=.| ..>.Y Y >.9 e & o @ X * + + UX$ . . O O # # #                                                                                                                                                   ",
"                                                                                                                                                            # # # O O . $ $ UX+ * X @ o & < q >.>...| =.$.1.oXG..X.XP..XP.P.P.P.P.P.P.P.P.P.P.P.P.P.P.M.P.M.M.M.M.M.M.M.M.M.M.M.M.M.M.M.b.b.b.ZXQ.o.o.o.O.O.{ { @.@.t.} 1.1.$.=.| ..>.>.Y Y 9 0 & o @ X * + + UX$ . . O # # # #                                                                                                                                                 ",
"                                                                                                                                                          # # # # O . % $ + + * X @ o & , q >...| =.$.$.1. X|.P.P.P.rXP.P.P.P.P.P.P.P.P.P.P.M.P.M.M.M.M.M.M.M.M.M.M.M.M.M.M.M.b.M.b.b.b.b.|.b.b.aXR.[ o.o.o.O.O.O.{ @.@.t.} 1.$.$.=.| ..>.Y Y >.0 & o @ X * * + UX$ % . O # # # #                                                                                                                                               ",
"                                                                                                                                                        # # # # O . % $ UX+ * X @ o & > w >...| =.$.1.} U.P.P.P.P.P.P.P.P.P.P.P.P.M.M.M.M.M.P.M.M.M.M.M.M.M.M.M.M.b.M.b.b.b.b.b.b.b.b.b.b.b.n.b.b.2Xd./ [ [ o.o.O.O.{ { @.t.t.} 1.$.=.| ..>.Y Y Y u & o @ X * * + $ $ % . O # # # #                                                                                                                                             ",
"                                                                                                                                                        # # # O . % % UX+ * X @ o & > w >.| =.$.$.1.&XU.P.P.P.P.P.P.P.M.P.P.M.M.M.M.P.M.M.M.M.M.M.M.M.M.M.b.M.b.b.b.b.b.b.b.b.b.b.b.b.b.n.b.n.T.n.2Xn.d./ / [ [ o.o.O.O.{ { @.t.} 1.$.$.=.| >.Y Y 9 e & o @ X * + + $ $ % . O # # # #                                                                                                                                           ",
"                                                                                                                                                      # # # O . % % UX+ * * X o & > i ..| =.$.1.} &XF.P.P.|.P.M.P.M.M.P.M.M.M.M.M.M.M.M.M.M.b.M.b.b.b.b.b.b.b.b.b.b.b.b.b.b.n.b.n.n.n.n.2Xn.n.n.n.2Xn.2XsX/ / / [ [ o.o.O.O.{ @.t.t.} 1.$.=.| ..>.Y 9 e & o @ X * + + $ $ % . O # # #                                                                                                                                           ",
"                                                                                                                                                    # # # O O . $ UX+ * * X @ & > e ..| =.$.1.} t.S.M.|.P.M.M.|.M.M.M.M.M.M.M.M.M.b.M.b.b.b.b.b.b.b.b.b.b.b.b.n.b.b.n.b.n.n.n.n.n.n.n.n.n.n.2Xn.2X2X2X2X2Xd.! / / / [ o.o.o.O.{ { @.t.} 1.$.=.| ..>.Y q , & o @ X * + + $ $ % O O # # #                                                                                                                                         ",
"                                                                                                                                                  # # # # O . % $ + + * X @ o > , 9 | =.$.1.} t.U.M.M.M.M.M.M.M.M.M.M.b.M.b.b.b.b.b.b.b.b.b.b.b.b.b.b.n.b.n.n.b.n.n.n.n.n.n.n.n.n.2Xn.2X2X2Xn.2X2X2X2X2X2X2XB.! ! / / / [ o.o.O.O.{ @.t.} 1.$.=.| ..>.Y w > & o @ X * + UX$ % . O # # #                                                                                                                                         ",
"                                                                                                                                                # # # O O . % $ + + * X @ & & - y | =.$.1.} t.l.M.M.|.M.M.|.b.M.b.b.b.b.b.b.b.b.b.b.b.b.b.b.n.b.n.n.n.n.n.n.n.n.n.n.n.n.n.n.Z.n.Z.n.Z.n.Z.Z.2XZ.Z.Z.Z.2Xk.2Xk.z.! ! ! / / [ o.o.O.O.{ @.t.} 1.$.=.| ..>.Y i > & o @ X * + UX$ % . O O # #                                                                                                                                       ",
"                                                                                                                                              # # # # O . % % UX+ * X @ o & > i | =.$.1.} t.'.M.M.T.M.b.b.b.b.b.b.b.b.b.b.b.b.b.n.b.n.n.n.n.n.n.n.n.n.n.n.n.Z.n.Z.Z.Z.Z.Z.Z.Z.Z.Z.Z.Z.Z.Z.Z.k.2Xk.2Xk.k.k.k.2X#XW.^ ! ! / / / [ o.o.O.{ @.t.} 1.$.=.| ..>.9 e > & o X * + + $ $ % . O O # #                                                                                                                                     ",
"                                                                                                                                              # # # O O . $ $ + * X @ o & > u | =.$.1.t.t.&X2Xb.b.b.b.b.T.b.b.b.b.b.b.b.n.b.n.n.n.n.n.n.n.n.n.n.n.Z.n.Z.n.Z.Z.Z.Z.Z.Z.Z.Z.Z.Z.Z.Z.k.Z.k.k.k.k.k.k.k.k.2Xk.aXk.aXsX^ ^ ! ! ! / / [ o.o.O.{ @.t.t.1.$.=.| ..>.y - & & @ X * + + $ $ % . O # #                                                                                                                                     ",
"                                                                                                                                            # # # O O . % $ + + * X o & > - q =.$.1.t.@.{ U.b.T.b.T.b.b.b.b.2Xb.n.n.n.n.n.n.n.n.n.n.n.n.Z.n.Z.Z.Z.n.Z.Z.Z.Z.Z.Z.Z.Z.Z.Z.Z.k.Z.k.k.Z.k.k.Z.k.k.k.k.k.#Xk.#Xk.#Xk.k.mX^ ^ ^ ! ! / / [ o.o.O.O.{ @.t.1.$.=.| ..>.i - & o @ X * + UX$ % . O # # #                                                                                                                                   ",
"                                                                                                                                            # # # O . % % UX+ * X @ & & - i =.$.1.} @.{ '.b.b.b.b.n.b.n.n.2Xb.n.n.n.n.n.n.n.n.n.Z.n.Z.Z.Z.Z.Z.Z.Z.Z.Z.Z.Z.Z.Z.Z.Z.k.Z.k.k.k.k.k.k.k.k.k.h.k.k.k.k.#Xk.k.k.#Xk.#X#X#XW.^ ^ ^ ! ! / / [ o.o.O.O.{ @.} 1.$.=.| >.9 4 > & o @ X * + UX$ % . # # # #                                                                                                                                 ",
"                                                                                                                                          # # # O O . $ $ + * X @ o & - e 9 $.1.} t.@.O.F.b.n.T.2Xn.T.2Xn.n.2Xn.2Xn.2Xn.Z.Z.Z.Z.Z.Z.Z.Z.Z.Z.Z.Z.Z.Z.k.Z.k.k.k.k.k.k.k.k.k.k.k.k.k.h.k.h.k.h.h.#Xk.h.#X#X#Xk.#X#X#X#XwXE ^ ^ ^ ! ! ! / [ [ o.O.O.@.t.} 1.$.=.| >.w - > & o @ X + + $ $ . O # # #                                                                                                                                 ",
"                                                                                                                                          # # # O . % $ + + * X o & > - w $.1.} t.@.{ d.2X2X2X2Xn.2X2Xn.2X2X2X2Xn.2XZ.Z.Z.Z.Z.Z.Z.Z.Z.Z.Z.Z.k.Z.k.k.k.k.k.k.k.k.k.k.h.k.h.k.h.h.h.h.h.h.h.#Xh.h.h.#Xh.h.#X#Xh.#X#X#X#Xp.E E ^ ^ ! ! ! / [ [ o.O.{ @.t.} 1.$.=...>.A - > & @ X * + UX$ % . O # # #                                                                                                                               ",
"                                                                                                                                        # # # O O . $ UX+ * X @ & > - u $.1.} t.@.{ O.#X2X2XT.2X2X2X2X2X2XZ.Z.Z.Z.Z.Z.Z.Z.Z.Z.Z.k.Z.k.k.k.k.k.k.k.k.k.k.k.h.k.h.h.h.k.h.h.h.h.h.h.h.h.h.h.h.#Xh.#Xh.#X#X#X#X#X#X#X#X#XwXE E E ^ ^ ! ! ! / [ [ o.O.{ @.t.} 1.$.| ..-Xh - & o @ X * + UX$ . O # # #                                                                                                                               ",
"                                                                                                                                        # # O O . % $ + * X @ o & - = y $.} t.@.{ O.d.2X2X2X2X2X2X2X2XZ.2XZ.2XZ.Z.Z.k.Z.k.k.k.k.k.k.k.k.k.k.k.h.k.h.k.h.h.h.h.h.h.h.h.h.h.h.h.h.g.h.g.g.g.g.g.g.g.#Xg.g.#Xg.#X#X#X/.#X#Xe.E E E ^ ^ ^ ! ! / [ o.o.O.{ @.t.} $.=.| ..m = > & o X * + + $ % . O # # #                                                                                                                             ",
"                                                                                                                                      # # # O . . $ UX+ * X @ & > - 0 $.1.t.@.{ O.o.ZX2X2X2X2X2X2XZ.2Xk.Z.k.k.k.k.k.k.k.k.k.k.k.k.k.h.k.h.k.h.h.h.h.h.h.h.h.h.h.h.g.h.g.g.g.g.g.g.g.g.h.g.#Xg.g.g.g.#Xy.g./.y.#X/.#X/./.mXW E E E ^ ^ ^ ! ! / [ o.o.O.{ @.t.1.$.=.| -XA - > & @ X * + UX$ . O # # #                                                                                                                             ",
"                                                                                                                                      # # O O . % $ + * X @ o & - < q 1.} t.{ O.o.Q.2X2X2X2Xk.2Xk.2Xk.k.k.2Xk.k.k.k.k.k.k.k.h.k.h.h.h.h.h.h.h.h.h.h.g.h.h.g.h.g.g.g.g.h.g.g.g.g.g.g.g.y.g.g.y.#Xy.y.y./.y.#Xy./.y./././.0.W W E E E ^ ^ ! ! ! / [ o.o.O.{ t.} 1.$.| ..S = - & o X * + + $ % . O # # #                                                                                                                           ",
"                                                                                                                                    # # # O . % % UX+ * X o & > = i $.} t.@.{ O.o.d.2XaX2XaX2X#X2Xh.k.aXk.k.k.k.k.h.k.h.h.h.h.h.h.h.h.h.h.g.h.g.h.g.h.g.g.g.g.g.g.g.g.g.g.g.g.g.g.g.y.g.y.y.y.y.y.#Xy.y./././.y./././././.p.W W E E E ^ ^ ! ! / / [ o.O.{ @.t.} $.=.| cXA = > & o X * + UX$ % O # # #                                                                                                                           ",
"                                                                                                                                    # # O O . % $ + * X @ o & - < q 1.t.@.{ O.o.[ ZXaXaXk.k.F.k.k.aXk.k.k.h.h.h.h.h.h.h.h.h.h.h.h.h.h.g.h.g.h.g.g.g.g.g.g.g.g.g.g.g.g.y.g.y.g.y.y.y.y.y.y.y.y.y.y./.y./.y.y.y././././././.mXW W W E E E ^ ^ ! ! / / [ o.O.{ @.t.1.$.=.qXS < - & o @ X * + $ % . O # # #                                                                                                                         ",
"                                                                                                                                  # # # O . % % UX+ * @ o & > = u 1.} t.{ O.o.o.R.aXk.F.k.#Xk.k.#Xk.#X#Xk.#Xk.#Xh.h.h.h.g.h.g.g.g.g.g.g.g.g.g.g.g.g.g.g.g.g.g.g.y.g.y.y.y.y.y.y.y.y.y.y.y.y./.y.y.8.y./.8./.8././.8./././.sX) W W W E E E ^ ^ ! ! / [ o.o.O.{ t.} 1.$.| DXA = > & o X * + UX$ . O # # #                                                                                                                         ",
"                                                                                                                                  # # # O . % $ + * X @ & > - < y } t.@.{ O.o.[ B.aXaX#Xk.#XaX#Xk.#Xk.#Xh.#Xh.#Xh.g.#Xg.h.g.g.g.g.g.g.g.g.g.g.g.g.g.y.g.y.y.y.y.y.y.y.y.y.y.y.y.y.y.y.8.y.y.8.y.8./.8.8./.8./.8.8./.0./.0.8.) ) W W W E E E ^ ^ ! ! / [ o.O.{ @.t.} $.=.6Xm < - & o @ X + + $ % . O # # #                                                                                                                       ",
"                                                                                                                                # # # O O . $ UX+ * @ o & > = e 1.} @.{ O.o.[ / j.aX#XaXF.#Xk.#X#X#X#Xh.#X#X#Xg.#Xg.g.g.g.g.g.g.g.g.g.y.g.y.y.y.y.y.y.y.y.y.y.y.y.y.y.y.y.y.y.8.y.8.y.8.y.8.8.8.8.8.8.8.8.8.8.8.8.0./.0.0./.z.) ) W W W E E ^ ^ ! ! / / [ o.O.{ @.} 1.$.| U , - > & o X * + UX$ . O # # #                                                                                                                       ",
"                                                                                                                                # # # O . % $ + * * @ & & - < w } t.@.O.o.o.[ / sX#X#X#X#X#X#X#X#Xh.#X#X#Xg.g.#Xg.g.g.g.g.g.y.g.y.g.y.y.y.y.y.y.y.y.y.y.y.y.y.y.8.y.y.8.y.8.8.y.8.8.8.8.8.8.8.8.8.8.8.8.8.0.8.0.0.0.0.0.0.0.mX) ) ) W W W E E ^ ^ ! ! / [ o.o.O.@.t.} $.=.cXA = - & o @ * + + $ % . O # #                                                                                                                       ",
"                                                                                                                              # # # O O . $ UX+ * X o & > = , t t.@.{ O.o.[ / / #X#XF.#X#X#X#X#X#X#X#Xg.g.#Xg.g.y.#Xy.y.y.y.y.y.y.y.y.y.y.y.y.y.y.y.y.y.8.y.8.y.8.8.8.8.8.8.8.8.8.8.8.8.8.8.8.8.8.8.0.8.0.0.0.8.0.0.0.0.sX0.wX~ ) ) ) W W E E E ^ ^ ! / / [ o.O.{ @.t.1.$.vXm < - > & @ X * + $ % . O # # #                                                                                                                     ",
"                                                                                                                              # # # O . % $ + + * @ & > - < i } t.@.O.o.o.[ / ! #X#X#X#X#X#X#X#X#X#X#Xg.y.y.y.y.y.y.y.y.y.y.y.y.y.y.y.y.y.y.y.y.8.y.8.8.8.y.8.8.8.8.y.8.8.8.8.8.8.8.8.8.8.0.8.0.0.0.0.0.0.0.0.0.0.0.sX0.0.sXwX~ ~ ) ) W W W E E ^ ^ ! ! / [ o.o.O.@.t.} $.=.U , = - & o X * + UX$ % O # # #                                                                                                                     ",
"                                                                                                                              # # O O . $ UX+ * X @ & > = , y } @.{ O.o.[ / ! N.#X#X#X#X#X#X/.#X/./.y./.#Xy./.y.y.y.y.y.y.y.y.y.8.y.8.y.8.8.8.8.y.8.8.y.8.8.8.8.8.8.8.8.8.8.8.8.0.8.0.0.0.0.0.0.0.0.0.0.0.0.0.sX0.0.0.sX0.0.sX~ ~ ) ) ) W W W E E ^ ^ ! ! / [ o.O.{ @.} 1.$.cXA < - > & @ X * + $ % . O # # #                                                                                                                   ",
"                                                                                                                            # # # O . % $ + + * X o & - < : } t.@.O.o.o.[ / ! z.#X#X/.#X/./.#X/./.#X/.y.y./.y.y./.y./.y.8.y.8.y.8.y.8.8.8.y.8.8.8.8.8.8.8.8.8.8.8.8.8.0.8.0.0.0.0.0.0.0.0.0.0.0.0.0.0.w.0.w.w.0.sXw.sXw.w.sXw.;.~ ~ ) ) ) W W E E ^ ^ ! ! / [ o.o.O.@.t.} $.-XM , = > & @ X * + UX$ . O # # # #                                                                                                                 ",
"                                                                                                                          # # # O O . % $ + * X @ o > = < i } @.{ O.o.[ / ! ! z./.ZX#X/./.#X/././.y././././.y./.y.8.y.8.y.8.8.8.8.8.8.8.8.8.8.8.8.8.8.0.8.0.8.0.0.0.0.0.0.0.0.0.0.w.0.0.w.0.w.w.w.w.w.w.w.w.w.w.w.w.w.sXw.sXw.~ ;.~ ~ ) ) W W W E E ^ ^ ! ! / [ o.O.{ @.} 1.qXD , < - & o X * + UX$ . O O # # # # #                                                                                                             ",
"                                                                                                        # # # # # # # # # # # # O . . $ UX+ * X o & - = , y t.@.{ O.o.[ / ! ^ z././.ZX/./././././././.y.8./.8.8.8.8.8.8.8.8.8.8.8.8.8.8.8.8.8.0.8.0.0.8.0.0.0.0.0.0.0.w.0.w.0.w.w.0.w.w.w.w.w.w.w.w.w.w.w.w.w.w.sXw.q.w.q.sXq.;.;.~ ~ ) ) ) W W E E ^ ^ ! ! / [ o.O.{ @.t.1.$.N 4 < - > o @ X * + $ % . O # # # # # # # # # #                                                                                                   ",
"                                                                                                    # # # # # # # # # # # # # O O . % % + + * @ o & - < ; } t.{ O.o.[ / / ! ^ z./././././././././.8./.8./.8.8./.8.8.8.8.8.8.8.8.8.8.0.8.0.0.0.0.0.0.0.w.0.0.w.0.w.w.0.w.w.w.w.w.w.w.w.w.w.w.w.w.w.w.q.w.q.q.q.q.q.q.sXq.q.q.q.;.;.;.~ ~ ) ) W W W E E ^ ^ ! / / [ o.O.{ t.} $.cX8 , = > & @ X * + UX% . O O # # # # # # # # # # #                                                                                               ",
"                                                                                                # # # # # # # O O O O O O O O . . % % UX+ * X o & > = , i } @.{ O.o.[ / ! ! ^ z./.ZX/./././././.8./.8.8.8.8.8.8.8.8.8.8.0.8.0.0.0.0.0.0.0.0.0.0.0.w.0.0.w.0.w.w.0.w.w.w.w.w.w.w.w.w.w.w.w.w.q.w.q.q.q.q.q.q.q.q.q.q.q.q.u.sXq.' ;.;.~ ~ ) ) ) W W E E ^ ^ ! ! / [ o.O.{ @.} 1.vXM , < - & o @ * + + $ % . . O O O O O O # # # # # # #                                                                                           ",
"                                                                                              # # # # # # O O O O O O O O O . . % % $ + + * @ o & - < , y t.@.O.o.o.[ / ! ^ ^ z./././.ZX0./.0./.0.8.0./.0.8.0.0.0.0.0.0.0.0.0.0.0.0.0.w.0.w.0.w.w.0.w.w.w.w.w.w.w.w.w.w.w.w.w.w.w.q.q.q.q.q.q.q.q.q.q.q.q.q.q.q.u.q.u.u.u.u.u.;.' ;.;.~ ~ ) ) W W W E E ^ ^ ! / [ o.o.O.@.t.1.qXM 4 < - & o @ X * + $ $ % . . . O O O O O O # # # # # #                                                                                         ",
"                                                                                            # # # # # O O O O . @ . . . . . . % % $ UX+ * X @ & > - < 4 t t.{ O.o.[ / ! ! ^ ^ p./.ZX/.0./.0./.0.8.8.0.0.0.0.0.8.0.0.0.0.0.0.0.0.0.w.0.w.0.w.w.w.w.w.w.w.w.w.w.w.w.w.w.w.q.w.q.q.q.q.q.q.q.q.q.q.q.q.q.q.u.q.u.u.u.u.u.u.sXu.wX' ' ;.;.~ ~ ) ) ) W W E E ^ ^ ! ! / [ o.O.{ t.} $.M 4 , = > & @ X * + UX$ $ % % . . . . . O O O O # # # #                                                                                         ",
"                                                                                          # # # # # O O O . . . d V % % % % % % $ UX+ + * X o & > = , u } @.{ O.o.[ / ! ! ^ ^ E /.0.0.ZX0.sX/.sX8.0.0.0.0.0.0.0.0.0.0.w.0.w.w.w.w.w.w.w.w.w.w.w.w.w.w.w.w.w.q.q.q.q.q.q.q.q.q.q.q.q.q.q.q.u.q.u.u.u.u.u.u.u.u.u.u.u.u.wXu.wXmX' ' ' ;.;.~ ~ ) ) W W E E ^ ^ ! ! / [ o.O.{ @.} 1.J 4 , < > & o @ * + + UX$ $ $ % % V . . . . O O O # # # #                                                                                       ",
"                                                                                          # # # # O O O . . %   @ G @ $ $ $ $ $ UX+ + * X @ o & - = , i t.@.{ O.o.[ / ! ^ ^ E E sX0./.sX/.0.0.0.0.sX0.0.0.0.0.0.w.w.w.w.w.w.w.w.w.w.w.w.w.w.w.w.w.w.q.q.q.q.q.q.q.q.q.q.q.q.q.q.u.q.u.q.u.u.u.u.u.u.u.u.u.u.u.u.u.wXu.wXu.wXr.` ' ' ;.;.~ ~ ) ) W W W E E ^ ^ ! / [ o.O.{ @.t.1.J : , < - & o @ X * + + UX$ $   V z % % % . . O O O # # #                                                                                       ",
"                                                                                        # # # # O O O . . % % % $ j z $ $ $ UXUX+ + + * X @ & > - < 4 y t.@.O.o.o./ / ! ^ ^ E E wX0.sX0.sX0.sX0.0.0.sX0.sXw.w.w.w.w.w.w.w.w.w.w.w.w.q.w.q.q.q.q.q.q.q.q.q.q.q.q.q.q.u.q.u.u.u.u.u.u.u.u.u.u.u.u.u.u.u.i.u.i.i.wXu.wXu.wXwXwXx.` ' ' ' ;.;.~ ) ) ) W W E E ^ ^ ! / / o.o.O.@.t.1.vX: 4 < - > & @ X * * + + UXUX@ G V $ $ % % . . O O O # # #                                                                                     ",
"                                                                                        # # # O O O . % % % % $ $ d 8XV + + + + + + * X @ o & > = , 4 t t.{ O.o.[ / ! ! ^ ^ E E mX0./.sX0.sX0.sX0.sX0.w.w.w.w.w.w.w.w.w.w.q.w.q.q.q.q.q.q.q.q.q.q.q.q.q.q.q.u.q.u.u.q.u.u.u.u.u.u.u.u.i.u.u.i.u.i.i.i.i.i.i.u.i.i.wXi.wXi.wXeX` ' ' ' ;.;.~ ~ ) ) W W E E ^ ^ ! ! / [ o.O.{ t.} vX: 4 , = > & o @ X * * + + UXz G UX$ $ $ $ % % . O O O # #                                                                                     ",
"                                                                                      # # # # O O . . % % $ $ UXUXo 8XK o + + + * * X X @ & & - < , u } @.{ O.o.[ / ! ! ^ E E W z.sXsX0.sX0.sX0.sXw.w.sXw.w.sXw.q.q.w.q.q.q.q.q.q.q.q.q.q.q.q.u.q.u.u.u.u.u.u.u.u.u.u.u.u.u.u.u.i.u.i.u.i.i.i.i.i.i.i.i.i.wXwXi.wXi.wXwXwXwX( ` ` ' ' ;.;.~ ~ ) ) W W W E E ^ ! ! / [ o.O.{ @.} qX; 4 , = - & o @ X X * * * V 8Xz + + UX$ $ $ % . . O O # # #                                                                                   ",
"                                                                                      # # # O O . . % % $ UX+ UXUX* j C.j * * * * X X @ o & > - < 4 i } @.{ O.o.[ / ! ^ ^ E E W e.sXsXsXsXsXw.sXw.sXw.q.w.q.q.q.q.q.q.q.q.q.q.q.q.q.q.u.q.u.u.u.u.u.u.u.u.u.u.u.u.u.i.i.u.i.i.i.i.i.i.i.i.i.i.i.i.i.i.wXi.i.7.i.7.wX7.7.7.3.( ` ` ' ' ' ;.;.~ ) ) W W W E E ^ ^ ! / [ o.O.{ @.} t 0 : , < - > & o @ X X X & K 8Xh + + + UX$ $ $ % . . O # # #                                                                                   ",
"                                                                                      # # # O O . % % $ UX+ + + * * d C.C.V * X X X @ @ & & - = , 4 w t.@.{ O.o./ / ! ^ ^ E E W W wXsXw.sXw.sXq.q.q.sXq.q.q.q.q.q.q.q.q.u.q.u.u.u.u.u.u.u.u.u.u.u.u.u.u.i.u.i.i.i.i.u.i.i.i.i.i.i.i.i.i.i.i.i.i.7.i.7.i.7.7.wX7.7.7.7.wX7.eX( ` ` ' ' ' ;.;.~ ~ ) ) W W E E ^ ^ ! / / o.O.{ @.t.1.0 : 4 < = > & & o @ @ X j C.K * UX+ + + UX$ $ % % . O # # #                                                                                   ",
"                                                                                    # # # # O . . % % $ + + + * * * * E.E.n > X @ @ o o & > - < , 4 y t.@.O.o.o./ / ! ^ ^ E E W E x.sXsXsXq.sXq.sXq.q.q.q.q.q.q.q.u.u.u.q.u.u.u.u.u.u.u.u.u.u.u.i.u.i.i.i.i.u.i.i.i.i.i.i.i.i.i.i.i.i.i.7.i.7.7.i.7.7.7.7.7.7.7.7.7.7.7.7.( ( ( ` ` ' ' ;.;.~ ~ ) ) W W E E ^ ^ ! / / o.o.O.@.t.1.0 : 4 , = - > & & o o V C.C.z X * * * + + UX$ $ % . O # # # #                                                                                 ",
"                                                                                    # # # O O . % % UX+ + * * X X X @ j E.C.j o o o & & > - = < 4 : t t.@.O.o.[ / ! ! ^ ^ E E W W e.sXq.sXq.sXu.q.u.sXu.u.u.u.u.u.u.u.u.u.u.u.u.u.u.i.u.i.i.i.i.i.i.i.i.i.i.i.i.i.i.i.i.i.i.7.i.7.7.7.7.7.7.7.7.7.7.7.7.7.7.7.7.7.7.3.7.r.( ( ( ` ` ' ' ;.;.~ ~ ) ) W W E E ^ ^ ! ! / [ o.O.@.t.} 0 ; 4 , < = - > & & = n C.C.h @ X X * * + + UX$ $ % . O # # #                                                                                 ",
"                                                                                    # # # O O . % % UX+ * * X X @ @ @ d E.E.E.V & & & & - = < , 4 : } t.{ O.o.[ / ! ! ^ ^ E E W W ) mXsXsXsXu.u.sXu.u.u.sXu.u.u.u.u.u.u.u.u.i.u.i.i.i.i.i.i.i.i.i.i.i.i.i.i.i.i.i.7.i.7.7.7.i.7.7.i.7.7.7.7.7.7.7.7.7.7.7.7.3.7.3.3.7.3.eX( ( ( ` ` ' ' ;.;.~ ~ ) ) W W E E ^ ^ ! ! / [ o.O.{ t.} 0 ; : , < = - > > & j C.C.n o @ @ X X * * + + $ $ % . O # # #                                                                                 ",
"                                                                                  # # # O O . % % $ + + * X X @ o o o & =XE.E.n h & > > - = < , : 0 } t.{ O.o.[ / ! ! ^ E E W W W ) eXu.u.wXsXu.wXu.u.wXu.wXu.u.wXu.i.i.i.i.i.i.i.i.i.i.i.i.i.i.i.i.i.7.i.7.7.7.7.i.7.7.7.7.7.7.7.7.7.7.7.7.7.7.3.7.3.3.3.3.3.3.3.3.3.mX .( ( ( ` ` ' ' ' ;.~ ~ ) ) W W W E E ^ ! ! / [ o.O.{ t.} w ; : 4 , < = - - d C.C.C.z & o o @ X X * * + UX$ % . O # # #                                                                                 ",
"                                                                                  # # # O O . % $ UX+ * * X @ o o & & & j E.E.E.j > - - = < , 4 : i } t.{ O.o.[ / ! ! ^ E E W W W ) ) mXu.sXwXu.wXsXwXu.wXu.u.wXu.i.i.i.i.i.i.i.i.i.i.i.i.i.i.7.i.7.7.i.7.7.i.7.7.7.7.7.7.7.7.7.7.3.7.3.7.3.3.7.3.3.3.7.3.3.3.3.3.3.3.x. .( ( ( ` ` ' ' ' ;.;.~ ) ) W W W E E ^ ! ! / [ o.O.{ t.} w 6 ; 4 , , < = h n C.C.E.h & & o o @ X X * + + $ $ % O O # # #                                                                               ",
"                                                                                  # # # O . % % $ + + * X @ o o & & > > z =X=XE.E.d = = < , 4 : ; w } t.{ O.o.[ / ! ! ^ E E W W ) ) ) eXwXwXu.wXu.wXu.wXu.wXwXi.i.wXi.i.i.i.i.i.7.i.7.7.7.7.7.7.7.7.7.7.7.7.7.7.7.7.7.3.7.3.7.3.3.7.3.3.3.3.3.3.3.3.3.3.3.3.3.3.mX3.r. . .( ( ( ` ` ' ' ' ;.;.~ ) ) ) W W E E ^ ! ! / [ o.O.{ t.} w 6 ; : 4 , < < j E.E.E.n > > & & & o @ X X * + UX$ % . O # # #                                                                               ",
"                                                                                # # # O O . % $ UX+ * X @ @ o & > > h j =X=X=X=X=Xn h < , , 4 : ; w } t.{ O.o.[ / ! ! ^ E E W W ) ) ) ~ mXwXwXwXwXwXwXwXwXwXi.i.wXi.wX7.i.7.7.7.7.7.7.i.7.7.7.7.7.7.7.7.7.7.7.3.7.3.3.7.3.7.3.3.3.3.3.3.3.3.3.3.3.3.3.r.3.3.3.r.3.r.eX . .( ( ( ( ` ' ' ' ;.;.~ ~ ) ) W W E E ^ ! ! / [ o.O.IXt.} w 8 6 : 4 4 , d E.E.E.E.n d - > > & & o @ X * + + $ $ . O # # #                                                                               ",
"                                                                                # # # O . . $ UX+ * * X @ o & > h z XX%X%X%X=X=X=X=Xd , 4 4 : ; 6 y &XzXkXO.o.[ / ! ! ^ E E W W ) ) ~ ~ eXwXwXwXwXwXwXi.wXi.7.wX7.7.7.i.7.7.7.7.i.7.7.7.7.7.7.7.7.3.7.3.3.3.3.7.3.3.7.3.3.3.3.3.3.3.3.3.3.3.3.3.r.3.3.r.3.r.r.r.r.c. . . .( ( ( ( ` ' ' ' ;.;.~ ~ ) ) W W E E ^ ! ! / [ o.O.C.zXIXy 8 6 ; : 4 ; n E.E.E.E.=X=Xc V - > & o @ @ X * + UX$ % O O # # #                                                                             ",
"                                                                              # # # # O . % $ + + * X @ o & > d b XXXX%X%X%X%Xn z ; 4 4 : : ; 6 8 L I 1XkXO.o.[ / ! ! ^ E E W W ) ) ~ ~ ) x.wXwXwXwXwXwX7.wX7.7.wX7.7.7.7.7.7.7.7.7.7.3.7.3.7.3.3.7.3.7.3.7.3.3.3.3.3.3.3.3.3.3.3.3.3.3.r.3.r.r.r.r.r.r.r.r.r.r.r.eX . . .( ( ( ( ` ' ' ' ;.;.~ ~ ) ) W W E E ^ ! ! / [ o.O.8X8X8XL 2 8 6 ; : e z n =X=X=X=X=X=X%Xj h > & o @ X * + + $ % . O # # #                                                                             ",
"                                                                              # # # O O % % UX+ * * @ o & d c ~.XXXXXXXX%Xc d 4 : 4 : : : ; 6 d G $X$X1XkXO.o.[ / ! ! ^ E E W W ) ) ) ~ ;.~ mXwXwX7.wX7.7.7.7.7.7.7.7.7.7.7.7.3.7.3.3.7.3.3.7.3.3.3.3.3.3.3.3.3.3.3.3.r.3.r.3.r.r.r.r.r.r.r.r.3.r.r.r.r.r.r.r.r.eX . . . .( ( ( ( ` ' ' ' ;.;.~ ) ) ) W W E E ^ ! ! / [ o.O.8X1X1X1XI z 7 6 ; ; : : d j =X=X=X=X%X%XXXz > & o @ X * + UX$ . O # # # #                                                                           ",
"                                                                              # # # O . % $ UX+ * X @ = j A.~.~.~.~.XXXX~.z : : : : : ; ; d G $X[.$X$X$X}.O.o.[ / ! ! ^ E E W W ) ) ) ~ ;.;.' 7.7.7.7.7.7.7.7.7.7.7.3.7.3.3.3.3.3.7.3.3.3.3.3.3.3.3.3.3.3.3.3.r.3.r.3.r.3.r.r.r.3.r.r.r.r.r.r.r.r.r.r.r.r.c.r.x. . . . . .( ( ( ` ` ' ' ' ;.;.~ ) ) ) W W E E ^ ! ! / [ o.O.1X1X$X$X$X$XP z 8 ; ; ; ; : e n %X%X%X%X%X%Xb d & @ X * + + $ % . O # # #                                                                           ",
"                                                                              # # O O . $ $ + + * X o & b A.A.A.~.~.~.~.XXXXZ ; ; ; ; d G $X$X[.[.[.[.[.}.O.o.[ / ! ! ^ E E W W W ) ) ~ ;.;.' eX7.mX7.mX7.mX7.3.3.3.3.3.3.7.3.3.3.3.3.3.3.3.3.3.3.r.3.r.r.r.r.3.r.r.r.r.r.r.r.r.r.r.r.r.r.r.r.c.r.c.c.c.c.c.c. . . . . . .( ( ( ` ` ' ' ' ;.;.~ ) ) W W W E E ^ ! ! / [ o.O.1X$X$X$X[.[.[.[.P z 6 6 ; ; j %X%X%X%X%XXXXXXXXXd o @ X * + $ % . O # # #                                                                           ",
"                                                                              # # O O . $ UX+ * X @ o & d A.A.A.A.~.~.~.~.XXXXx 6 6 c 1X1X$X[.[.0X0X0X[.}.O.o.[ / ! ! ^ E E W W W ) ) ~ ~ ;.' ;.eX7.mX7.3.7.3.mX7.3.3.3.3.3.3.3.3.3.3.3.3.r.3.r.r.3.r.3.r.3.r.r.r.r.r.r.r.r.r.r.r.r.r.r.c.r.c.c.c.r.c.r.c.c. . . . . . . .( ( ( ` ` ' ' ' ;.~ ~ ) ) W W W E E ^ ! ! / [ o.O.$X$X[.[.[.[.[.[.[.$X8 6 6 C %X%X%XXXXXXXXXXXXXb & o @ X * + UX$ % O O # # #                                                                         ",
"                                                                              # # O . % $ + + * X @ & > - g A.A.A.A.A.~.~.~.~.b x 8 c 1X$X$X[.0X0X0X0X0X}.O.o.[ / ! ! ^ ^ E E W W ) ) ~ ~ ;.;.' ' x.3.3.mX3.3.3.3.3.3.3.3.3.r.3.r.3.r.r.r.3.r.r.r.r.r.r.r.r.r.r.r.r.r.r.r.c.r.c.c.c.c.c.c.c.c.c.c.c.c.c.c.eX]  . . . . .( ( ( ( ` ` ' ' ;.;.~ ~ ) ) W W E E ^ ^ ! ! / [ o.O.$X$X[.[.0X0X0X0X[.[.7 8 Z XXXXXXXXXXXXXX~.~.~.d > & o X * + + $ % . O # # #                                                                         ",
"                                                                            # # O O . $ $ + + X @ o & - = e *.A.A.A.A.A.~.~.~.~.b 1 c 1X$X[.[.0X0XiX0X0X}.O.o.[ / ! ! ^ ^ E E W W ) ) ~ ~ ;.;.' ' ' x.3.3.3.mX3.r.3.mX3.r.r.3.r.r.r.r.r.r.r.r.r.r.r.r.r.r.r.r.r.c.r.c.c.c.r.c.c.r.c.c.c.c.c.c.c.c.c.c.x.eX] ]  . . . . .( ( ( ( ` ` ' ' ;.;.~ ~ ) ) W W E E ^ ^ ! ! / [ o.O.$X[.[.0X0X0X0X0X0X[.2 x XXXXXXXXXXXX~.~.~.~.c = - & o @ X * + $ % . O # # #                                                                         ",
"                                                                            # # O O . $ $ + * X @ & > - < , C *.*.A.A.A.A.A.~.~.~.g K 1X$X$X[.0X0X0X0X0X}.O.o.o./ / ! ^ ^ E E W W ) ) ~ ~ ;.;.' ' ' ` eX3.r.3.r.mXr.r.r.r.3.r.r.r.r.r.r.r.r.r.r.r.r.c.r.c.c.c.c.r.c.c.r.c.c.c.c.c.c.c.c.c.c.c.c.x.x.x.eX] ]  . . . . . .( ( ( ( ` ' ' ' ;.;.~ ~ ) ) W W E E ^ ^ ! / / o.o.O.$X[.[.0X0XiX0X0X0X[.x b XXXXXX~.~.~.~.~.~.~.u < - > & o X * + UX$ . O # # #                                                                         ",
"                                                                            # # O . % % UX+ * X @ & > - < , e B *.*.*.A.A.A.A.A.~.~.8X1X$X$X[.[.0X0X0X[.}.{ O.o./ / ! ^ ^ E E W W ) ) ) ~ ;.;.' ' ' ` ' eXr.mXr.r.r.r.r.r.r.r.r.r.r.r.r.r.c.r.c.c.r.c.c.c.r.c.c.c.c.c.c.c.c.c.c.c.x.c.c.x.c.x.x.c.x.2.] ] ]  . . . . . .( ( ( ` ` ' ' ' ;.;.~ ) ) ) W W E E ^ ^ ! / / o.O.{ $X[.[.0X0X0X0X0X0X[.b ~.~.~.~.~.~.~.~.~.~.v , < = > & o @ * + UX$ . O O # #                                                                         ",
"                                                                            # # O . % % UX+ * X o & > = < 4 : Z *.*.*.*.*.A.A.A.A.A.8X1X1X$X$X[.[.[.[.[.}.{ O.o.[ / ! ! ^ E E W W W ) ) ~ ~ ;.;.' ' ` ` ` ( c.r.r.r.mXr.r.c.r.c.r.c.c.c.c.c.c.c.c.c.c.c.c.c.c.c.c.c.c.x.c.x.x.c.x.c.x.x.x.x.x.x.eX2.] ] ]  . . . . . .( ( ( ( ` ` ' ' ;.;.~ ~ ) ) W W W E E ^ ! ! / [ o.O.{ $X[.[.0X0X0X0X0X[.[.~.~.~.~.~.~.A.A.A.A.b e 4 , = - & o @ X + UX$ % O O # #                                                                         ",
"                                                                            # # O . % % UX+ * X o & - = , 4 : ; g *.*.*.*.*.*.A.*.A.=X8X1X1X$X$X[.[.[.$X}.{ O.o.[ / ! ! ^ ^ E E W W ) ) ~ ~ ;.;.' ' ` ` ( ( ` eXr.r.c.c.c.c.r.c.c.c.r.c.r.c.c.c.c.c.c.c.c.c.c.x.c.x.x.c.x.x.c.x.x.x.x.x.x.x.x.eX2.2.] ] ]  . . . . . .( ( ( ( ` ` ' ' ;.;.~ ~ ) ) W W E E ^ ^ ! ! / [ o.O.{ $X$X[.[.0X0X0X0X[.[.~.~.A.A.A.A.A.A.A.A.Z : 4 , < - & o @ X + + $ % O O # #                                                                         ",
"                                                                            # # O . % % UX+ * X o & - = , 4 : ; x !.!.*.*.*.*.*.*.A.=X8X8X1X1X$X$X$X$X$XkX{ O.o.[ / ! ! ^ ^ E E W W ) ) ~ ~ ;.;.' ' ' ` ` ( ( ( eXc.c.r.c.c.c.c.c.c.c.c.c.c.c.c.c.c.x.c.x.x.x.c.x.x.c.x.x.x.x.x.x.x.x.x.x.eX2.2.2.] ] ]  . . . . . .( ( ( ( ` ` ' ' ' ;.;.~ ~ ) ) W W E E ^ ^ ! ! / [ o.O.{ 1X$X$X[.[.[.[.[.[.$XA.A.A.A.A.A.A.A.A.b 6 : 4 , < - & o @ X + + $ % O O # #                                                                         ",
"                                                                            # # O . % % UX+ * X o & - = , 4 : ; 8 v !.!.!.*.*.*.*.*.E.C.8X8X1X1X1X1X1X1XkX@.O.o.o./ / ! ^ ^ E E W W ) ) ) ~ ;.;.' ' ' ` ` ( ( ( ( ( eXx.c.c.c.c.c.c.x.c.x.c.x.c.x.x.x.x.x.c.x.x.x.x.x.x.x.x.x.x.x.x.x.eX2.,.2.2.] ] ] ]  . . . . . .( ( ( ( ` ` ' ' ' ;.;.~ ) ) ) W W E E ^ ^ ! / / o.o.O.@.1X1X$X$X[.$X[.$X$X$XA.A.A.A.A.A.A.*.*.x 6 ; 4 , < - & o @ X + + $ % O O # #                                                                         ",
"                                                                            # # O O . $ UX+ * X @ & > = , 4 : ; 8 u !.!.!.!.!.*.!.*.=XC.C.8X8X8X8X1X8X8XkX@.{ O.o.[ / ! ! ^ E E W W W ) ) ~ ~ ;.;.' ' ' ` ` ( ( ( (  . .eXx.c.x.c.x.c.x.x.x.x.x.x.x.c.x.x.x.x.x.x.x.x.x.x.x.x.eXx.eX2.,.,.2.2.] ] ] ]  . . . . . .( ( ( ( ` ` ' ' ' ;.;.~ ~ ) ) W W W E E ^ ! ! / [ o.O.{ @.1X1X1X$X$X$X$X$X1X1X*.A.*.*.*.*.*.*.g 8 6 ; 4 , < - & o @ X + UX$ % O O # #                                                                         ",
"                                                                              # O O . $ UX+ * X @ & > = < 4 : ; 8 7 C ,X!.!.!.!.*.!.=XC.C.C.C.8X8X8X8X8XkX@.{ O.o.[ / ! ! ^ ^ E E W W ) ) ~ ~ ;.;.' ' ' ` ` ( ( ( (  . . . . .eXx.x.x.c.x.x.x.x.x.x.x.x.x.x.x.x.x.x.x.x.eXx.eXeX,.,.,.2.2.2.] ] ] ]  . . . . . . .( ( ( ( ` ` ' ' ' ;.;.~ ~ ) ) W W E E ^ ^ ! ! / [ o.O.{ @.8X8X1X1X1X1X1X1X1X1X*.*.*.*.*.*.*.*.u 8 6 ; 4 , < - & o @ * + UX$ . O # # #                                                                         ",
"                                                                              # O O . % $ + * X @ o > - < , : ; 6 7 1 B ,X,X!.!.!.!.=XC.C.C.C.C.C.C.C.C.kXt.@.O.o.[ / / ! ^ ^ E E W W W ) ) ~ ~ ;.;.' ' ' ` ` ( ( ( (  . . . . . .] eXeXx.x.x.x.x.x.x.x.eXx.eXx.eXeXeXeX,.,.,.,.,.2.2.2.2.] ] ] ]  . . . . . . .( ( ( ( ` ` ' ' ' ;.;.~ ~ ) ) W W W E E ^ ^ ! / / [ o.O.{ t.E.8X8X8X1X1X1X1X8X8X*.*.*.*.*.!.*.C 7 8 6 : 4 , = > & o X * + UX$ . O # # #                                                                         ",
"                                                                              # # O . % $ + + * @ o & - < , 4 ; 6 8 2 Z ,X,X,X,X,X!.%XE.C.C.C.C.C.C.E.=XkXt.@.{ O.o.[ / ! ! ^ E E E W W ) ) ~ ~ ;.;.' ' ' ` ` ( ( ( ( (  . . . . .] ] ] ] ] 2.eXeX,.eX,.eXeXeX,.,.,.,.,.,.,.,.2.2.2.2.] ] ] ] ]  . . . . . . .( ( ( ( ( ` ` ' ' ' ;.;.~ ~ ) ) W W E E E ^ ! ! / [ o.O.{ @.t.A.A.A.%X=X8X8X8X8X8X*.!.!.!.!.!.B 1 7 8 ; : 4 , = > & @ X * + $ % . O # # #                                                                         ",
"                                                                              # # O O . $ UX+ * X @ & > = , 4 : 6 8 7 2 g ,X,X,X,X,X%XE.E.E.=X%XXX~.A.A.kX} @.{ O.o.[ / ! ! ^ ^ E E W W ) ) ) ~ ~ ;.;.' ' ' ` ` ( ( ( ( (  . . . . . . .] ] ] 2.,.2.,.,.,.,.,.,.,.,.,.,.,.2.2.2.2.] ] ] ] ] ]  . . . . . . .( ( ( ( ( ` ` ' ' ' ;.;.~ ~ ) ) ) W W E E ^ ^ ! ! / [ o.O.{ @.} A.A.~.~.%X%X=XE.C.C.!.!.!.!.!.!.Z 2 8 6 ; : , < - & o @ X * + $ % . O # # #                                                                         ",
"                                                                              # # O O . % $ + * X @ & > - < , 4 ; 6 7 2 x ,X,X,X,X,X%X=X=X%X%XXX~.A.*.A.kX} t.@.O.o.o./ / ! ^ ^ E E W W W ) ) ~ ~ ;.;.' ' ' ` ` ` ( ( ( (  . . . . . . . . .] ] ] ] ] 2.,.,.,.,.,.,.,.2.2.2.2.] ] ] ] ] ]  . . . . . . . . .( ( ( ( ` ` ` ' ' ' ;.;.~ ~ ) ) W W W E E ^ ^ ! / / o.o.O.@.t.} A.A.A.XX%X%X=XE.C.c !.!.!.!.!.g 1 2 8 6 : 4 , = - & o @ * + UX$ % O O # # #                                                                         ",
"                                                                              # # # O . % $ + + * X o & - = , 4 ; 6 8 7 2 v ,X,X,X,X~.=X%X%XXX~.~.A.*.A.kX1.t.@.{ O.o.[ / ! ! ^ ^ E E W W ) ) ) ~ ~ ;.;.' ' ' ` ` ( ( ( ( (  . . . . . . . . .] ] ] ] ] ] ] ] ] ] ] ] ] ] ] ] ] ] ] ] ]  . . . . . . . . .( ( ( ( ( ` ` ' ' ' ;.;.~ ~ ) ) ) W W E E ^ ^ ! ! / [ o.O.{ @.t.1.A.*.A.~.XX%X=XE.C.c !.!.!.!.!.x 2 7 6 ; : 4 < = > & @ X * + UX$ . O # # #                                                                           ",
"                                                                              # # # O O . $ UX+ * X o & > - < , : ; 8 7 2 0 B ,X,X,XA.%X%XXXXX~.A.A.*.*.kX$.} t.{ O.o.[ / / ! ^ ^ E E W W W ) ) ~ ~ ~ ;.;.' ' ' ` ` ( ( ( ( (  . . . . . . . . . . .] ] ] ] ] ] ] ] ] ] ] ] ] ] ]  . . . . . . . . . . .( ( ( ( ( ` ` ' ' ' ;.;.~ ~ ~ ) ) W W W E E ^ ^ ! / / [ o.O.{ t.} $.A.*.A.~.XX%X=XE.E.c !.!.!.!.v 1 2 8 6 ; 4 , < - & o @ X * + $ % . O # # #                                                                           ",
"                                                                                # # # O . % $ + + * @ o & - = , 4 ; 6 8 2 1 C ,X,X,XA.%XXXXX~.~.A.*.!.*.kX$.1.t.@.O.O.o.[ / ! ! ^ ^ E E W W W ) ) ~ ~ ;.;.;.' ' ' ` ` ( ( ( ( ( (  . . . . . . . . . . . .] ] ] ] ] ] ] ] ]  . . . . . . . . . . . .( ( ( ( ( ( ` ` ' ' ' ;.;.;.~ ~ ) ) W W W E E ^ ^ ! ! / [ o.O.O.@.t.1.$.A.*.A.~.XX%X=X=XE.c !.!.!.B 0 2 7 8 ; : 4 < = > & o X * + UX$ % O # # #                                                                             ",
"                                                                                # # # O . . $ UX+ * X o & > - < 4 : ; 8 7 2 3 B ,X,XA.XXXX~.~.A.*.*.!.*.kX$.1.} @.{ O.o.[ / / ! [ [ [ / / ! ^ ) ) ) ~ ~ ;.;.' ' ' ' ` ` ( ( ( ( ( (  . . . . . . . . . . . . . . . . . . . . . . . . . . . . . . .( ( ( ( ( ( ` ` ' ' ' ' ;.;.~ ~ ) ) ) W W E E E ^ ^ ! / / [ o.O.{ @.} 1.$.*.*.*.~.~.XX%X=X=Xc !.!.!.C 1 2 8 6 ; 4 , < - & & @ X * + $ % . O # # #                                                                             ",
"                                                                                  # # O O . % $ + + X @ o & - = , 4 ; 6 8 7 1 x ,X,X*.XX~.~.A.A.*.!.!.!.kX=.$.} t.@.O.O.o.{ =.Y Y Y Y Y Y Y Y Y =.t./ W ~ ;.;.' ' ' ' ` ` ( ( ( ( ( ( (  . . . . . . . . . . . . . . . . . . . . . . . . . . .( ( ( ( ( ( ( ` ` ' ' ' ' ;.;.~ ~ ) ) ) W W W E E ^ ^ ! ! / [ o.o.O.@.t.} $.=.*.*.*.A.~.XX%X%X=Xc !.!.B 3 2 7 8 ; : 4 < = > & o X * + UX$ % O O # #                                                                               ",
"                                                                                  # # # O O . $ $ + * X @ & > - < , : ; 6 7 2 1 g ,X*.~.~.A.A.*.*.!.,X!.kX| $.1.} @.{ { | Y Y Y Y Y Y Y Y Y Y Y Y Y Y Y ..{ ! ;.' ' ' ' ` ` ` ( ( ( ( ( (  . . . . . . . . . . . . . . . . . . . . . . . . .( ( ( ( ( ( ` ` ` ' ' ' ~ ^ [ O.} $.$.$.$.$.{ { / ^ ^ ! ! / / [ o.O.{ @.} 1.$.| *.!.*.A.~.~.XX%X=Xb !.!.Z 1 7 8 6 ; 4 , = - & o @ * + + $ $ . O # # #                                                                               ",
"                                                                                    # # # O . % % UX+ * @ o & > = , 4 : 6 8 7 1 x ,X*.A.A.A.*.*.!.,X,X,XkX..=.$.} t.@.t.Y Y Y vXcXDXxXxXxXxXDXcXcXvXgXY Y Y Y >.{ W ' ' ' ` ` ` ( ( ( ( ( ( ( (  . . . . . . . . . . . . . . . . . . .( ( ( ( ( ( ( ( ` ` ` ) ! } | Y Y Y Y Y Y Y Y Y Y Y Y Y Y ..} o./ [ o.O.{ @.t.} $.=...*.!.*.*.A.~.XX%X%XXX!.g 1 2 7 6 ; : , < - > & @ X * + UX$ % O # # #                                                                                 ",
"                                                                                    # # # O O . % $ + * X @ o & - < , : ; 6 7 2 1 v !.A.A.*.*.!.!.,XjX,XkX..| $.1.} _.{ | cXk >X>X>X>X>X>X(.(.(.^.^.^.>XxXcXvXY Y Y =.! ~ ' ` ` ` ` ( ( ( ( ( ( ( ( (  . . . . . . . . . . . . .( ( ( ( ( ( ( ( ( ` ` ) / =.Y Y Y Y Y Y vX-XcXDXxXxXxXxXxXxXDXcXqXY Y | o.o.O.{ @.} 1.$.| ..!.!.!.*.A.~.~.XX%X~.!.x 2 7 8 6 : 4 , = - & o @ X + + $ % . O # # #                                                                                 ",
"                                                                                      # # # O . % % + + * X o & > = , 4 : ; 8 7 2 3 B *.*.*.!.!.,X,XjXjXkX>...=.$.1.aX@.-X>X>XL.4.&.&.&.+.+.+.+.&.#.4.v.L.Y.Y.^.xX:XgXY >.O.) ' ` ` ` ( ( ( ( ( ( ( ( ( ( ( ( ( ( ( ( ( ( ( ( ( ( ( ( ( ( ( ( ( ` ! 1.Y Y Y Y Y 6XcXxX`.^.^.^.(.(.(.^.^.^.>X>X>X>XxXqX| o.O.{ @.t.1.$.=...>.!.,X!.*.A.A.~.~.XX~.v 1 2 7 6 ; : , < - > & @ X * + UX$ % . # # #                                                                                   ",
"                                                                                      # # # O O . % $ + * X @ o & - < , 4 ; 6 7 2 1 C *.*.!.!.,X,XjXjXjXkXY >.| $.1.LX_.&X>X>X^.4.4.#.#.#.&.&.&.&.+.+.+.+.-.&.#.v.m.m.rXcXqXY { W ` ` ` ` ` ( ( ( ( ( ( ( ( ( ( ( ( ( ( ( ( ( ( ( ( ( ( ( ` ;./ | Y Y Y vXcXT.Y.Y.Y.Y.L.v.4.#.+.+.+.+.+.&.&.&.#.L.>Xl @.o.O.@.t.} 1.$.| >.Y ,X,X!.!.*.A.A.~.~.b 3 2 7 8 ; : 4 , = > & o X * + UX$ % . O # # #                                                                                   ",
"                                                                                        # # # O . % % UX+ * X @ & > = < 4 : ; 8 7 2 C *.!.!.,X,XjXjXjXjXkXY >...=.$.iXl.@.DX>X>Xm.v.v.4.4.4.#.#.#.&.&.&.&.+.+.+.+.+.+.#.4.4.rX5Xt O.W ` ` ` ` ` ( ( ( ( ( ( ( ( ( ( ( ( ( ( ( ( ( ( ( ` ` ! $...Y vXDX^.m.m.L.v.#.+.+.+.+.+.+.&.&.&.#.#.#.#.4.4.^.>XDXo.O.{ @.t.1.$.=...>.Y ,X,X,X!.*.*.A.A.~.g 1 2 8 6 ; 4 , < - & o @ X * + $ $ % . O # #                                                                                     ",
"                                                                                        # # # O O . % $ + + * @ o & - = , 4 : 6 8 2 C *.!.!.,X,XjXjXjXjXkXY Y >.| +XiX2Xt.OX>X>X(.m.m.m.v.v.4.4.4.#.#.#.#.&.&.&.+.+.+.+.+.+.&.#.#.T.l./ ) ' ` ` ` ` ` ` ` ( ( ( ( ( ( ( ( ( ` ` ` ` ` W O.t.oXJ.LX4.v.4.#.&.+.+.+.+.&.&.&.&.#.#.#.#.4.4.4.v.v.m.>X>X_.O.{ @.t.} $.=.| >.Y Y ,XjX,X!.!.*.A.~.~.v 2 7 6 ; : , < = > & @ X * + UX$ % . O O # #                                                                                     ",
"                                                                                          # # # O O % % UX+ * X o & > - < , 4 ; 6 7 0 v *.!.,X,XjXjXjXjXIXY Y Y ..+XiXiX&Xt.cX>X>X^.Y.L.L.m.m.v.v.4.4.4.#.#.#.#.&.&.&.+.+.+.+.-.+.&.&.4.S.z.;.' ' ` ` ` ` ` ` ` ` ` ` ` ` ` ` ` ` ~ ! Q.H..X#.#.4.&.+.+.+.+.+.&.&.&.&.#.#.#.4.4.4.v.v.v.m.m.L.(.>XDXO.O.@.t.} 1.$.| ..Y Y Y jXjX,X,X*.A.A.g x 2 7 8 ; : 4 , = - & o @ * + + $ $ . O O # #                                                                                       ",
"                                                                                            # # # O . % $ + + * @ o & > = < 4 : 6 8 7 2 0 v *.!.jXjXjXjXkXY Y Y >.D.iXiXl.} &Xl >X>X^.Y.Y.L.L.m.m.v.v.v.4.4.4.#.#.#.&.&.&.+.+.+.+.-.-.+.+.+..XsX;.' ' ' ' ` ` ` ` ` ` ` ` ` ' ' W j.b.&.&.&.&.+.+.+.+.+.&.&.&.&.#.#.#.4.4.4.v.v.v.m.m.L.L.Y.^.>X>X_.O.{ @.} 1.$.=...>.Y Y Y jXjX,X*.A.g x 1 2 7 8 6 ; 4 , < - > & @ X * + UX$ % . O # #                                                                                         ",
"                                                                                            # # # O O . $ UX+ * X @ & & - < , : ; 6 8 2 1 3 s v *.,XjXjXkXY Y Y Y U.iXiX.X1.t.4X>X>X>X^.`.`.Y.Y.L.L.m.m.v.v.4.4.4.#.#.#.&.&.&.+.+.+.-.-.-.-.-.-.iX0.' ' ' ' ' ' ' ' ' ' ' ' ;./.LX+.+.+.+.-.+.+.+.+.&.&.&.#.#.#.4.4.4.v.v.v.m.m.L.L.Y.Y.`.^.>X>X3XO.{ @. X1.$.=.| >.Y Y Y Y ,X*.*.v x 3 1 1 2 7 6 ; : , < = > & o X * + + $ % . O O # #                                                                                         ",
"                                                                                              # # # O . % $ + + * @ o & > - < 4 : ; 8 7 2 1 3 3 s v *.!.kXY Y Y Y H.iXiXiX+X} t.:X>X>X>X^.^.`.`.Y.Y.L.L.m.m.v.v.4.4.4.#.#.&.&.&.+.+.+.-.-.-.-.6..XeX;.' ' ' ' ' ' ' ' ;.x.Z.6.-.-.-.-.-.-.+.+.+.&.&.&.#.#.#.4.4.4.v.v.v.m.m.L.Y.Y.Y.`.`.^.>X>XxXO.{ @.&XH.$.=.| ..Y Y Y Y Y *.v f 5 3 3 1 2 7 8 ; : 4 , = - & o @ X * + $ $ % . O # # #                                                                                         ",
"                                                                                                # # # O . % $ + * X @ o & - = , 4 : ; 8 7 2 1 3 3 5 s L t Y Y Y Y H.iXiXiX2X1.} t.:X>X(.(.(.^.^.`.`.Y.Y.L.L.m.v.v.v.4.4.#.#.#.&.&.+.+.+.+.+.#.sX;.;.~ ;.;.;.;.;.;.;.;.;.c.LX6.-.-.-.-.+.+.+.+.&.&.&.#.#.#.4.4.v.v.v.m.L.L.Y.Y.`.`.`.^.^.>X>XxX&X{ @.t.j.aX$.| ..>.Y Y Y Y Y y 5 5 3 3 1 2 7 8 ; : 4 , = - & & @ X * + UX$ % . O # # #                                                                                           ",
"                                                                                                # # # O . % % $ + * X @ & & - < , 4 : 6 8 7 2 1 3 3 5 a Y Y Y Y Q H.iXiXiXiXj.1.} t.:X>X(.(.(.^.^.^.`.`.Y.Y.L.L.m.v.v.4.4.#.#.#.&.&.+.+.+./.e.~ ~ ~ ~ ;.;.~ w.u.;.;.;.~ ;.;./.#.-.+.+.+.+.+.&.&.#.#.#.4.4.v.v.v.m.m.L.Y.Y.`.`.`.^.^.(.>X(.k <X{ @.t.} 2X2X=...>.Y Y Y Y Y >.a 5 3 3 1 2 7 8 6 : 4 , < - > & o X * + + $ $ . O # # #                                                                                             ",
"                                                                                                  # # # O . % % + + * X o & > = < , 4 ; 6 8 7 2 1 3 5 p Y Y Y Y Y 2XiXiXiXiXa.t 1.} t.oXxX(.(.(.(.^.^.`.`.`.Y.Y.L.m.m.v.v.4.4.#.#.&.&.2Xz.) ~ ~ ~ ~ ~ ~ ~ x.a.iXwX~ ~ ~ ~ ~ ~ eXZ.+.+.&.&.&.&.#.#.#.4.4.v.v.m.m.L.Y.Y.`.`.`.^.^.(.(.(.(.xX&X{ @.t.} }.iX2X| >.Y Y Y Y Y Y Y p 3 3 1 2 7 8 6 ; 4 , < - > & o @ X * + UX$ % . O # # #                                                                                             ",
"                                                                                                    # # # O . $ UX+ * X @ o & - = , 4 : ; 6 7 2 1 1 3 5 Y Y Y Y Y J.iXiXK.K.iXaX$.1.} t.&X5X(.(.^.^.^.`.`.`.Y.Y.L.m.m.v.v.4.4.#.v.ZXz.W ) ) ) ) ) ) ) ~ e.5.iXiXK.g.~ ~ ~ ~ ) ) ) mXP.&.&.#.#.#.4.4.v.v.m.m.L.Y.Y.Y.`.`.^.^.^.(.(.(.(.DX&X{ @.t.} &Xf.iXiX>.Y Y Y Y Y Y Y Y s 3 1 2 7 8 6 ; : , < = > & o @ X * + UX$ % . O # # #                                                                                               ",
"                                                                                                    # # # O . % $ + + * X @ o > - < , 4 : ; 8 7 2 1 3 3 q Y Y Y Y H.K.K.iXK.K.K.D.$.1.} t.@.OXtX^.^.^.`.`.`.Y.Y.L.m.m.v.v.4.T.l.W W ) ) W W W ) ) ) ) e.b.K.K.K.iXK.Z.eX) ) ) ) ) ) ) mXb.#.#.#.4.4.v.v.m.m.L.Y.Y.`.`.`.^.^.^.(.(.>X3XO.{ @.t.} 1.aXK.K.K.Y Y Y Y Y Y Y Y 9 3 1 2 2 8 6 ; : 4 , = - & & @ X * + + $ $ . O O # # #                                                                                               ",
"                                                                                                      # # # O . $ $ + + * X @ & > - < , 4 : 6 8 7 2 1 3 r Y Y Y Y H.K.K.K.K.iXK.K.j.$.1.} t.@.{ _.3XT.`.`.`.Y.Y.L.m.rXF.j.W.E W E E E W W W W W W W eXb.K.K.iXK.K.K.K.s.u.) ) ) W W W W W z.#XLX4.4.v.v.m.m.L.Y.Y.Y.`.`.^.^.^.(.tXQ.O.{ @.t.} &XZXK.K.K.K.Y Y Y Y Y Y Y Y r 3 1 2 7 6 ; : 4 , = - > & @ X * * + $ $ % . O # # #                                                                                                 ",
"                                                                                                      # # # O . % % UX+ * * X o & > - < , 4 : 6 8 7 2 1 p Y Y Y Y H.K.K.K.K.K.K.K.K. X$.1.} t.@.{ O.O.o.'.}.B.B.R.! ! ! ^ ^ ^ ^ E E E E E E W W W mXX.K.K.K.K.K.K.K.K.K.K.b.mXW W W W W W E E E j.J.LXv.m.m.L.Y.Y.Y.`.`.^.(.tX_.O.O.{ @.t.} oXb.K.K.K.K.K.Y Y Y Y Y Y Y Y p 1 2 7 6 ; : 4 , = - > & @ X * * + UX$ . O O # # # #                                                                                                 ",
"                                                                                                        # # # O . % $ UX+ * X @ o & > - < , 4 ; 6 8 2 2 5 Y Y Y Y D.K.K.K.K.K.K.K.K.K.l.$.1.} t.@.{ { O.o.o.[ [ / / ! ! ! ! ^ ^ ^ ^ E E E E E e./.K.K.K.K.K.K.K.K.K.K.K.K.a.K.aXwXE E E E E E E E E ^ z.j.U.J.T.T.T.S.9X}.o.o.O.{ { @.t.&XH.K.K.K.K.K.K.K.Y Y Y Y Y Y Y >.s 2 7 8 6 : 4 , = - > & o X * * + UX$ . . O # # # #                                                                                                   ",
"                                                                                                        # # # # O . $ $ UX+ * X @ o & > = < 4 : ; 6 7 2 1 q Y Y Y +XK.a.K.a.K.a.K.a.K.K.aXOX$.} t.t.@.{ O.O.o.o.[ [ / / ! ! ! ! ^ ^ ^ ^ ^ W.sXX.K.a.K.a.K.a.K.a.K.K.a.K.a.K.K.a.K.X./.mXE ^ ^ ^ ^ ^ ^ ! ! ! ! / / [ [ o.o.O.O.{ @.t.oXZXX.K.a.K.a.K.K.a.K.Y Y Y Y Y Y Y 9 1 2 8 6 ; : , < - > & o @ X * + UX$ % . O O # # #                                                                                                     ",
"                                                                                                          # # # O O % % $ + + * X @ o & - = , 4 : ; 8 7 2 r Y Y Y 4Xf.a.a.a.a.a.a.a.a.a.a.f.H.t 1.} t.@.{ { O.o.o.o.[ [ / / ! ! ! ! ^ B./.a.a.a.a.a.a.a.a.a.a.a.a.a.K.a.a.a.a.a.a.a.a.a.f.aXsXB.z.! ! ! ! / / [ [ o.o.o.O.{ }.l.ZXX.a.a.a.a.a.a.a.a.a.a.a.Y Y Y Y Y Y Y r 2 7 8 ; : 4 , = > & o @ X * + UX$ $ % O O # # #                                                                                                       ",
"                                                                                                            # # # O . % % $ + * * X @ & > - < , 4 ; 6 7 2 s Y Y Y qX%.a.a.a.a.a.a.a.a.a.a.a.a.f.ZX{.} t.t.@.{ O.O.o.o.o.[ [ / N.mX/.f.a.a.a.a.a.a.a.a.a.a.a.a.a.a.a.a.a.a.a.a.a.a.a.a.a.a.a.s.a.a.a.n.aXaXaXaXaXaXaXaXaXa.a.a.a.a.a.a.a.a.a.a.a.a.a.a.a.a.Y Y Y Y Y Y Y p 2 8 6 : 4 , < - & o @ X * + + $ $ % . O # # # #                                                                                                       ",
"                                                                                                            # # # # O . % % UX+ * X @ o & > = , 4 : 6 8 7 2 9 Y Y Y T X.a.a.a.a.a.a.a.a.s.a.s.a.a.s.a.aXZXAXAXAXAXsXAXsXaXaXa.a.a.s.a.s.a.s.a.a.a.a.a.a.a.a.a.a.a.a.a.a.a.a.a.a.a.a.a.a.a.a.a.s.a.s.a.s.a.a.a.a.a.a.a.a.a.a.s.a.s.a.a.a.a.a.a.a.a.a.a.a.f.Y Y Y Y Y Y >.5 7 8 ; : 4 < = > & o X * + + $ $ % . O # # # #                                                                                                         ",
"                                                                                                              # # # O O . % $ + + * X @ & > - < , 4 ; 6 7 2 r Y Y Y ].<.s.s.s.s.s.s.s.s.s.s.s.s.s.s.s.s.s.s.s.s.s.s.s.s.s.s.s.s.s.s.s.s.s.s.s.s.s.s.s.s.s.s.s.s.s.s.s.s.s.s.s.s.s.s.s.s.s.s.s.s.s.s.s.s.s.s.s.s.s.s.s.s.s.s.s.s.s.s.s.s.s.s.s.s.s.s.s.s.aXY Y Y Y Y Y q 2 7 6 ; 4 , < - & o @ X * + UX$ % . O # # # #                                                                                                           ",
"                                                                                                              # # # # O O . % UX+ + * X o & > = , 4 : 6 8 2 s Y Y Y MXT X.s.s.s.s.s.s.s.s.s.s.s.s.s.s.s.s.s.s.X.s.X.s.s.s.s.s.s.s.s.s.s.s.s.s.s.s.s.s.s.s.s.s.s.s.s.s.s.s.s.s.s.s.s.s.s.s.s.s.s.s.s.s.s.s.s.s.s.s.s.s.s.s.s.s.s.s.s.s.s.s.s.s.s.s.s.s.s.aXY Y Y Y Y Q w 2 8 6 : 4 < = > & @ X * + UX$ % . O O # # # #                                                                                                           ",
"                                                                                                              # # # # O O . % $ + + * X o & > - < , : ; 8 7 2 q Y Y j.T <.X.X.X.X.X.X.X.X.X.X.X.X.X.X.X.X.X.X.X.X.X.X.X.X.X.X.X.X.X.X.X.X.X.X.X.X.X.X.X.X.X.X.X.X.X.X.X.X.X.X.X.X.X.X.X.X.X.X.X.X.X.X.X.X.X.X.X.X.X.X.X.X.X.X.X.X.X.X.X.X.X.X.X.X.X.X.X.ZXY Y Y Y Y Y 3 7 8 ; : , < - > o @ X * + UX$ % . O O # # #                                                                                                             ",
"                                                                                                              # # # # O O . % $ + + * X @ & > - < , : ; 8 7 2 p Y Y +XT T f.X.X.X.X.X.X.X.X.X.X.X.X.X.X.X.X.X.X.X.X.X.X.X.X.X.X.X.X.X.X.X.X.X.X.X.X.X.X.X.X.X.X.X.X.X.X.X.X.X.X.X.X.X.X.X.X.X.X.X.X.X.X.X.X.X.X.X.X.X.X.X.X.X.X.X.X.X.X.X.X.X.X.X.X.X.f.j.Y Y Y Y Y r 2 7 8 ; 4 , < - & o @ X * + $ $ . . O O # # #                                                                                                             ",
"                                                                                                            # # # # # O O . % $ + + * X @ & > - < , : ; 6 7 2 3 9 Y 4XT T %.X.X.X.X.X.X.X.X.X.X.X.X.X.X.X.X.X.X.X.X.X.X.X.X.X.X.X.X.X.X.X.X.X.X.X.X.X.X.X.X.X.X.X.X.X.X.X.X.X.X.X.X.X.X.X.X.X.X.X.X.X.X.X.X.X.X.f.X.X.X.f.X.X.X.X.X.X.X.X.X.X.X.X.X.X.%.+XY Y Y Y Y s 2 7 6 ; 4 , < - & o @ X * + UX$ % . O O # # # #                                                                                                           ",
"                                                                                                          # # # # # O O . % % $ + + * X @ & > - < , : ; 6 1 p q Q Y Y T T T 9.f.f.f.f.f.f.f.f.f.f.f.f.f.f.f.f.f.f.f.f.f.f.f.f.f.f.f.f.f.f.f.f.f.f.f.f.f.f.f.f.f.f.f.f.f.f.f.f.f.f.f.f.f.f.f.f.f.f.f.f.f.f.f.f.f.X.f.f.f.X.f.f.f.f.f.f.f.f.f.f.f.f.f.5.T 4XY Y Y Y 9 a 3 7 6 ; 4 , < - & o @ X * + UX$ % . O O # # # # #                                                                                                         ",
"                                                                                                        # # # # # O O . % % $ UX+ * * X o & > - < , : 0 r Q Q Q Q Y Y MXT T :.f.f.f.f.f.f.f.f.f.f.f.f.f.f.f.f.f.f.f.f.f.f.f.f.f.f.f.f.f.f.f.f.f.f.f.f.f.f.f.f.f.f.f.f.f.f.f.f.f.f.f.f.f.f.f.f.f.f.f.f.f.f.f.f.f.f.f.f.f.f.f.f.f.f.f.f.f.f.f.f.f.f.f.:.T Y Y Y Y Y Q Q Q r i ; 4 , < - > o @ X * + + $ $ % . O O # # # # #                                                                                                       ",
"                                                                                                  # # # # # O O . . % % % $ UX+ * X X @ & > - = : i q Q Q gX-X5XS.:XY j.T T T %.f.f.f.f.f.f.f.f.f.f.f.f.f.f.f.f.f.f.f.f.f.f.f.f.f.f.f.f.f.f.f.f.f.f.f.f.f.f.f.f.f.f.f.f.f.f.f.f.f.f.f.f.f.f.f.f.f.f.f.5.f.f.f.f.5.f.f.f.f.f.f.f.f.f.f.f.f.f.f.f.f.%.T MXY Y Y Y qXQ Q Q Q Q q w ; < = - & o @ X * + + UX$ $ % . . O O # # # # # #                                                                                               ",
"                                                                                              # # # # # O O O . . % % $ UX+ + * X @ @ o & > e w 9 Q gX-XtXT.T.G.G.G.gX4XT T T T 9.5.5.5.5.5.5.5.5.5.5.5.5.5.5.5.5.5.5.5.5.5.5.5.5.5.5.5.5.5.5.5.5.5.5.5.5.5.5.5.5.5.5.5.5.5.5.5.5.5.5.5.5.5.5.5.5.5.5.5.5.5.5.5.5.5.5.5.5.5.5.5.5.5.5.5.5.5.5.5.9.T T j.Y Y Y 6XG.G.9X:XqXQ Q Q Q w e - > & o @ X * + + UX$ $ % % . O O O # # # # #                                                                                             ",
"                                                                                            # # # # # O O . . % % % $ + + * * X @ o & & u y Q Q 6XtX|.T.T.T.G.G.F.F.5XY T T T T T 9.5.5.5.5.5.5.5.5.5.5.5.5.5.5.5.5.5.5.5.5.5.5.5.5.5.5.5.5.5.5.5.5.5.5.5.5.5.5.5.5.5.5.5.5.5.5.5.5.5.5.5.5.5.5.5.5.5.5.5.5.5.5.5.5.5.5.5.5.5.5.5.5.5.5.5.5.5.9.:.T T 4XY Y qXS.F.G.G.T.T.F.3XqXQ Q Q y u & & o @ X * * + + UX$ $ % . . O O O # # # # #                                                                                         ",
"                                                                                        # # # # # O O . . % % % $ UX+ + * * X @ o & u y Q gX3XG.|.|.T.T.G.G.F.F.F.S.S.qXAXT T T T :.5.5.5.5.5.5.5.5.5.5.5.5.5.5.5.5.5.5.5.5.5.5.5.5.5.5.5.5.5.5.5.5.5.5.5.5.5.5.5.5.5.5.5.5.5.5.5.5.5.5.5.5.5.5.5.5.5.5.5.5.5.5.5.5.5.5.5.5.5.5.5.5.5.5.5.5.5.%.T T T Y Y gX9XS.F.F.G.G.G.T.T.|.F.-XgXQ Q y u & o @ X X * + + + $ $ $ % . . O O # # # #                                                                                         ",
"                                                                                      # # # # O O O . . % % $ UX+ + * * X @ @ & u y Q qX9XrX|.|.T.T.T.G.G.F.F.S.S.J.J.9X-XT T T T T %.9.9.9.9.9.9.9.9.9.9.9.9.9.9.9.9.9.9.9.9.9.9.9.9.9.9.9.9.9.9.9.9.9.9.9.9.9.9.9.9.9.9.9.9.9.9.9.9.9.9.9.9.9.9.9.9.9.9.9.9.9.9.9.9.9.9.9.9.9.9.9.9.9.9.9.%.T T T AXY Y *XJ.J.S.S.F.F.G.G.T.T.T.|.T.9XqXQ Q y u & o @ X * * + + UX$ $ % % . O O O # # # #                                                                                     ",
"                                                                                  # # # # # O O . . % % $ + + + * X X @ o o 4 y Q qX9XrXrX|.|.T.T.G.G.F.F.F.S.S.J.J.I.U.cXZXT T T T T <.9.9.9.9.9.9.9.9.9.9.9.9.9.9.9.9.9.9.9.9.9.9.9.9.9.9.9.9.9.9.9.9.9.9.9.9.9.9.9.9.9.9.9.9.9.9.9.9.9.9.9.9.9.9.9.9.9.9.9.9.9.9.9.9.9.9.9.9.9.9.9.9.9.<.T T T T {.Y -XI.I.J.J.S.S.F.F.G.G.G.T.T.|.|.rXS.6XQ Q y e o o @ X * * + + UX$ $ % . . O O # # # #                                                                                   ",
"                                                                                # # # # # O O . % % $ UX+ + * * X @ @ o = w Q qXtXrXrX|.|.T.T.G.G.G.F.F.S.S.J.J.I.I.U.U.3XcX].T T T T T <.9.9.<.9.9.<.9.9.<.9.9.<.9.9.<.9.9.<.9.9.<.9.9.<.9.9.<.9.9.<.9.9.<.9.9.<.9.9.<.9.9.<.9.9.<.9.9.<.9.9.<.9.9.<.9.9.<.9.9.<.9.9.<.9.9.<.9.9.<.9.9.<.T T T T ].Y qX5XU.U.I.I.J.J.S.S.F.F.G.G.T.T.T.|.|.rXS.6XQ Q w 4 o @ @ X * * + + $ $ % % . O O # # # #                                                                                 ",
"                                                                              # # # # O O O . % % $ + + + * X X @ o & i 9 gX3X|.rXrX|.|.T.T.G.G.F.F.S.S.S.J.J.I.I.U.U.H.H.:X3XT T T T T T <.<.9.<.<.9.<.<.9.<.<.9.<.<.9.<.<.9.<.<.9.<.<.9.<.<.9.<.<.9.<.<.9.<.<.9.<.<.9.<.<.9.<.<.9.<.<.9.<.<.9.<.<.9.<.<.9.<.<.9.<.<.9.<.<.9.<.<.9.<.<.T T T T T l.qX:XH.H.U.U.I.I.J.J.S.S.F.F.F.G.G.T.T.|.|.rXrXS.qXQ 9 i & o @ X X * + + UX$ $ % . . O # # # # #                                                                             ",
"                                                                              # # # O O . . % % $ + + * * X @ o & u q Q -XT.rXrX|.|.T.T.G.G.G.F.F.S.S.J.J.I.I.U.U.H.H.H.D.3X:X5XT T T T T T <.<.<.<.<.<.<.<.<.<.<.<.<.<.<.<.<.<.<.<.<.<.<.<.<.<.<.<.<.<.<.<.<.<.<.<.<.<.<.<.<.<.<.<.<.<.<.<.<.<.<.<.<.<.<.<.<.<.<.<.<.<.<.<.<.<.<.<.<.T T T T T T -X:X3XD.H.H.U.U.U.I.I.J.J.S.S.F.F.G.G.G.T.T.|.|.rXrXtXgXQ q u o @ @ X * * + + $ $ % % . O O # # # #                                                                           ",
"                                                                          # # # # O O . % % % UX+ + * X X @ o = w Q qXJ.rXrX|.|.T.T.T.G.G.F.F.S.S.S.J.I.I.U.U.U.H.H.D.D.D.l.:X-XAXT T T T T T <.<.<.<.<.<.<.<.<.<.<.<.<.<.<.<.<.<.<.<.%.].T :.%.<.<.<.<.<.<.<.<.<.<.<.<.<.<.:.T ].].].T <.<.<.<.<.<.<.<.<.<.<.<.<.<.<.<.<.<.<.<.<.<.T T T T T T MX-X:Xl.D.D.D.H.H.U.U.I.I.J.J.S.S.S.F.F.G.G.T.T.|.|.rXrX|.:XQ Q w = o @ X X * + + UX$ $ % . O O # # # #                                                                         ",
"                                                                        # # # # O O . % % $ UX+ * * X @ o & u q Q *X|.rXrX|.|.T.T.G.G.G.F.F.S.S.J.J.I.I.U.U.H.H.H.D.D.l.l.l.*X-X-XMXT T T T T :.%.<.<.<.<.<.<.<.<.<.<.<.<.<.<.<.<.<.:.].].].].].].].T :.:.<.<.<.<.<.<.%.T ].].].].].].].].%.<.<.<.<.<.<.<.<.<.<.<.<.<.<.<.<.<.<.<.T T T T T T ].-X-X*Xl.l.l.D.D.H.H.H.U.U.I.I.J.J.S.S.F.F.G.G.G.T.T.|.|.rXrXS.qXQ q u & o @ X * + + UX$ $ % . . O # # # #                                                                       ",
"                                                                      # # # # O . . % % UX+ + * X @ o o & w Q gXJ.rXrX|.|.T.T.T.G.G.F.F.S.S.J.J.I.I.U.U.U.H.H.D.D.D.l.l.l.j.j.-X-X-XMXT T T T T T %.<.%.%.<.%.%.<.%.%.<.%.%.<.%.%.%.].].].T ].].].].].].].].].:.<.:.T ].].].].T %.<.%.].].].%.<.%.%.<.%.%.<.%.%.<.%.%.<.%.%.<.%.T T T T T T MX-X-X-Xj.j.l.l.l.D.D.D.H.H.U.U.I.I.I.J.S.S.S.F.F.G.G.T.T.T.|.rXrXrX3XQ Q w < o o @ X * + + UX$ % % . O # # # #                                                                     ",
"                                                                    # # # # O . . $ $ UX+ * * X @ o & e q Q 6X|.rXrX|.|.T.T.G.G.F.F.F.S.S.J.J.I.I.U.U.H.H.D.D.D.l.l.l.j.j.j.j. X6X6X6X].T T T T T T %.%.<.%.%.<.%.%.<.%.%.<.%.%.<.%.].T %.%.<.%.%.:.T ].].].].].].].].].].:.%.%.%.%.%.:.].].:.%.<.%.%.<.%.%.<.%.%.<.%.%.<.%.%.:.T T T T T ].:X6X6X Xj.j.j.j.l.l.l.D.D.H.H.H.U.U.I.I.J.J.S.S.F.F.G.G.G.T.T.|.|.rXrXG.qXQ q e & o @ X * * + UX$ $ % . O # # # #                                                                   ",
"                                                                  # # # # O . % % $ + + * X X @ o & 0 9 Q 3XrXrX|.|.T.T.G.G.G.F.F.S.S.J.J.I.I.U.U.U.H.H.D.D.D.l.l.l.j.j.j.d.d.d.{.6X6X-X].T T T T T T %.%.%.<.%.%.<.%.%.<.%.%.<.%.%.<.%.%.<.%.%.%.%.%.<.%.:.T ].].].].:.%.%.%.<.%.<.%.<.:.%.%.%.%.<.%.%.<.%.%.<.%.%.<.%.%.%.T T T T T T ].-X6X6X{.d.d.j.j.j.j.l.l.l.D.D.D.H.H.U.U.I.I.I.J.J.S.S.F.F.G.G.T.T.T.|.|.rX|.:XQ 9 0 & o @ X X * + UX$ $ % . O O # # #                                                                 ",
"                                                                # # # # O . % % $ + + * X @ @ o & w Q gXS.rXrX|.|.T.T.G.G.F.F.S.S.S.J.I.I.I.U.U.H.H.D.D.D.l.l.l.j.j.j.j.j.d.d.d.B.+X6X4X6X].T T T T T T :.%.%.%.%.%.%.%.%.%.%.%.%.%.%.%.%.%.%.%.%.%.%.%.%.%.%.T T %.%.%.%.%.%.%.%.%.%.%.%.%.%.%.%.%.%.%.%.%.%.%.%.%.%.%.:.T T T T T T ].6X4X6X+XB.d.d.d.d.j.j.j.j.l.l.l.D.D.D.H.H.U.U.I.I.J.J.S.S.F.F.F.G.G.T.T.|.|.rXrX9XgXQ w & & o @ X * + + $ $ % . O O # # #                                                               ",
"                                                              # # # # O . % % $ + + * X @ o & < y Q qXT.rX|.|.T.T.G.G.G.F.F.S.S.J.J.I.I.U.U.H.H.H.D.D.l.l.l.j.j.j.j.d.d.d.d.d.B.B.B.4X4X4XvX].T T T T T T :.%.%.%.%.%.%.%.%.%.%.%.%.%.%.%.%.%.%.%.%.%.%.%.%.%.%.%.%.%.%.%.%.%.%.%.%.%.%.%.%.%.%.%.%.%.%.%.%.%.%.%.%.%.:.T T T T T T ].vX4X4X4XB.B.B.d.d.d.d.j.j.j.j.l.l.l.D.D.D.H.H.U.U.U.I.I.J.J.S.S.F.F.G.G.G.T.T.|.|.rXF.qXQ q < & o @ X * + + UX$ % . O O # # #                                                             ",
"                                                            # # # # O . % % $ + + * X @ o o : q Q vX|.|.|.T.T.T.G.G.F.F.S.S.S.J.I.I.I.U.U.H.H.D.D.D.l.l.l.l.j.j.j.d.d.d.d.B.B.B.B.V.V.4X4X4XvX].T T T T T T :.:.%.%.%.:.%.%.%.:.%.%.%.%.:.%.%.%.%.%.%.%.%.:.%.:.%.:.%.%.%.%.%.%.%.%.:.%.%.:.%.%.%.%.:.%.%.%.:.%.%.:.:.T T T T T T ].vX4X4X4XV.V.B.B.B.B.d.d.d.d.j.j.j.j.l.l.l.D.D.D.H.H.U.U.I.I.J.J.S.S.S.F.F.G.G.T.T.|.|.rX|.qXQ q e & o @ X * + + $ $ % . O O # # #                                                           ",
"                                                          # # # # O . % % $ + + * X @ o & e 9 Q -XrX|.|.T.T.G.G.G.F.F.S.S.J.J.I.I.U.U.H.H.H.D.D.l.l.l.j.j.j.j.d.d.d.d.d.B.B.B.V.V.V.N.'.4XOXqXvX].T T T T T T T :.%.:.%.:.%.:.%.:.%.:.%.%.:.:.%.:.:.%.:.%.:.%.%.:.%.:.%.:.:.%.:.:.%.%.:.%.:.%.:.%.:.%.:.%.:.%.:.:.T T T T T T T ].vXqXOXOX'.V.V.V.V.B.B.B.d.d.d.d.d.j.j.j.j.l.l.D.D.D.H.H.H.U.U.I.I.J.J.S.S.F.F.G.G.G.T.T.|.|.rX-XQ 9 e & o @ X * + + UX$ % . O O # # #                                                         ",
"                                                        # # # # O . % % UX+ * * X @ o & e 9 Q -X|.|.T.T.T.G.G.F.F.S.S.J.J.I.I.U.U.U.H.H.D.D.D.l.l.l.j.j.j.j.d.d.d.d.B.B.B.V.V.V.V.N.N.N._.OXOXqXqXMXT T T T T T T :.%.:.%.:.:.%.:.:.%.:.:.:.%.:.%.:.%.:.:.%.:.:.%.:.%.:.:.%.:.:.%.:.:.:.%.:.%.:.:.%.:.%.:.%.:.:.T T T T T T T ].vXt OXOX_.N.N.N.V.V.V.B.B.B.B.d.d.d.d.j.j.j.j.l.l.l.D.D.D.H.H.U.U.I.I.I.J.S.S.S.F.F.G.G.T.T.T.|.rX-XQ 9 e & & @ X * * + UX$ % . O O # # #                                                       ",
"                                                      # # # # O . % % UX+ * * X @ o & e 9 Q -X|.|.T.T.G.G.F.F.F.S.S.J.J.I.I.U.U.H.H.D.D.D.l.l.l.j.j.j.j.d.d.d.d.B.B.B.B.V.V.V.N.N.N.N.z.z._.OXOXt fXMXT T T T T T T T :.:.:.:.:.:.:.:.:.%.:.:.:.:.:.:.:.:.:.:.:.:.:.:.:.:.:.:.:.:.:.%.:.:.:.:.:.:.:.:.:.:.:.:.T T T T T T T MXfXt OXOX_.z.z.N.N.N.V.V.V.V.B.B.B.d.d.d.d.j.j.j.j.j.l.l.l.D.D.H.H.H.U.U.I.I.J.J.S.S.F.F.G.G.G.T.T.|.|.9XQ Q 0 & & @ X * * + UX$ % . O # # # #                                                     ",
"                                                      # # # O . % % UX+ * * X @ o & e 9 Q -X|.T.T.G.G.G.F.F.S.S.J.J.I.I.U.U.U.H.H.D.D.l.l.l.l.j.j.j.j.d.d.d.d.B.B.B.V.V.V.V.N.N.N.z.z.z.z.R.<X<X<Xt fXAXT T T T T T T T :.:.:.:.:.:.:.:.:.:.:.:.:.:.:.:.:.:.:.:.:.:.:.:.:.:.:.:.:.:.:.:.:.:.:.:.:.:.:.:.:.T T T T T T T T AXfXt <X<X<Xz.z.z.z.z.N.N.N.V.V.V.V.B.B.B.d.d.d.d.j.j.j.j.l.l.l.D.D.D.H.H.U.U.U.I.I.J.J.S.S.F.F.G.G.T.T.T.|.9XQ Q u & & o X * * + UX$ % . O # # # #                                                   ",
"                                                    # # # O . % % $ + + * X @ o & e 9 Q -X|.T.T.G.G.F.F.S.S.J.J.I.I.I.U.U.H.H.D.D.D.l.l.l.j.j.j.j.d.d.d.d.B.B.B.B.V.V.V.N.N.N.N.z.z.z.z.p.p.p.<X&X&Xt fX:XT T T T T T T T T :.:.:.:.:.:.:.:.:.:.:.:.:.:.:.:.:.:.:.:.:.:.:.:.:.:.:.:.:.:.:.:.:.:.:.:.:.T T T T T T T T T l.fXt &X&X<Xp.p.z.z.z.z.N.z.N.N.V.V.V.V.B.B.B.B.d.d.d.d.j.j.j.j.l.l.l.D.D.D.H.H.U.U.I.I.J.J.S.S.F.F.F.G.G.T.T.|.9XQ 9 e & & @ X * + + UX$ % . O # # # #                                                 ",
"                                                  # # # O O . % $ + + * X @ o & e 9 Q -XT.T.G.G.G.F.F.S.S.J.J.I.I.U.U.H.H.H.D.D.l.l.l.l.j.j.j.d.d.d.d.d.B.B.B.V.V.V.V.N.N.N.z.z.z.z.z.p.p.p.p.p.<X&X&Xt ;XvX].T T T T T T T T T :.:.:.:.:.:.:.:.:.:.:.:.:.:.:.:.:.:.:.:.:.:.:.:.:.:.:.:.:.:.:.:.:.T T T T T T T T T ].-XfXt &X&X<Xp.p.p.p.p.z.z.z.z.z.N.N.N.V.V.V.V.B.B.B.d.d.d.d.d.j.j.j.l.l.l.D.D.D.H.H.U.U.U.I.I.J.J.S.S.F.F.G.G.G.T.T.*XQ 9 e & o @ X * + + $ $ % . O # # #                                                 ",
"                                                # # # # O . % % + + * X @ o & , q Q qXG.T.G.G.F.F.S.S.J.J.I.I.U.U.U.H.H.D.D.D.l.l.l.j.j.j.j.d.d.d.d.B.B.B.B.V.V.V.N.N.N.z.z.z.z.z.p.p.p.p.p.p.e.W.Q.&X&X&X;XgXMXT T T T T T T T T T :.T :.T :.T :.T :.T :.T :.T :.T :.T :.T :.T :.T :.T :.T :.T T T T T T T T T T MXqX;X&X&X&XQ.W.p.p.p.p.p.p.z.z.z.z.z.N.N.N.N.V.V.V.B.B.B.B.d.d.d.j.j.j.j.j.l.l.l.D.D.D.H.H.U.U.I.I.I.J.J.S.S.F.F.G.G.T.T.-XQ q , & o @ X * + + $ $ % . O # # #                                               ",
"                                              # # # O O . % $ + + * X @ o & > y Q gXG.G.G.F.F.F.S.S.J.J.I.I.U.U.H.H.H.D.D.l.l.l.j.j.j.j.d.d.d.d.d.B.B.B.V.V.V.V.N.N.z.N.z.z.z.z.p.p.p.p.p.e.e.p.e.W.o.&XO.{ Q ;Xl.T T T T T T T T T T T T :.T :.T :.T :.T :.T :.T :.T :.T :.T :.T :.T :.T T T T T T T T T T T T AX;XQ { O.&XQ.W.e.e.e.e.p.p.p.p.p.p.z.z.z.z.N.N.N.V.V.V.V.B.B.B.d.d.d.d.d.j.j.j.j.l.l.l.D.D.H.H.H.U.U.I.I.J.J.S.S.F.F.G.G.G.T.6XQ q - & & @ X * + UX$ % . O O # # #                                             ",
"                                            # # # O O . % % UX+ * X @ o & > w Q Q J.G.G.F.F.S.S.J.J.I.I.U.U.U.H.H.D.D.D.l.l.l.j.j.j. Xd.d.d.d.B.B.B.V.V.V.V.N.N.N.z.N.z.z.z.p.p.p.p.p.p.e.p.e.e.e.e.e.[ O.O.O.>.;XqX].T T T T T T T T T T T T :.T T :.T T :.T T :.T T :.T T :.T T T :.T T T T T T T T T T T ].6X;X>.O.O.O.o.e.e.e.e.p.p.e.p.p.p.p.z.p.z.z.z.z.N.N.N.N.V.V.V.B.B.B.B.d.d.d.d.j.j.j.j.l.l.l.D.D.D.H.H.U.U.U.I.I.J.J.S.S.F.F.G.G.F.qXQ w > & o @ X * + UX$ % . O O # # #                                           ",
"                                            # # # O . % % UX+ * X @ o & > 0 Q Q 3XG.F.F.S.S.S.J.J.I.tXU.9XH.H.D.D.D.l.l.l.j.j.j.j.d.d.d.d.B.B.B.B.V.V.V.N.N.N.N.z.z.z.z.z.p.p.p.p.p.e.p.e.e.e.e.e.e.e.e.! O.O.O.$.;X;XAXT T T T T T T T T T T T :.T T T T T :.T T T T T :.T T T :.T T T T T T T T T T T T AX;X;X$.O.O.O./ e.e.e.e.e.e.e.p.e.e.p.p.p.p.p.p.z.z.z.z.N.N.N.N.V.V.V.B.B.B.d.d.d.d.d.j.j.j.j.l.l.l.D.D.H.H.H.U.U.I.I.J.J.S.S.F.F.F.G.J.gXQ i > & o @ * * + $ $ % . O # # # #                                         ",
"                                          # # # O O . % $ + + * X o & > , 9 Q 6XG.F.F.S.S.J.J.tXI.U.U.9XH.H.D.D.l.l.l.l.j.j. X Xd.d.d.d.B.B.B.V.V.V.V.N.N.N.z.z.z.z.z.p.p.p.p.p.e.p.e.e.e.e.e.e.) ) ) ) ) ^ o.o.o.@.;X;X6X].T T T T T T T T T T T T T :.T T T T T :.T T T T T T T T T T T T T T T T T ].{.;X;X@.o.o.O.! ) ) ) e.) e.e.e.e.e.p.e.p.p.p.p.p.z.z.z.z.z.N.N.N.N.V.V.V.V.B.B.B.d.d.d.d.j.j.j.j.l.l.l.D.D.D.H.H.U.U.tXI.tXJ.J.S.S.F.F.G.3XQ 9 e > & o X * + + $ $ . . O # # #                                         ",
"                                          # # # O . % $ UX+ * X @ & & - y Q gXS.F.S.S.J.J.tXI.tXU.9XH.H.D.D.D.l.l.l.*Xj.j. Xd.d.d.d.B.B.B.B.V.V.V.N.N.N.N.z.z.z.z.z.p.p.p.p.p.e.p.e.e.e.e.e.) e.) e.) ) ) ) E o.o.o.O.Y ;XQ AXT T T T T T T T T T T T T T T T T T T T T T T T T T T T T T T T T T T AXQ ;X>.O.o.o.o.E ) ) ) ) ) ) e.) e.e.e.e.p.e.e.p.p.p.p.p.p.z.z.z.z.N.N.N.N.V.V.V.B.B.B.B.d.d.d.d. Xj.j.j.l.l.l.D.D.5XH.H.U.U.I.tXJ.J.S.S.S.F.F.6XQ y - > & @ X * + UX$ % . O O # #                                         ",
"                                        # # # O O . $ UX+ * X @ o & - 0 Q Q 3XF.S.S.J.J.tXtXU.9XH.H.5XD.D.3Xl.l.*Xj.j. X Xd.d.d.d.B.B.B.V.V.V.V.N.N.N.z.z.z.z.z.p.p.p.p.p.e.e.e.e.e.e.e.e.~ e.~ ~ ) ~ ~ ~ ~ ~ W / o.[ [ 1.;X;X4X].T T T T T T T T T T T T T T T T T T T T T T T T T T T T T T T ].6X;X;X$.[ [ o.[ W ~ ~ ~ ) ) ) e.~ e.) e.e.e.e.e.p.e.p.p.p.p.p.z.z.z.z.z.N.N.N.N.V.V.V.V.B.B.B.d.d.d.d. Xj.j.j.l.*Xl.l.D.D.5XH.9XU.U.tXtXJ.J.S.S.F.S.gXQ i - & o @ X * + UX$ % . O # #                                         ",
"                                        # # O O . % $ + + * X o & > 4 9 Q qXS.S.J.J.tXtXtX9X9XH.5X5XD.3Xl.l.*Xj.j. X X Xd.d.{.B.B.B.}.V.V.V.N.N.N.z.N.z.z.z.p.p.p.p.p.e.p.e.p.e.e.e.e.e.e.) e.~ e.) ) ~ ~ ~ ~ ~ ~ ! [ [ [ O.Q ;X;X X].T T T T T T T T T T T T T T T T T T T T T T T T T T T T  XQ ;XQ { [ [ [ ! ~ ;.~ ~ ~ ~ ~ ~ ) ~ e.~ e.) e.e.e.e.e.e.p.e.p.p.p.p.p.z.z.z.z.N.N.N.V.V.V.V.}.B.B.B.d.d.d.d. X Xj.j.*Xl.l.D.D.5XH.H.9XU.tXtXtXJ.J.S.S.5XQ 9 4 > & o @ X * + $ % . O O # #                                       ",
"                                      # # # O . % % UX+ * X @ & > - w Q Q 5XS.J.tXtXtX9X9XH.5X5XD.D.l.l.*Xl.j. X X Xd.d.{.d.B.}.B.V.V.V.V.N.N.N.N.z.z.z.z.p.p.p.p.p.e.p.e.e.e.e.e.e.~ ) ~ ) ~ ) ~ ~ ~ ~ ~ ~ ;.;.;.;.E [ [ [ [ $.;X;XQ AXT T T T T T T T T T T T T T T T T T T T T T T T T AXgX;X;X$./ / / [ E ;.;.;.;.;.~ ~ ~ ~ ) ~ ) ) ) e.) e.e.e.e.e.e.p.p.p.p.p.p.z.p.z.z.z.N.N.N.N.V.V.V.V.}.B.B.{.d.d. X X Xj.j.*Xl.l.3XD.5X5XH.9X9XU.tXtXJ.J.S.S.qXQ w - > & @ X * + UX$ % . O O #                                       ",
"                                      # # O O . % $ + * X @ o & - e Q Q qXJ.J.tXtXtX9X9X5X5X5XD.3Xl.l.*X*X X X X X{.d.{.B.B.}.V.}.V.V.N.N.N.N.z.z.z.z.p.p.p.p.p.p.e.p.e.e.e.e.e.e.~ e.e.~ e.~ ) ~ ~ ~ ~ ;.;.;.;.;.' ' ~ ! / / / o.>.;X;XqXMXT T T T T T T T T T T T T T T T T T T T T MX4X;X;XY O./ / / ! ) ' ' ;.;.;.;.;.;.~ ~ ~ ~ ~ ~ e.~ ) e.e.e.e.e.e.e.e.p.p.p.p.p.z.p.z.z.z.z.N.N.N.N.V.V.V.B.}.B.B.{.d.d. X X Xj.j.*Xl.l.D.D.5X5XH.9X9XtXtXtXtXJ.tXQ Q e - & o @ X * + $ $ . O O # #                                     ",
"                                    # # # O . % % UX+ * X @ & > = w Q Q 3XtXtXtX9X9X9X5X5X5X3X3Xl.*X*Xj. X X X{.d.{.B.}.B.}.V.V.V.'.N.N.N.R.z.R.z.R.p.p.p.p.p.W.e.e.e.e.e.e.e.) e.~ ) ~ ) ~ ~ ~ ~ ~ ~ ;.;.;.;.;.' ' ' ' ;.E / / / / } Q ;X;X4XMXT T T T T T T T T T T T T T T T T ].+X;X;XQ } / / / / E ' ' ' ' ' ' ;.;.;.;.;.~ ~ ~ ~ ~ ) ) e.~ e.) e.e.e.e.W.e.W.p.W.p.p.p.p.R.z.R.z.N.N.N.'.V.V.}.V.}.}.B.d.{.d.d. X X X*X*X*Xl.3X3X5X5X5X9X9X9XtXtXtXJ.6XQ w - > & o X * + UX$ % . O # #                                     ",
"                                    # # O O . % $ + * X @ o & - 4 Q Q qXtXtX9X9X9X5X5X5XD.3Xl.*X*X*X X X X X{.d.{.{.B.}.}.}.V.V.N.'.N.R.N.z.z.z.R.p.p.p.p.W.p.W.e.W.e.e.e.e.) e.~ e.) ) ) ~ ~ ~ ~ ~ ;.;.;.;.' ' ' ' ' ' ` ` ~ ! / / / / =.;X;X;X+X].T T T T T T T T T T T T T ].+X;X;X;X../ ! ! ! ! ) ` ` ` ' ' ' ' ' ' ;.;.;.;.;.~ ~ ~ ~ ~ ~ ) ) ) e.e.e.e.e.W.e.W.p.W.p.p.p.p.z.z.R.z.R.N.N.'.N.'.V.V.B.}.}.B.{.{.{. X X Xj.j.*X*Xl.3XD.5X5X5X9X9XtXtXtX9XQ Q e - & o @ X * + $ $ . O # # #                                   ",
"                                  # # # O . % $ + + * @ o & > = w Q Q :XtX9X9X5X5X5X5X3X3X*X*X*Xj. X X X{.{.{.}.}.}.}.}.V.'.V.N.'.N.N.R.z.R.z.p.p.p.p.).W.p.W.e.e.e.e.e.e.) e.~ ) ) ~ ~ ~ ~ ~ ;.;.;.;.;.' ' ' ' ' ` ` ` ` ` ( ` W ! ! ! ! O...;X;X;X+X].T T T T T T T T T ].+X;X;X;X>.O.! ! ! ! E ` ( ( ( ` ` ` ` ' ' ' ' ' ;.;.;.;.;.~ ~ ~ ) ~ ) gXyXQ.e.e.e.e.W.e.W.W.W.p.p.R.p.R.z.z.z.R.N.N.N.'.V.'.V.}.}.B.}.d.{.d.{. X X X*X*X*Xl.3X3X5X5X5X9X9X9XtXtXqXQ w = > & o @ * + UX$ % . # # #                                   ",
"                                  # # # O . % $ + * X @ & > - < q Q Q 9X9X9X5X5X5X3X3X*X*X*X*X X X X{.{.{.{.}.{.}.}.V.'.V.'.'.N.'.z.R.z.R.R.p.R.p.).p.p.W.W.e.e.e.e.e.e.W ) ) ) ) ) ) ~ ~ ~ ;.;.;.;.;.' ' ' ' ' ` ` ` ` ( ( ( ( ( ;.^ ! ! ! ! @.Y ;X;X;X;X;X;X;X;X;X;X;X;X;XQ ;XQ @.! ! ! ! ^ ;.( ( ( ( ( ( ( ` ` ` ` ' ' ' ' ;.;.;.;.;.~ ~ ~ ~ gXR R fXW e.e.e.e.e.W.p.W.W.p.W.p.p.p.R.R.z.R.R.N.N.N.'.'.V.}.}.}.}.}.{.{.{.{. X X X*X*X*Xl.3X3X5X5X5X9X9X9X:XQ 9 < - > & @ X * + $ $ . O # # #                                 ",
"                                # # # O O . $ UX+ * @ o & > = 0 Q Q qX9X5X5X5X3X3X3X*X*X*X X X X{.{.{.{.}.}.}.}.}.'.}.'.'.N.N.R.R.R.R.R.z.p.R.p.).p.W.W.W.e.W.e.e.W e.W ) ) e.~ ) ~ ~ ~ ~ ~ ;.;.;.' ' ' ' ' ` ` ` ` ( ( ( ( ( (  . . .) ^ ! ! ! ! } Q Q Q Q Q Q Q Q Q Q Q Q Q } ! ! ! ! ^ )  . . . .( ( ( ( ( ( ` ` ` ` ' ' ' ' ' ;.;.;.;.~ ~ gXR R R yX) W e.e.e.W.W.W.W.W.W.).p.).p.p.R.R.z.R.R.'.N.'.'.'.V.'.}.}.}.}.{.{.{.{. X X X*X*X*X*X3X3X3X5X5X5X9X9XQ Q 0 = - & o @ * + UX$ % O # # #                                 ",
"                                # # # O . % $ + * * @ & & - < w Q Q 6X5X5X3X3X3X3X*X*X*X:X X:X{.{.{.{.}.{.}.}.}.'.'.'.'.'.'.R.'.z.R.z.R.R.).p.W.W.W.W.W.W.W.e.W e.W W e.) ) ~ ) ) ~ ~ ~ ~ ;.;.;.' ' ' ' ' ` ` ` ` ( ( ( ( (  . . . . . .( W ! ! ! ^ ! } ..................} ! ! ! ! ! W (  . . . . . .( ( ( ( ( ( ( ` ` ` ' ' ' ' ' ;.;.;.;.[ R R R R gX) ) W W e.e.e.W.W.W.W.W.W.p.).R.p.R.R.z.R.R.R.'.N.'.'.V.'.}.}.}.}.}.{.{.{.{.{. X X*X*X*X3X3X3X5X5X5X9XqXQ w < - > & @ X * + $ % O O # #                                 ",
"                                # # # O . $ UX+ * X o & > = , 9 Q Q :X5X3X3X3X*X*X*X:X:X X{.{.{.{.+X}.+X}.}.'.'.'.'.'.N.R.R.R.R.R.R.R.).p.).).W.).W.W.W.e.e.e.W W ) ) ) ) ) ) ~ ~ ~ ~ ~ ;.;.;.' ' ' ' ' ` ` ` ( ( ( ( (  . . . . . . . . . .( E ^ ^ ! ^ ^ ^ ^ ^ ^ ^ ^ ^ ^ ^ ^ ^ ^ E `  . . . . . . . . .( ( ( ( ( ( ( ` ` ` ' ' ' ' ' ;.;.o.R R R R uX) ) ) e.) W e.E W.W.W.W.W.).W.).p.p.R.R.R.R.R.N.R.'.'.'.'.'.'.}.}.}.}.{.}.{.{.{.:X X:X X*X*X*X3X3X3X5X5X-XQ 9 , = > & o X * + UX$ . O # # #                               ",
"                              # # # O O . $ UX+ * X o & - < u Q Q ;X3X3X3X*X*X*X:X:X:X{.-X{.{.{.+X}.}.}.oX'.oX'.'.'.'._.R.'.R.R.R.R.p.).).p.).W.W.W.W.W.E e.W e.W e.W ) ) ) ) ~ ~ ~ ;.;.;.;.' ' ' ' ' ` ` ` ( ( ( (  . . . . . . . . .] ] ] ] ] ' E ^ ^ ! ^ ^ ! ^ ^ ! ^ ^ ! ^ E ' ] ] ] ] ]  . . . . . . . .( ( ( ( ( ( ` ` ` ' ' ' ' ;.[ R R R R yXE ) ) ) ) ) W W W W W.W.W.W.W.).W.).).).).R.R.R.R.R.R.'.R.'.'.'.'.'.oX}.}.+X+X{.{.{.{. X:X:X:X*X*X3X3X3X3X:XQ Q 0 < - & o @ * + UX$ . O # # #                               ",
"                              # # # O . % $ + * X @ & > - < i Q Q Q 3X3X*X:X:X:X:X X{.-X{.{.+X+X+X}.oXoX'.oX'.'._.R._.R.R.R.R.R.).).).).).).W.W.W.E W.E W W W W W W ) ) ) ~ ~ ~ ~ ~ ;.;.;.;.' ' ' ' ` ` ` ( ( ( (  . . . . . . . .] ] ] ] ] 2.2.2.2.` E ^ ^ ^ ^ ^ ^ ^ ^ ^ E ;.2.2.2.] ] ] ] ] ]  . . . . . . .( ( ( ( ( ( ` ` ` ' ' ' [ R R R R R t.~ ) ) ) ) ) W e.W e.E E W.E W.W.W.).W.).p.).R.R.R.R.R.R._.'.'.'.'.'.}.oX}.}.}.+X+X{.{.-X{. X:X:X*X:X*X3X3X3XQ Q w < = > & @ X * + $ % O # # #                               ",
"                              # # # O . $ UX+ * X @ & - = , w Q Q ;X*X*X*X:X:X:X:X-X{.+X+X+X+X+XoX}.oX'.oX'.'._.'._.R._.R.R.).R.).R.).).).W.W.^ W.E e.E W e.W W ) W ) ) ) ) ~ ~ ~ ;.;.;.;.' ' ' ' ` ` ` ( ( ( (  . . . . . . .] ] ] ] ] ] 2.2.2.2.2.2.2.2.2.2.2.2.2.2.2.2.2.2.2.2.2.2.2.2.] ] ] ] ]  . . . . . .( ( ( ( ( ( ` ` ` ' ) R R R R R fX~ ~ ~ ) ) ) ) W W W W W W.E W.W.^ W.).).).).).).).Q.R.R.R._.R._._.'.oX'.'.oXoXoX+X+X+X+X{.{.-X{.:X:X:X*X:X*X3XQ Q r , < - & @ X * + UX% . O # #                               ",
"                              # # O O . $ UX+ * X o & - < , y Q Q Q :X:X:X:X:X{.-X+X-X+X+X+X}.oXoXoX'.oX'._._._.R.R.R.R.Q.R.Q.).).).).).W.^ W.E W.E E W E W W W W ) ) ) ) ~ ~ ~ ;.;.;.;.' ' ' ' ` ` ` ( ( ( (  . . . . . . .] ] ] ] ] 2.2.2.2.2.2.2.2.2.2.2.2.,.,.2.2.2.2.2.2.2.2.2.2.2.2.2.2.] ] ] ]  . . . . . .( ( ( ( ( ( ` ` ) yXR R R R yX;.;.~ ~ ) ) ) ) W ) W W E W E E E W.W.W.).).).).).R.).R.Q.R.R._._._._._.'.oX'.oX}.oX}.+X+X+X-X{.-X{.:X:X:X:X3X*XQ Q q , < - > o X * + UX$ . O # # #                             ",
"                              # # O . % $ + + * @ o > = < 4 Q Q Q Q :X:X:X-X-X-X-X+X+X+X+X+XoXoXoXoXoX_._._._._._._.R.Q.R.Q.).).).).).^ ).^ ^ W.E E W.E W W W ) W ) ) ) ) ~ ~ ~ ;.;.;.;.' ' ' ` ` ` ` ( ( (  . . . . . . .] ] ] ] 2.2.2.2.2.2.2.2.,.,.,.,.,.,.,.,.,.,.,.,.,.,.,.2.2.2.2.2.2.2.2.] ] ]  . . . . . . .( ( ( ( ( ` ) yXR R R R R ^ ;.;.~ ~ ~ ) ) ) ) W W W W E e.E W.^ ^ ^ ).W.).).).).Q.R.Q.R.Q.R._.R._._._._.'.oXoXoXoXoX+X+X+X+X{.-X-X-X:X:X:X:XQ Q Q 4 , = > o @ X + + $ . O # # #                             ",
"                              # # O . % $ + * X @ & > = , 4 Q Q Q Y 6X-X-X-X-X+X+X+X+XoXoXoXoXoXoX_._._._._._.R.Q.Q.Q.R.Q.).).Q.).).).).^ W.E E E E E W W W W W ) ) ) ) ~ ~ ~ ~ ;.;.;.' ' ' ' ` ` ( ( ( (  . . . . . . .] ] ] ] 2.2.2.2.2.2.,.,.,.,.,.,.,.,.,.,.,.,.,.,.,.,.,.,.,.,.,.2.2.2.2.2.2.2.] ]  . . . . . . .( ( ( ( ) yXR R R R R ..;.;.;.~ ~ ~ ) ~ ) ) W ) W W W E E E E W.^ ^ ).^ ).).).).Q.).Q.R.Q._._._._._._.oX_.oXoXoXoX+XoX+X+X+X-X{.-X-X:X:X-XQ Q Q ; , = - & @ X * + $ % O # # #                             ",
"                              # # O . % $ + * X o & - < , u Q Q Q Y qX-X-X-X+X+X+X6XoX6XoXoXoXoX_._.oX_._._.Q._.Q.R.Q.Q.).Q.).).! ).^ ^ ^ ^ E E E E W E W W ) W ) ) ) ) ~ ~ ~ ;.;.;.;.' ' ' ` ` ` ( ( ( (  . . . . . .] ] ] ] 2.2.2.2.2.2.,.,.,.,.,.,.,.,.,.,.,.,.,.,.,.,.,.,.,.,.,.,.,.,.2.2.2.2.2.2.] ]  . . . . . .( ( ( ( yXR R R R R uX' ;.;.;.;.~ ~ ) ) ) ) W W W W W E E E E ^ W.^ ).^ ).! Q.).).Q.R.Q.Q.Q._.Q._._._._._._.oXoXoXoXoXoX+X6X+X+X-X-X-X-X6XQ Q Q 0 , < - & o X * + $ % . O # #                             ",
"                              # # O . $ UX+ * X o & - < , 0 Q Q Q Y >.-X-X6X6X6X6XoXoXoXoX4XOX_.OX_.OX_.<X_.Q._.Q.Q.Q.).Q.)./ ).).! ^ ).^ ^ E E E E E W W W W W ) ) ) ~ ~ ~ ~ ;.;.;.' ' ' ' ` ` ( ( ( (  . . . . . .] ] ] ] 2.2.2.2.2.,.,.,.,.,.,.,.,.,.,.,.,.,.,.,.,.,.,.,.,.,.,.,.,.,.,.,.2.2.2.2.2.] ] ]  . . . . . .( ( uXR lXlXR R yXW ' ;.;.;.;.~ ~ ~ ) ) ) ) W W W W E E E E ^ ^ ^ ^ ).! ).! ).Q.Q.Q.Q.Q.Q.Q._.<X_._._.OX_.oX_.oXoXoX6XoX6X+X6X+X-X-X-XqXQ Q Q 0 , < - & o X * + $ % . O # #                             ",
"                              # O O % % UX+ X @ o & = < 4 0 Q Q Q Y Y 4X6X6X+X6XoX4X4X4XoXOXoXOX_.OX_.<XQ.<XQ.Q.Q.Q.Q.Q.Q./ ).! ! ! ^ ^ E ^ ^ E E E E W W W W ) ) ) ) ~ ~ ~ ~ ;.;.;.' ' ' ' ` ( ( ( ( (  . . . . . .] ] ] 2.2.2.2.2.,.,.,.,.,.,.,.,.,.,.,.,.,.,.,.,.,.,.,.,.,.,.,.,.,.,.,.,.,.2.2.2.2.] ] ]  . . . . . .( uXR lXCXR R R [ ' ' ' ;.;.;.~ ~ ~ ) ) ) ) W W W W W E E E E E ^ ^ ^ ! ! ).! ! Q.).Q.Q.Q.Q.Q.Q.<X<X<X_.OX_.OXoX4X4XoXoXoX6X6X6X+X6X-XY Q Q Q 0 4 < - & o @ X + UX$ . O # # #                           ",
"                            # # O . % % + + X @ & > = , 4 0 Q Q Q Y Y >.6X6X6X4XoX4X4X4XOXOXOX_.OX<X<X<X<XQ.<XQ.Q.Q.Q.! / )./ ).! ).^ ^ ^ ^ E E E E W W W W W ) ) ) ) ~ ~ ~ ~ ;.;.;.' ' ' ` ( ( ( ( ( (  . . . . .] ] ] ] 2.2.2.2.,.,.,.,.,.,.,.,.,.,.,.,.,.,.,.,.,.,.,.,.,.,.,.,.,.,.,.,.,.,.,.2.2.2.] ] ] ]  . . . . .uXR lXnXR R R fX' ' ' ' ;.;.;.~ ~ ~ ) ~ ) ) W ) W W W E E E ^ ^ ^ ^ ! ).! ! ).Q.Q./ Q.Q.Q.Q.<XQ._.<X<X_.OX_.OXOXOXoX4X4X4XoX6X6X6X6XqXY Q Q Q 0 4 , = > & @ X * UX$ . O # # #                           ",
"                            # # O . % $ + * X @ & > = , 4 0 Q Q Q Y Y >...4X4X4X4X4X4X4XOXOXOXOX<X<X<XQ.<XQ.Q.Q.Q./ Q./ Q./ / ! ! ! ! ^ ^ ^ ^ E E E E W W ) W ) ) ) ) ~ ~ ~ ;.;.;.;.' ' ' ` ( ( ( ( (  . . . . . .] ] ] 2.2.2.2.2.,.,.,.,.,.,.,.,.,.,.,.,.,.,.,.,.,.,.,.,.,.,.,.,.,.,.,.,.,.,.,.2.2.2.2.] ] ]  . . . .uXR @XSX@XR R yX` ` ' ' ' ;.;.;.~ ~ ~ ) ) ) ) W W W W W E E E E E ^ ! ^ ! ! ! ! / / Q./ Q.Q.Q.Q.<XQ.<X<X<X<X<XOX_.OXOX4X4X4X4X4X4X6X6X>.Y Q Q Q 0 4 , = > & @ X * UX$ . O # # #                           ",
"                            # # O . % $ + * X @ & > < , : 0 Q Q Q Y >.>.>.| 4X4X4XOXOXOXOXOX<X<X<X<X<X<XQ.&XQ.Q.o.Q.[ / / / ).! ! ! ^ ^ ^ ^ E E E E W W W W W ) ) ) ) ~ ~ ~ ;.;.;.;.' ' ` ` ( ( ( ( (  . . . . . .] ] ] 2.2.2.2.,.,.,.,.,.,.,.,.,.,.,.,.,.,.,.,.,.,.,.,.,.,.,.,.,.,.,.,.,.,.,.,.,.2.2.2.] ] ]  . . .gXR @XSXbXR R R E ` ` ' ' ' ;.;.;.~ ~ ~ ) ~ ) ) W ) W W W E E E E ^ ^ ^ ! ! ! )./ / / Q./ Q.[ Q.&XQ.Q.<X<X<X<XOX<XOXOXOXOX4X4X4X4X6X4X..>.Y Q Q Q 0 4 , = > & @ X * + $ . O # # #                           ",
"                            # # O . % $ + * X o & > < , : 0 Q Q Q Y >.>.>...| t 4XOXOXOXOXOXOX<X<X&X&X&X&X&XQ.Q.o.[ [ Q./ / ! ! ! ! ! ^ ^ ^ E E E E W W W ) W ) ) ) ) ~ ~ ~ ;.;.;.;.' ' ` ` ( ( ( ( (  . . . . . .] ] ] 2.2.2.2.,.,.,.,.,.,.,.,.,.,.,.,.,.,.,.,.,.,.,.,.,.,.,.,.,.,.,.,.,.,.,.,.,.2.2.2.] ] ]  . .=.R @XSXnXR R R t ` ` ` ' ' ' ;.;.;.~ ~ ~ ) ) ) ) W W W W W E E E E ^ ^ ^ ^ ! ! ! ! / / [ [ [ o.Q.o.Q.&X&X&X<X<X<X<XOXOXOXOXOXOX4X4X4X..>.>.Y Q Q Q 0 : , = > & o X * + $ % O # # #                           ",
"                            # # O . % $ + * X o & - < , : 0 Q Q Q Y >.>.>.....| $.t OXOXt <Xt &X&X<X&XQ.&Xo.o.o.Q.[ [ / / / / ! ! ! ^ ^ ^ ^ E E E E E W W W W ) ) ) ) ~ ~ ~ ;.;.;.' ' ' ` ` ( ( ( ( (  . . . . . .] ] ] 2.2.2.2.2.,.,.,.,.,.,.,.,.,.,.,.,.,.,.,.W Q.gXfXfXfXfXfXfXfXt Q.W ,.,.,.2.2.2.2.] ] ]  .=.R @XSXSXR R R uX( ` ` ` ' ' ' ;.;.;.~ ~ ~ ) ~ ) ) W ) W W W E E E E ^ ^ ^ ^ ! ! ! / / / Q.[ Q.o.o.&X&XQ.&X&X&X&X<Xt <XOXOXOXOXOX4Xt ..>.>.>.Y Q Q Q 0 : , < - & o X * + $ % O # # #                           ",
"                            # # O . $ $ + * X o & - < , : 0 Q Q Q Y >.>.>.....| =.=.$.1.t t &X&X&X&X&X&X&Xo.&Xo.o.o.[ [ / / / ! ! ! ! ^ ^ ^ E E E W E W W ) W ) ) ) ) ~ ~ ~ ~ ;.;.' ' ' ' ` ( ( ( ( (  . . . . . .] ] ] 2.2.2.2.2.,.,.,.,.,.,.,.,.,.,.,.t fXyXR R R R R R R R R R R R R R R yXfX&X;.2.2.] ]  .t R R SXE.lXR R yX) ( ` ` ' ' ' ' ;.;.;.~ ~ ~ ) ) ) ) W W W W W E E E E ^ ^ ^ ^ ! ! ! / / [ [ [ [ o.o.Q.O.o.&X&X&X&X&X&X&XOXOXOXt t =.| ..>.>.>.Y Q Q Q 0 : , < - & o X * + $ % O # # #                           ",
"                            # # O . $ UX+ * @ o & - < 4 : 0 Q Q Q Y >.>.>.....| =.=.$.$.1.1.} } t.@.@.{ { O.O.O.o.o.[ [ / / / ! ! ! ! ^ ^ ^ E E E E E W W W W ) ) ) ) ~ ~ ~ ~ ;.;.' ' ' ' ` ` ( ( ( ( (  . . . . .] ] ] ] 2.2.2.2.2.,.,.,.,.,.,.,.t uXR R R R R R R BXBXBXpXpXpXhXBXBX@XR R R R R R yXgXW ] o.R R nXC.CXR R R / ( ` ` ` ' ' ' ' ;.;.;.~ ~ ~ ) ~ ) ) W ) W W E E E E E ^ ^ ^ ^ ! ! ! / / [ [ [ o.o.o.O.O.O.&XO.&X&Xt &Xt t 1.$.$.=.=.| ..>.>.>.Y Q Q Q 0 : , < - & o X * + $ % O O # #                           ",
"                            # # O . $ UX+ * @ o & - < 4 : 0 Q Q Q Y Y >.>.....| | =.$.$.1.1.} } t.@.@.{ { O.O.O.o.o.[ [ / / / ! ! ! ! ^ ^ ^ E E E E E W W W W ) ) ) ) ~ ~ ~ ~ ;.;.' ' ' ' ` ` ( ( ( ( (  . . . . . .] ] ] 2.2.2.2.2.2.,.,.,.W fXR R R R R BXpXl `.&.&.&.#.&.#.#.#.4.#.4.#.>XdXhX@XR R R R uXR R KXC.JXR R R fX( ( ` ` ` ' ' ' ' ;.;.;.~ ~ ~ ) ) ) ) W W W W E E E E E ^ ^ ^ ^ ! ! ! / / [ [ o.o.o.O.O.O.{ { @.@.t.} } 1.1.1.$.$.=.=.| ..>.>.>.Y Q Q Q 0 : , < - & o X * + $ % O O # #                           ",
"                            # # O . $ UX+ * @ o & - < 4 : 0 Q Q Q Y Y >.>.....| | =.$.$.$.1.} } t.@.@.{ { O.O.O.o.o.[ [ [ / / ! ! ! ! ^ ^ ^ E E E E E W W W W W ) ) ) ) ~ ~ ~ ;.;.;.' ' ' ` ` ( ( ( ( ( (  . . . . .] ] ] ] 2.2.2.2.2.2.W uXR R R R BXdXv.+.+.+.+.&.&.&.&.&.&.#.#.#.#.#.4.4.4.4.4.>XN @XR R R KX8XSX@XR R yX( ( ( ` ` ` ' ' ' ;.;.;.;.~ ~ ) ) ) ) ) W W W W E E E E ^ ^ ^ ^ ^ ! ! ! / / [ [ o.o.o.O.O.O.{ { @.@.t.} } 1.1.$.$.$.=.| | ..>.>.>.Y Q Q Q 0 : , < - & o X * + $ % O O # #                           ",
"                            # O O . $ UX+ * @ o & - < 4 : 0 Q Q Q Y Y >.>.....| | =.=.$.$.1.} } t.@.@.{ { O.O.O.o.o.o.[ [ / / ! ! ! ! ^ ^ ^ ^ E E E E E W W ) W ) ) ) ) ~ ~ ;.;.;.;.' ' ' ' ` ` ( ( ( ( (  . . . . . .] ] ] ] 2.2.2.;.fXR R R @XpX4.+.-.+.+.+.+.+.+.&.+.+.&.+.+.&.&.#.#.#.4.4.4.4.v.4.>X@XR KX1X8XbXR R R E ( ( ` ` ` ' ' ' ' ;.;.;.;.~ ~ ) ) ) ) W W W W W E E E E ^ ^ ^ ^ ! ! ! ! / / [ [ o.o.o.O.O.O.{ { @.t.t.} } 1.1.$.$.=.=.| | ..>.>.Y Y Q Q Q 0 : , < - & o X * + $ % O O # #                           ",
"                            # O O . $ UX+ * @ o & - < 4 : 0 Q Q Q Y Y >.>.>...| | =.=.$.$.1.} } t.t.@.@.{ O.O.O.o.o.o.[ [ / / / ! ! ! ! ^ ^ ^ E E E E E W W W W ) ) ) ) ~ ~ ~ ;.;.;.;.' ' ' ` ` ( ( ( ( ( (  . . . . . .] ] ] ] 2.&XR R R @Xl -.-.-.-.-.+.+.-.-.6.6._ _ _ _ _ _ _ _ _ _ -.+.&.#.4.v.>X@XR GX1X1XVXR R R R gX( ( ` ` ` ' ' ' ;.;.;.;.~ ~ ) ) ~ ) ) W ) W W E E E E E ^ ^ ^ ^ ! ! ! ! / / [ [ o.o.o.O.O.O.{ @.@.t.t.} } 1.1.$.$.=.=.| | ..>.>.Y Y Q Q Q 0 : , < - & o X * + $ % O O # #                           ",
"                            # O O . $ UX+ * @ o & - < 4 : 0 Q Q Q Y Y >.>.>...| | =.=.$.$.1.} } t.t.@.@.{ { O.O.O.o.o.[ [ / / / ! ! ! ! ^ ^ ^ E E E E E W W W W W ) ) ) ) ~ ~ ;.;.;.;.' ' ' ` ` ` ( ( ( ( ( (  . . . . . .] ] ;.uXR R @XpX4.-.+.-.-.-.-.6._ _ _ _ _ _ _ _ _ _ _ _ _ _ _ _ _ _ _ 6.v.7XR GX$X1XFXR R R R R R uX) ` ` ' ' ' ' ;.;.;.;.~ ~ ) ) ) ) W W W W W E E E E E ^ ^ ^ ^ ! ! ! / / / [ o.o.o.O.O.O.{ { @.@.t.t.} } 1.1.$.$.=.=.| | ..>.>.>.Y Q Q Q 0 : , < - & o X * + $ % O O # #                           ",
"                            # O O . $ UX+ * @ o & - < 4 : 0 Q Q Q Y Y >.>.>.....| =.=.$.$.1.} } t.t.@.@.{ { O.O.O.o.o.[ [ [ / / ! ! ! ! ! ^ ^ ^ E E E E E W W W W ) ) ) ) ~ ~ ~ ;.;.;.;.' ' ' ` ` ` ( ( ( ( (  . . . . . . .! yXR R BXY.-.-.-.-.-.6._ _ _ _ _ _ _ _ _ _ _ _ _ _ _ _ _ _ _ _ _ _ &.7XR GX$X$XI lXR R @X@XR R R yX^ ' ' ' ' ;.;.;.;.~ ~ ~ ) ~ ) ) W ) W W W E E E E ^ ^ ^ ^ ! ! ! ! / / [ [ [ o.o.O.O.O.{ { @.@.t.} } 1.1.$.$.$.=.=.| ..>.>.>.Y Y Q Q Q 0 : , < - & o X * + $ % O O # #                           ",
"                            # O O . $ UX+ * @ o & - < 4 : 0 Q Q Q Q Y >.>.>.....| | =.=.$.1.1.} } t.@.@.@.{ O.O.O.o.o.o.[ [ / / / ! ! ! ! ^ ^ ^ E E E E E W W W W W ) ) ) ~ ~ ~ ;.;.;.;.' ' ' ` ` ` ( ( ( ( ( (  . . . . .&XR R R dX-.-.-.-.-.6._ _ _ _ _ _ _ _ _ _ _ _ _ _ _ _ _ _ _ _ _ _ _ &.7XR GX[.$X$XGXR R R >X(.7XR R R R [ ' ' ' ;.;.;.;.~ ~ ) ) ) ) W W W W W E E E E E ^ ^ ^ ^ ! ! ! / / / [ [ o.o.o.O.O.O.{ { @.@.t.} } 1.1.$.$.=.=.| | ..>.>.>.Y Y Q Q Q 0 : , < - & o X * + $ % O O # #                           ",
"                            # # O . $ UX+ * @ o & - < 4 : 0 Q Q Q Q Y >.>.>.....| | =.=.$.$.1.} } t.t.@.@.{ { O.O.o.o.o.[ [ / / / ! ! ! ! ! ^ ^ ^ E E E E E W W W W ) ) ) ) ~ ~ ~ ;.;.;.;.' ' ' ` ` ` ( ( ( ( ( ( (  . .| R R @X^.-.+.-.-.6._ _ _ _ _ _ _ _ _ _ _ _ _ _ _ _ _ _ _ _ _ _ _ _ &.7XR PX[.[.$XKXR R R pXm.L.L.hXR R R R / ' ;.;.;.;.~ ~ ~ ) ~ ) ) W ) W W W E E E E ^ ^ ^ ^ ^ ! ! ! / / / [ [ o.o.O.O.O.{ { @.@.t.t.} } 1.1.$.$.=.=.| | ..>.>.>.Y Y Q Q Q 0 : , < - & o X * + $ % O O # #                           ",
"                            # # O . $ UX+ * @ o & - < 4 : 6 Q Q Q Q Y Y >.>.>...| | =.=.$.$.1.1.} } t.@.@.{ { O.O.O.o.o.o.[ [ / / / ! ! ! ! ^ ^ ^ ^ E E E E W W W W W ) ) ) ) ~ ~ ~ ;.;.;.;.' ' ' ' ` ` ` ` ( ( ( ( ( | R R 7XY.+.-.-.-._ _ _ _ _ _ _ _ _ _ _ _ _ _ _ _ _ _ _ _ _ _ _ _ _ _ BXR 7X[.[.[.FX@XR R BX#.m.L.L.Y.dXR R R R [ ;.;.~ ~ ~ ~ ) ) ) ) W W W W W E E E E E ^ ^ ^ ^ ! ! ! / / / [ [ o.o.o.O.O.{ { @.@.t.t.} } 1.1.$.$.$.=.| | ....>.>.>.Y Y Q Q Q ; : , < - & o X * + $ % O O # #                           ",
"                            # # O . $ UX+ * @ o & - < 4 : 6 q Q Q Q Q Y >.>.>.....| | =.$.$.1.1.} } t.t.@.@.{ { O.O.o.o.o.[ [ / / / ! ! ! ! ^ ^ ^ ^ ^ E E E E W W W W ) ) ) ) ~ ~ ~ ~ ;.;.;.;.' ' ' ' ` ` ` ` ( ( ( | R R 7X4.+.-.-.-._ _ _ _ _ _ _ _ _ _ _ _ _ _ _ _ _ _ _ _ _ _ _ _ _ _ hXR 7X[.[.[.$XPXR R @X&._ -.m.L.L.Y.dXR R R R [ ;.~ ~ ~ ) ) ) ) W W W W W E E E E E ^ ^ ^ ^ ^ ! ! / / / / [ [ o.o.O.O.O.{ { @.@.t.t.} } 1.1.$.$.=.=.| | ....>.>.Y Y Q Q Q q ; : , < - & o X * + $ % O # # #                           ",
"                            # # O . $ $ + * X o & - < , : ; a Q Q Q Q Y Y >.>.>...| | =.$.$.$.1.1.} } t.@.@.{ { O.O.O.o.o.o.[ [ / / / ! ! ! ! ^ ^ ^ ^ E E E E E W W W W ) ) ) ) ~ ~ ~ ~ ;.;.;.;.' ' ' ' ` ` ` ` ( t R R 7Xv.+.+.-.6._ _ _ _ _ _ _ _ _ _ _ _ _ _ _ _ _ _ _ _ _ _ _ _ _ _ hXR 7X[.[.[.[.GXR R R k _ _ _ 6.v.L.Y.Y.dXR R R yXE ~ ~ ) ) ) ) ) W W W W E E E E E ^ ^ ^ ^ ^ ! ! ! / / / [ [ o.o.o.O.O.O.{ @.@.t.t.} } 1.1.$.$.$.=.| | ....>.>.>.Y Y Q Q Q r ; : , < - & o X * + $ % O # # #                           ",
"                            # # O . % $ + * X o & - < , : ; 0 Q Q Q Q Y Y >.>.>.....| | =.$.$.1.1.} } t.t.@.@.{ { O.O.o.o.o.[ [ [ / / ! ! ! ! ! ^ ^ ^ E E E E E W W W W ) ) ) ) ) ~ ~ ~ ~ ;.;.;.;.' ' ' ' ' ` ` / R R 7Xv.+.+.+.6._ _ _ _ _ _ _ _ _ _ _ _ _ _ _ _ _ _ _ _ _ _ _ _ _ _ hXR 7X[.[.[.$XFXR R R N _ _ _ _ _ 6.4.L.Y.Y.pXR R R uX~ ) ) ) ) ) W W W W W E W E E E ^ ^ ^ ^ ! ! ! ! / / [ [ [ o.o.O.O.O.{ { @.@.t.t.} } 1.1.$.$.=.=.| | ....>.>.>.Y Y Q Q Q i ; : , < > & o X * + $ % O # # #                           ",
"                            # # O . % $ + * X o & > < , : ; 8 9 Q Q Q Q Y Y >.>.....| | =.$.$.$.1.1.} t.t.@.@.{ { O.O.O.o.o.o.[ [ / / / ! ! ! ! ! ^ ^ ^ E E E E E W W W W ) ) ) ) ) ~ ~ ~ ~ ;.;.;.;.;.' ' ' ' ) yXR @X`.+.+.+.6._ _ _ _ _ _ _ _ _ _ _ _ _ _ _ _ _ _ _ _ _ _ _ _ _ _ N R @XFX[.[.$XP lXR R 7X#._ _ 6._ 6.6.6.4.Y.Y.Y.pXR R R fX) ) ) ) W W W W W E E E E E ^ ^ ^ ^ ^ ! ! ! / / / [ [ o.o.o.O.O.O.{ @.@.t.t.} } 1.1.$.$.$.=.=.| ....>.>.>.Y Y Q Q Q 9 6 ; 4 , = > & @ X * + $ . O # # #                           ",
"                            # # O . % $ + * X @ & > = , 4 ; 6 p Q Q Q Q Y Y >.>.>.....| =.=.$.$.1.1.} } t.t.@.@.{ { O.O.O.o.o.[ [ [ / / / ! ! ! ! ^ ^ ^ ^ E E E E W W W W W ) ) ) ) ) ~ ~ ~ ~ ;.;.;.;.;.' ' ' uXR R >X&.+.+.-._ _ _ _ _ _ _ _ _ _ _ _ _ _ _ _ _ _ _ _ _ _ _ _ 6._ l R @XFX$X$X$X$XPXR R @X^.6.6.6.6.6.6.6.6.6.v.Y.Y.Y.BXR R R O.) ) W W W W W E E E E E ^ ^ ^ ^ ^ ! ! ! / / / [ [ o.o.o.O.O.O.{ { @.@.t.t.} } 1.1.$.$.=.=.| | ....>.>.>.Y Y Q Q Q w 6 ; 4 , = > & @ X * UX$ . O # # #                           ",
"                            # # O . % $ + * X @ & > = , 4 ; 6 2 9 Q Q Q Q Y Y >.>.....| =.=.$.$.$.1.1.} } t.t.@.@.{ { O.O.o.o.o.[ [ [ / / / ! ! ! ! ^ ^ ^ ^ ^ E E E W W W W W ) ) ) ) ) ) ~ ~ ~ ;.;.;.;.;.;.t R R pX&.&.+.-._ _ _ _ _ _ _ _ _ _ _ _ _ _ _ _ _ _ _ _ _ 6._ 6._ _ l R @XFX$X$X$X$XKXR R R dX6.6.6.6.6.6.6.6.6.6.-.m.Y.Y.^.@XR R yX) W W W W W E E E E E ^ ^ ^ ^ ! ! ! ! / / / [ [ [ o.o.O.O.O.{ { { @.t.t.} } 1.1.$.$.=.=.| | ....>.>.>.Y Y Q Q Q 9 2 6 ; 4 , = > & @ X * UX$ . O # # #                           ",
"                            # # O . % % + * X @ o > = , 4 : 6 8 a Q Q Q Q Y Y >.>.>...| | =.=.$.$.$.1.1.} t.t.@.@.{ { O.O.O.o.o.o.[ [ / / / ! ! ! ! ! ^ ^ ^ ^ E E E E W W W W W W ) ) ) ) ) ~ ~ ~ ~ ;.;.;.W yXR BX&.&.&.+._ _ 6._ _ _ _ _ _ _ _ _ _ _ _ _ _ _ _ _ _ _ _ _ _ _ l R @XFX1X$X1X$XFX@XR R BX6.6.6.6.6.6.6.6.6.6.6.6.-.Y.`.`.k R R R fXW W W W E E E E E ^ ^ ^ ^ ^ ! ! ! / / / / [ [ o.o.o.O.O.O.{ { @.t.t.} } 1.1.$.$.$.=.=.| | ..>.>.>.>.Y Y Q Q Q a 8 6 : 4 < - & o @ X + UX$ . O # # #                           ",
"                              # O . % % UX+ * @ o & - < 4 : ; 8 2 9 Q Q Q Q Y Y >.>.>...| | =.=.$.$.1.1.} } t.t.@.@.{ { O.O.O.o.o.o.[ [ / / / ! ! ! ! ! ^ ^ ^ ^ E E E E W W W W ) W ) ) ) ) ) ~ ~ ~ ~ ~ ;.fXR R `.&.&.+.6._ _ _ _ 6._ _ _ _ _ _ _ _ _ _ _ _ _ _ _ 6._ 6._ 6.l R R KX1X1X1X1X1XlXR R @X#.6.6.6.6.6.6.6.6.6.6.6.-.6.&.`.`.`.hXR R R ^ W W E E E E E ^ ^ ^ ^ ^ ! ! ! / / / / [ [ o.o.o.O.O.O.{ { @.@.t.t.} } 1.1.$.$.=.=.| | ....>.>.>.Y Y Q Q Q 9 1 8 ; : , < - & o @ * + $ % . O # # #                           ",
"                              # O O . $ UX+ * X o & - < , : ; 6 7 f Q Q Q Q Q Y >.>.>.....| =.=.$.$.$.1.1.} } t.t.@.@.{ { O.O.O.o.o.o.[ [ / / / ! ! ! ! ! ^ ^ ^ ^ E E E E W W W W W W ) ) ) ) ) ) ~ ~ ~ ! R R pX#.&.&.-._ 6._ 6._ _ _ 6._ _ _ _ _ _ _ _ _ _ 6._ 6._ _ _ _ ^.R R KX8X1X8X1X1XGXR R R >X6.6.6.6.6.6.6.6.-.6.-.6.-.-.-.v.`.`.(.@XR R fXW E E E E E ^ ^ ^ ^ ^ ! ! ! ! / / / [ [ o.o.o.O.O.O.{ { @.@.@.t.} } 1.1.$.$.=.=.| | ....>.>.>.Y Y Q Q Q Q p 7 6 ; 4 , = - & o X * + $ % . O # #                             ",
"                              # # O . % $ + * X @ & - = , 4 ; 6 7 2 r Q Q Q Q Y Y >.>.....| | =.=.$.$.$.1.1.} } t.@.@.{ { { O.O.o.o.o.o.[ [ / / / ! ! ! ! ! ^ ^ ^ E E E E E E W W W W W W ) ) ) ) ) ~ ~ uXR @Xm.#.&.+.6.6.6.6._ _ 6._ _ 6._ 6._ 6._ 6._ 6._ _ _ _ _ 6._ ^.@XR nX8X8X8X8X8XJXR R R N 6.6.6.6.6.6.6.6.6.-.-.-.-.-.6.-.+.Y.`.`.pXR R R ! E E E E ^ ^ ^ ^ ^ ! ! ! ! / / / [ [ o.o.o.O.O.O.{ { { @.@.t.} } 1.1.$.$.=.=.=.| ....>.>.>.>.Y Y Q Q Y r 2 8 6 : 4 , = > & @ X * + $ % O O # #                             ",
"                              # # O . % $ + + X @ & > = < 4 : ; 8 2 3 9 Q Q Q Q Y Y >.>.....| | =.=.$.$.$.1.} } t.t.@.@.{ { { O.O.o.o.o.o.[ [ / / / ! ! ! ! ^ ^ ^ ^ E E E E E E W W W W W W ) ) ) ) ) ! R R pX#.#.&.6.6.6.6.6.6.6._ _ 6._ _ _ _ _ _ _ _ _ _ 6._ 6.6.6.^.@XR nXC.8XC.8X8X8XCXR R R R R R R R R R R 7XBXBXpX-.6.-.-.-.-.4.`.`.`.@XR R fXE E E ^ ^ ^ ^ ^ ! ! ! ! / / / [ [ [ o.o.O.O.O.O.{ { @.@.t.t.} } 1.$.$.$.=.=.| ......>.>.>.Y Y Q Q Q 9 3 2 8 ; : 4 < - > o @ X * + $ . O # # #                             ",
"                              # # O . % % UX+ * @ o & - < , : ; 8 7 2 f 9 Q Q Q Q Y >.>.>.....| | =.=.$.$.$.1.1.} t.t.@.@.@.{ { O.O.O.o.o.o.[ [ / / / / ! ! ! ^ ^ ^ ^ ^ E E E E E E W W W W W W ) ) ) fXR @Xm.#.#.+.6.6.6.6._ 6.6.6.6.6.6._ 6._ 6._ 6._ 6._ 6.6.6.6.^.@XR nXC.C.C.C.C.C.8XSXbXbXbXbXbXbXbXbXbXbXbXR R @X4.-.-.-.-.-.-.-.Y.`.`.pXR R yXE E ^ ^ ^ ^ ! ! ! ! / / / [ [ [ o.o.o.O.O.O.{ { @.@.@.t.t.} 1.1.$.$.$.=.=.| ......>.>.>.Y Y Q Q Q Q f 2 7 6 ; 4 , < - & o @ * + + $ . O # # #                             ",
"                              # # # O . $ $ + * X @ & > = < 4 : 6 8 7 2 p Q Q Q Q Y Y >.>.>.....| | =.=.$.$.1.1.} } t.t.@.@.@.{ { O.O.O.o.o.o.[ [ / / / / ! ! ! ! ^ ^ ^ ^ ^ E E E E E W W W W W W W ) R R pX#.#.#.6.6.6.6.6.6.6.6.6.6.6.6.6.6.6.6.6.6.6.6.6.6.6.6.#.@XR CXC.C.C.C.C.C.C.C.C.C.C.C.C.C.C.C.C.C.C.nXR R @X4.-.-.-.-.-.-.+.4.`.`.^.@XR R gX^ ^ ^ ^ ! ! ! ! / / / [ [ [ o.o.o.O.O.O.{ { { @.@.t.t.} } 1.1.$.$.=.=.| | ....>.>.>.Y Y Q Q Q Q p 1 2 8 6 : 4 < = > & @ X * + $ % . O # #                               ",
"                              # # # O . % $ + + * @ & > - < , 4 ; 6 7 2 1 r Q Q Q Q Y >.>.>.......| =.=.=.$.$.1.1.} } t.t.@.@.{ { { O.O.O.o.o.o.[ [ [ / / / ! ! ! ! ^ ^ ^ ^ ^ E E E E E E W W W W W | R R ^.#.#.+.6.6.6.6.6.6.6.6.6.6.6._ 6._ 6._ 6._ 6._ 6._ 6.#.7XR CXC.C.C.C.C.C.C.C.C.C.C.C.C.C.C.C.C.C.C.nXR R R @X4.-.-.+.-.+.-.-.+.`.`.^.hXR R yX^ ^ ^ ! ! ! ! / / / / [ [ o.o.o.O.O.O.{ { { @.@.t.t.} } 1.1.$.$.=.=.| | ....>.>.>.Y Y Q Q Q Q r 1 2 7 8 ; 4 , < - & o @ * + + $ % O # # #                               ",
"                              # # # O O % % UX+ * X o & > = , 4 : 6 8 7 2 1 r Q Q Q Y Y >.>.>.......| =.=.=.$.$.1.1.} } t.t.@.@.{ { { O.O.O.o.o.o.[ [ [ / / / ! ! ! ! ! ^ ^ ^ ^ E E E E E E E W W W uXR BX4.4.#.-.6.-.6.6.6.6.6.6.6.6.6.6.6.6.6.6.6.6.6.6.6.6.#.7XR CXE.E.C.E.C.C.C.C.C.C.C.C.C.C.C.C.E.C.E.SX@XR R @X^.-.-.+.-.+.+.+.+.+.m.^.^.>XR R R / ^ ! ! ! ! / / / [ [ [ o.o.o.O.O.O.{ { { @.@.t.t.} } 1.1.$.$.$.=.| | ....>.>.>.Y Y Q Q Y Q r 1 1 7 8 6 : 4 , = > & o X * + UX$ . O # # #                               ",
"                                # # # O . $ $ + * X @ & & - < , : ; 6 8 2 1 5 q Q Q Q Y Y >.>.>.......| =.=.$.$.$.1.1.} } t.t.@.@.@.{ { O.O.O.o.o.o.[ [ [ / / / ! ! ! ! ! ^ ^ ^ ^ ^ E E E E E E E W R R dX4.4.&.6.6.6.6.-.6.6.6.6.6.6.6.6.6.6.6.6.6.6.6.6.6.#.7XR CXE.E.E.E.E.C.E.C.C.C.C.C.C.C.C.E.C.E.C.SX@XR R R >X-.-.+.+.+.-.+.-.+.+.&.^.^.^.7XR R gX! ! ! ! / / / [ [ [ o.o.o.O.O.O.{ { { @.@.t.t.} } 1.1.$.$.$.=.| | ....>.>.>.Y Y Q Q Q Q q 5 1 2 7 6 ; 4 , < - > & @ X * + $ % . O # # #                               ",
"                                # # # O . % $ UX+ * @ o & > = < 4 : ; 8 7 2 1 5 q Q Q Q Y Y >.>.>.....| | =.=.=.$.$.1.1.} } } t.@.@.@.{ { O.O.O.o.o.o.o.[ [ / / / ! ! ! ! ! ! ^ ^ ^ ^ ^ E E E E E t R R ^.4.4.+.-.-.6.-.6.6.-.6.6.6.6.6.6.6.6.6.6.6.6.6.6.#.7XR lX=XE.E.E.E.C.E.E.C.E.C.E.C.E.E.C.E.E.E.=XlXR R R l +.+.+.+.-.+.+.+.+.+.+.+.Y.^.^.hXR R uX! ! / / / / [ [ [ o.o.o.O.O.O.{ { @.@.@.t.t.} } 1.1.$.$.$.=.=.| ....>.>.>.Y Y Y Q Y Q q 5 1 2 7 8 6 : 4 < = > & o @ * + UX$ % O # # #                                 ",
"                                  # # O . % % $ + * X @ o & - = , 4 : 6 8 7 2 1 5 q Q Q Q Y Y >.>.>.......| =.=.=.$.$.1.1.} } t.t.t.@.@.{ { O.O.O.O.o.o.o.[ [ [ / / / ! ! ! ! ! ^ ^ ^ ^ ^ ^ E E ^ fXR 7X4.4.4.-.-.-.-.-.-.6.6.-.6.-.6.-.6.6.6.6.6.6.6.6.6.hXR lX%X=X=XE.E.E.E.E.E.E.E.E.E.E.E.E.E.E.E.%XlXR R R dX+.+.-.+.+.+.+.+.+.+.+.+.+.m.^.^.dXR R yX! / / / [ [ [ o.o.o.O.O.O.O.{ { @.@.@.t.t.} } 1.1.$.$.$.=.=.| | ..>.>.>.Y Y Y Q Q Q q 5 1 1 2 8 6 ; : , < - & & @ X * + $ $ . O # # #                                 ",
"                                  # # # O . % % UX+ * X @ & > - < , 4 ; 6 8 7 2 1 5 q Q Q Q Y Y >.>.>.>.....| | =.=.$.$.1.1.1.} } t.t.@.@.@.{ { O.O.O.o.o.o.[ [ [ / / / / ! ! ! ! ! ^ ^ ^ ^ ^ ^ E yXR hXv.4.#.-.-.-.6.-.-.-.-.6.6.6.6.6.-.6.-.6.-.6.-.6.hXR lXXX=X=X=X=X=XE.E.E.E.E.E.E.E.E.E.E.E.E.E.CXR R R hX+.+.+.+.+.+.+.+.+.&.+.&.+.&.4.^.^.^.R R R O./ [ [ [ [ o.o.o.O.O.O.{ { { @.@.t.t.t.} } 1.$.$.$.=.=.=.| ....>.>.>.Y Y Y Q Q Q q 5 1 1 2 8 6 ; : 4 < - > & o X * + UX$ % . # # #                                   ",
"                                    # # O O . % $ + * X @ o & > = < , : ; 6 8 2 1 1 5 q Q Q Q Y Y >.>.>.>.....| | =.=.$.$.$.1.1.} } t.t.t.@.@.{ { O.O.O.O.o.o.o.[ [ [ / / / / ! ! ! ! ! ^ ^ ^ ^ E R R dXv.4.#.-.-.-.-.-.6.-.6.-.-.-.-.-.6.-.6.6.6.6.6.hXR R lXbXNXVXVXVXVXVXVXnXJXSXE.E.E.E.E.E.E.=XCXR R R BX+.+.+.+.+.+.+.+.&.+.+.&.&.&.&.&.^.^.^.7XR R >.[ [ [ o.o.o.o.O.O.O.{ { { @.@.t.t.} } } 1.$.$.$.=.=.| | ......>.>.Y Y Y Q Q Q q 5 3 1 2 7 6 ; : 4 , = > & o @ X * + $ % . O # # #                                   ",
"                                    # # # O O . $ UX+ * X @ o & - = , 4 : ; 6 7 2 1 1 3 r Q Q Q Y Y Y >.>.>.....| | =.=.$.$.$.1.1.} } } t.t.@.@.{ { { O.O.O.o.o.o.[ [ [ [ / / / / ! ! ! ! ! ^ ^ [ R R >Xv.v.&.-.-.-.-.-.-.-.-.-.6.-.6.-.-.-.-.-.-.-.N R R R R R R R R R R R R R @XJX=X=X=X=X=X=X=XnXR R R 7X4.+.+.+.+.+.+.&.+.+.&.&.+.&.&.&.&.`.^.^.BXR R fX[ o.o.o.o.O.O.O.O.{ { @.@.@.t.t.} } 1.1.1.$.$.=.=.| | ....>.>.>.Y Y Y Q Q Q r 5 3 1 2 7 8 6 : 4 , < - & & @ X * + UX$ % . O # #                                     ",
"                                      # # # O . % $ + + * X @ & > - < , 4 : ; 8 7 2 1 1 3 r Q Q Q Y Y Y >.>.>.....| | =.=.$.$.$.1.1.1.} } t.t.@.@.@.{ { O.O.O.o.o.o.o.[ [ [ / / / / / ! ! ! ! ! =.R R v.v.v.&.-.-.-.-.-.-.-.-.-.-.-.-.-.-.6.-.6.-.6.-.-.k R R R R R R R R R R R nX=X=X=X=X=X=X=XnXR R R 7Xv.+.+.+.+.&.+.&.+.&.&.&.&.&.&.&.&.&.Y.^.^.hXR R uXo.o.o.O.O.O.O.{ { { @.@.t.t.t.} } 1.1.$.$.$.=.=.| | ....>.>.>.Y Y Q Q Q Q r 3 3 1 2 7 8 6 ; 4 , < = > & o X * + + $ % . O O # #                                     ",
"                                      # # # O O . % $ + * * X o & > - < , 4 : 6 8 7 2 1 3 3 p Q Q Q Y Y Y >.>.>.....| | =.=.=.$.$.$.1.1.} } t.t.@.@.@.{ { O.O.O.O.o.o.o.o.[ [ [ / / / / / ! ! ! | R @Xv.v.v.-.-.+.-.+.-.-.-.-.-.-.-.-.-.-.-.-.-.-.-.-.-.-.>X>X>X>Xk pXpXBXR R nX%X%X=X=X=X=X=XJXR R R @X(.+.+.&.+.&.&.&.&.&.&.+.&.&.&.&.&.&.&.L.^.(.dXR R yXo.o.O.O.O.O.{ { @.@.@.t.t.} } } 1.1.$.$.$.=.=.| | ....>.>.>.Y Y Q Q Y Q a 5 3 1 2 7 8 6 ; : , < = - & o @ X * + UX$ % . O # #                                       ",
"                                        # # # O O . $ UX+ * X @ o & > - < , 4 ; 6 8 7 2 1 3 3 f 9 Q Q Q Y Y >.>.>.>.....| | =.=.$.$.$.1.1.1.} } t.t.t.@.@.{ { { O.O.O.o.o.o.o.[ [ [ [ / / / / ! uXR 7Xv.v.v.+.+.+.+.-.-.+.-.+.-.-.-.-.-.-.-.-.-.-.-.-.-.-.-.-.-.-.-.-.^.@XR nX%X%X%X%X%X%X%XJX@XR R @X(.+.&.+.+.&.+.&.+.&.&.&.&.&.&.&.&.#.#.#.L.^.^.dXR R yXO.O.O.O.{ { { @.@.t.t.} } } 1.1.$.$.$.=.=.| | ......>.>.Y Y Y Q Q Q 9 p 3 3 1 2 7 8 6 ; : 4 , = - & o @ X * + + $ % . O O # #                                       ",
"                                        # # # # O . % $ UX+ * X @ o & > = < , : ; 6 8 7 2 1 1 3 s q Q Q Q Y Y Y >.>.>.....| | =.=.=.$.$.$.1.1.} } } t.t.@.@.@.{ { O.O.O.O.o.o.o.o.[ [ [ [ / / / uXR 7Xm.v.v.+.+.+.-.+.+.+.+.-.-.+.-.+.-.+.-.-.-.-.-.-.-.-.-.-.-.-.+.4.@XR CXXX%X%X%X%X%X%X~.lXR R R dX+.+.+.&.&.+.&.&.&.&.&.&.&.&.#.&.#.&.#.#.v.^.(.dXR R yXO.O.{ { { @.@.@.t.t.} } 1.1.1.$.$.$.=.=.| | ....>.>.>.Y Y Y Q Q Q q f 3 3 1 2 7 8 6 ; : 4 , = - > & @ X * + + $ $ . O O # #                                         ",
"                                          # # # O O . % % UX+ * X @ o & > - < , 4 : ; 8 7 2 1 1 3 5 r Q Q Q Y Y Y >.>.>.......| | =.=.$.$.$.1.1.1.} } t.t.t.@.@.@.{ { O.O.O.O.o.o.o.o.[ [ [ [ / uXR 7Xm.m.4.+.+.+.+.+.-.+.-.+.+.+.+.-.+.-.-.+.-.+.-.+.-.+.-.+.-.+.4.7XR CXXXXXXXXXXXXXXX~.lXR R R dX+.&.&.&.&.&.&.&.&.&.&.&.&.#.&.#.#.#.#.#.#.v.^.(.k R R yX{ { { @.@.@.t.t.t.} 1.1.1.$.$.$.=.=.=.| | ....>.>.>.Y Y Y Q Q Q r 5 3 3 1 2 7 8 6 ; : 4 < = - > & o X * + + $ $ . . O # # #                                         ",
"                                            # # # O O . % $ UX+ * X @ o & > - < , 4 : ; 8 7 2 1 1 3 5 p 9 Q Q Q Y Y >.>.>.>.....| | =.=.=.$.$.$.1.1.} } } t.t.@.@.@.{ { { O.O.O.O.o.o.o.o.o.[ [ uXR 7Xm.m.v.+.+.+.+.+.+.+.+.+.+.-.+.+.+.+.+.+.+.+.+.+.+.+.+.+.+.+.7XR NX~.XXXXXXXXXXXXXXbXR R R N &.&.&.+.&.&.&.&.&.&.&.#.#.#.&.#.#.&.#.#.#.#.v.(.^.(.R R yX{ @.@.@.t.t.t.} } 1.1.$.$.$.$.=.=.| | ....>.>.>.>.Y Y Q Q Q 9 p 5 3 1 1 2 7 8 6 ; : 4 , = - > & o @ * * + UX$ % . O O # # #                                         ",
"                                            # # # # O O . % $ + * * X @ o & > = < , 4 : 6 8 7 2 2 1 3 3 s q Q Q Q Y Y Y >.>.>.......| | =.=.$.$.$.1.1.1.} } } t.t.@.@.@.{ { { O.O.O.O.O.o.o.o.[ uXR 7Xm.m.v.+.&.+.+.+.+.+.+.+.+.+.+.+.+.+.+.+.-.+.-.+.-.+.+.+.+.hXR lXA.~.~.~.~.~.~.XXCXR R R hX&.+.&.&.&.&.&.&.&.&.#.&.#.&.#.#.#.#.#.#.#.#.4.v.(.(.k R R yX@.@.t.t.t.} } } 1.1.$.$.$.=.=.=.| | ....>.>.>.Y Y Y Q Q Q q f 5 3 1 1 2 7 8 6 ; : 4 , < - > & o @ X * + UX$ % . O O # # #                                           ",
"                                              # # # # O . . $ $ + * * X @ o & - = < , 4 : ; 6 8 7 2 1 3 3 5 a 9 Q Q Y Y Y >.>.>.>.....| | =.=.=.$.$.$.1.1.1.} } } t.t.@.@.@.{ { { O.O.O.O.O.o.o.uXR 7Xm.m.m.&.+.&.+.&.+.+.+.+.+.+.+.+.+.+.+.+.+.+.+.+.+.+.+.+.hXR lX*.~.~.~.~.~.~.~.CXR R R 7X&.&.&.&.&.&.&.&.#.#.#.&.#.#.#.#.#.#.#.#.#.4.4.#.m.(.(.dXR R yXt.t.t.} } } 1.1.1.$.$.=.=.=.| | ......>.>.>.Y Y Q Q Q 9 a 5 3 3 1 2 2 7 8 6 ; : 4 , < - > & o @ X * + UX$ % . O O # # # #                                           ",
"                                                # # # O O . % % UX+ * * X @ o & - = < , 4 : ; 6 8 7 2 1 3 3 5 f q Q Q Q Y Y Y >.>.>.>.....| | =.=.=.$.$.$.1.1.1.} } } t.t.t.@.@.@.{ { { { O.O.O.uXR 7XL.m.m.&.&.&.&.&.+.&.+.&.+.&.+.+.+.+.+.+.+.+.+.+.+.+.+.dXR @XB A.A.A.A.~.~.~.HXR R R 7Xv.&.&.&.&.#.&.#.#.#.&.#.#.#.#.#.#.#.#.#.4.4.4.4.4.L.(.(.dXR R yX} } } 1.1.1.$.$.$.$.=.=.| | | ....>.>.>.Y Y Q Q Q Q q f 5 3 3 1 2 7 7 8 6 ; 4 4 , = - > & o @ X * + UX$ % . O O # # # #                                             ",
"                                                  # # # O O . % $ UX+ * * X @ & & - = < , 4 : ; 6 8 7 2 1 1 3 3 5 a 9 Q Q Q Y Y Y >.>.>.>.....| | =.=.=.$.$.$.1.1.1.} } } t.t.t.@.@.@.@.{ { { O.Y R @XL.L.m.&.&.&.+.&.&.&.&.+.&.+.&.+.&.+.&.+.&.+.&.+.&.+.dXR @XzXA.A.A.A.A.A.A.nXR R R @Xv.&.&.&.&.#.&.#.&.#.&.#.#.#.#.#.#.4.4.4.4.4.4.4.4.4.Y.(.(.dXR R yX} 1.1.1.$.$.$.$.=.=.| | | ....>.>.>.>.Y Y Q Q Q 9 a 5 5 3 1 1 2 7 8 6 ; : 4 , < = - > & o @ X * + + $ % . . O # # # #                                               ",
"                                                  # # # # O O . % % $ + + * X @ o & > - < , 4 : ; 6 8 7 2 2 1 3 3 5 s r Q Q Q Q Y Y >.>.>.>.....| | | =.=.$.$.$.$.1.1.1.} } } t.t.t.@.@.@.@.{ { Q R R L.L.L.#.&.&.&.&.&.&.&.&.&.&.+.&.&.&.+.&.+.&.&.&.+.(.R R zX*.*.A.A.A.A.A.zX@XR R @X(.&.#.&.#.#.&.#.#.#.#.#.#.#.#.4.#.4.#.4.#.4.4.4.4.4.4.`.(.(.hXR R uX1.1.$.$.$.$.=.=.=.| | ....>.>.>.>.Y Y Y Q Q Q r s 5 3 3 1 2 2 7 8 6 ; : 4 , < = - & & o X X * + + $ % . . O # # # #                                                 ",
"                                                    # # # # O O . % % $ + + * X @ o & > - < , 4 : : 6 8 8 7 2 1 1 3 3 5 p q Q Q Q Y Y Y >.>.>.......| | | =.=.$.$.$.$.1.1.1.} } } } t.t.t.@.@.@.@.R R >XL.L.4.&.&.&.&.&.&.&.&.&.&.&.&.&.&.&.&.&.&.+.&.(.@XR HX*.*.*.*.*.*.*.zX@XR R R (.#.#.&.#.&.#.#.#.#.#.#.#.#.#.4.4.4.4.4.4.4.4.4.4.4.v.v.^.(.(.hXR R uX$.$.$.$.=.=.=.| | ......>.>.>.>.Y Y Q Q Q q p 5 3 3 1 1 2 7 7 8 6 ; : 4 , < - > & & o @ X * + + $ $ . . O O # # #                                                   ",
"                                                      # # # # O O . % % $ + + * X @ o & > - = , , 4 : ; 6 8 7 2 1 1 3 3 5 5 a 9 Q Q Q Y Y Y >.>.>.......| | | =.=.$.$.$.$.1.1.1.1.} } } t.t.t.@.@.R R dXL.L.v.#.#.#.&.&.&.&.&.&.&.&.&.&.&.&.&.&.&.&.v.@XR VX*.*.*.*.*.*.*.!.lXR R R dX#.#.#.#.#.#.#.#.#.#.#.4.#.4.4.#.4.4.4.4.4.4.v.4.v.v.v.v.(.(.(.7XR R fX$.=.=.=.=.| | ......>.>.>.>.Y Y Q Q Q 9 a 5 5 3 3 1 1 2 7 8 6 ; ; 4 4 , < - > & o @ X X * + UX$ $ . . O O # # #                                                     ",
"                                                        # # # # O O . % % $ + * * X @ o & > - = < , 4 : ; 6 8 7 2 2 1 1 3 3 5 s a 9 Q Q Q Y Y >.>.>.>.......| | | =.=.=.$.$.$.$.1.1.1.} } } } t.t.yXR hXY.L.m.#.#.&.#.#.#.#.&.&.&.&.&.&.&.&.&.&.&.v.7XR NX*.*.*.*.*.*.*.!.lXR R R dX#.&.#.#.#.#.#.#.#.#.4.4.#.4.4.4.4.4.4.4.4.v.v.4.v.v.v.v.m.(.(.(.R R R ..=.=.| | | ......>.>.>.>.Y Y Y Q Q 9 a s 5 3 3 1 1 2 2 7 8 6 ; : 4 , < = - > & o @ X * * + UX$ % . . O O # # #                                                       ",
"                                                          # # # # O O . % % $ + + * X @ o & & - = < , 4 : ; ; 6 8 7 2 1 1 3 3 5 5 s a 9 Q Q Q Y Y Y >.>.>.>.......| | =.=.=.$.$.$.$.$.1.1.1.1.} } uXR 7XY.Y.Y.#.#.#.#.#.&.#.#.#.#.#.#.#.#.#.#.#.#.BXR bX*.*.*.*.*.*.*.*.NXR R R hX#.#.#.#.#.#.#.4.#.4.4.#.4.4.4.4.4.4.v.4.v.v.4.v.v.v.v.v.v.Y.(.(.l R R yX| | | ......>.>.>.>.Y Y Y Q Q Q Q r s 5 5 3 3 1 1 2 7 8 6 6 ; : 4 , < = - > & o @ X * * + UX$ % . . O O # # #                                                         ",
"                                                              # # # # O . . $ $ UX+ * * X @ o & > - = < , 4 : ; 6 8 8 7 2 2 1 3 3 3 5 f r Q Q Q Q Y Y Y >.>.>.>.......| | | =.=.=.$.$.$.$.$.1.1.1.Q R R ^.Y.Y.v.#.#.#.#.#.#.#.&.#.&.#.&.#.&.#.#.hXR lX!.*.*.*.*.*.*.*.NXR R R hX#.#.#.#.#.#.#.4.4.4.4.4.4.4.4.4.4.4.v.4.v.4.v.v.v.v.v.v.v.m.^.(.(.hXR R yX| ......>.>.>.>.Y Y Y Q Q Q Q r f 5 5 3 3 1 2 2 7 8 8 6 ; : 4 , < = - > & & o X X * + + UX$ % . O O # # #                                                             ",
"                                                                # # # # O O . % $ UX+ * * X @ o & & - = < , 4 4 : ; 6 8 7 7 2 1 1 3 3 5 5 f a 9 Q Q Q Y Y Y >.>.>.>.......| | | =.=.=.=.$.$.$.$.$.$.R R dXY.Y.m.#.#.#.#.#.#.#.#.#.#.#.#.#.#.#.pXR lX!.*.*.*.*.*.*.*.VXR R R R N pXpXpXpXpXpXpXpXpXdX4.4.4.4.v.4.v.v.v.v.v.v.v.v.v.m.v.m.m.L.(.(.(.7XR R fX..>.>.>.>.>.Y Y Y Y Q Q 9 r f 5 5 3 3 1 1 2 7 7 8 6 ; : 4 4 , < = - > & o @ X * * + + $ $ % . O # # # #                                                               ",
"                                                                  # # # # O O . % % UX+ * * X @ o & & > - = < , 4 : ; 6 6 8 7 2 2 1 1 3 3 5 5 s a 9 Q Q Q Y Y Y Y >.>.>.>.......| | | =.=.=.=.$.$.$.uXR BXY.Y.Y.4.4.#.4.#.4.#.#.#.#.#.#.#.#.dXR @XzX*.*.*.*.*.*.*.HXR R R R R R R R R R R R R R R R Y.4.v.v.4.v.v.4.v.v.v.v.v.m.v.m.m.m.m.`.(.(.l R R R Q >.>.>.>.Y Y Y Q Q Q 9 a s 5 5 3 3 1 1 2 2 7 8 6 6 ; : 4 , < < - > & & o @ X * * + UX$ $ % . O # # # #                                                                 ",
"                                                                    # # # # O O . % % $ + + * X X @ o & > - = < , 4 4 : ; 6 8 7 7 2 2 1 3 3 3 5 5 5 a q Q Q Q Q Y Y >.>.>.>.>.>.......| | | | =.=.=.;XR R (.Y.Y.m.4.4.4.4.4.4.4.4.#.4.#.#.k R R zX*.*.*.*.*.*.*.*.zXzXzXzXzXzXzXzXzXzXzXzXzXNXR R R dXv.v.v.v.v.v.v.v.v.v.m.v.m.m.m.m.m.m.(.(.(.hXR R yX>.>.Y Y Y Y Q Q Q 9 a s 5 5 3 3 1 1 2 2 7 7 8 6 ; : : 4 , < = - > & o o @ X * + + UX$ % . . O # # # #                                                                   ",
"                                                                      # # # # O O . % % $ + + * * X @ o & & > - < < , 4 : ; ; 6 8 7 7 2 1 1 3 3 3 5 5 5 p r Q Q Q Y Y Y Y >.>.>.>.>.>.......| | | | =.R R N `.Y.Y.4.4.4.4.4.4.#.4.4.4.4.>X@XR HX*.*.*.*.*.!.*.*.*.*.*.*.*.!.*.*.*.*.*.*.*.NXR R R R hXv.v.v.v.v.v.v.m.m.m.m.m.m.m.m.m.L.`.(.(.(.@XR R uXY Y Y Q Q Q Q r p 5 5 5 3 3 1 1 2 2 7 7 8 6 ; : : 4 , , = - > & & o @ X X * + + UX$ % . O O # # # #                                                                     ",
"                                                                          # # # O O . . $ $ UX+ + * X @ o & & > - = < , , 4 : ; 6 6 8 7 2 2 1 1 1 3 3 5 5 5 s a 9 Q Q Q Y Y Y Y >.>.>.>.>.>.........=.uXR @X`.`.`.m.4.4.4.4.4.4.4.4.4.Y.@XR VX*.*.*.*.*.*.*.*.*.*.*.*.*.*.*.*.*.*.*.*.!.lXR R R R pXv.v.v.v.v.v.m.m.m.v.m.m.m.m.m.L.L.L.(.(.(.pXR R R Y Q Q Q Q 9 a f 5 5 5 3 3 1 1 1 2 7 7 8 6 6 ; : 4 , , < = - > & o o @ X * * + UX$ $ % . O O # # # #                                                                       ",
"                                                                            # # # O O . . % % $ + + * * X @ o & & > - = < , , 4 : ; ; 6 8 7 7 2 2 1 1 3 3 3 5 5 5 f r 9 Q Q Q Q Y Y Y Y >.>.>.>.>.>...Y R R pX`.`.Y.v.v.4.v.4.4.v.4.Y.7XR NX*.*.*.*.*.*.*.*.*.*.*.*.!.*.*.*.*.*.!.*.zX@XR R R @Xk v.v.v.m.v.m.m.m.v.m.m.m.m.L.L.L.L.L.`.(.(.>X7XR R uXQ Q 9 r p 5 5 5 3 3 3 1 1 2 2 7 7 8 6 ; ; : 4 , , < = - > & & o @ X X * + + UX$ % . . O # # # # #                                                                         ",
"                                                                              # # # # O O . % % $ UX+ + * X X @ o & & > - = < , 4 4 : ; 6 6 8 7 7 2 2 1 1 3 3 3 5 5 5 5 p r 9 Q Q Q Q Y Y Y Y >.>.>.>.>.uXR @X`.`.`.L.v.v.v.v.v.v.4.7XR bX*.*.*.*.*.!.*.*.*.*.*.*.*.*.*.*.*.*.*.*.HXR R R R 7X(.v.v.m.m.m.m.m.m.m.L.m.L.L.L.L.L.L.L.Y.(.>X(.pXR R R ;Xr p 5 5 5 5 3 3 3 1 1 2 2 7 8 8 6 ; ; : 4 4 , < = - > & & o @ X X * * + + $ $ % . O O # # # #                                                                             ",
"                                                                              # # # # # O O . . % % UX+ + * * X @ o o & > - - < < , 4 4 : ; 6 6 8 8 7 2 2 1 1 1 3 3 5 5 5 5 5 p r 9 Q Q Q Q Y Y Y Y Y >.Q R R N `.`.`.m.v.v.v.v.v.hXR @X!.*.*.*.*.*.*.*.*.*.!.*.*.*.*.*.*.*.*.*.VXR R R R hX`.m.m.m.m.m.m.m.m.m.L.m.L.L.L.L.L.Y.Y.Y.^.(.(.>X@XR F p s 5 5 5 5 3 3 1 1 1 2 2 7 8 8 6 ; ; : 4 4 , < < - - > & o o @ X * * + + UX$ $ % . O O # # # #                                                                               ",
"                                                                                  # # # # O O O . % % $ UX+ + * X X @ o & & > - = < < , 4 4 : ; ; 6 8 8 7 2 2 2 1 1 3 3 3 3 5 5 5 5 p r q Q Q Q Q Q Y Y Y uXR @X>X`.`.`.v.v.v.v.N R R R R R lXbXNXVXVXzXzX*.*.*.*.*.*.*.*.*.*.NXR R R R pXm.m.m.m.m.m.m.m.L.L.L.L.L.L.Y.L.Y.Y.Y.Y.`.(.(.k J p 5 5 5 5 5 3 3 3 1 1 1 2 2 7 8 8 6 ; ; : 4 4 , < < = - > & & o @ X X * + + + $ $ % . . O O # # # #                                                                                 ",
"                                                                                    # # # # # O O . % % $ UX+ + * * X @ @ o & & > - = < , , 4 4 : ; ; 6 8 8 7 7 2 2 1 1 1 3 3 3 5 5 5 5 5 f a r 9 Q Q Q Q Q yXR BX`.^.`.Y.m.v.v.k dX@XR R R R R R R R R R R @XB *.*.*.*.*.*.NXR R R @Xl m.m.m.m.L.L.L.L.L.L.L.L.L.Y.Y.Y.Y.Y.Y.Y.(.S D s 5 5 5 5 5 5 3 3 1 1 1 2 2 7 7 8 8 6 ; ; : 4 4 , < < = - > & & o @ @ X * * + + UX$ $ % . O O O # # #                                                                                     ",
"                                                                                      # # # # # O O . . % % $ UX+ + * X X @ @ o & & > - = < < , 4 4 : ; ; 6 6 8 8 7 2 2 2 1 1 1 3 3 3 5 5 5 5 5 5 f a r q Q uXR R pX^.`.`.L.m.m.m.m.l 7X7XR R R R R R R R R zX*.*.*.*.*.!.NXR R R @X>Xm.m.L.L.L.L.L.L.L.L.Y.L.Y.Y.Y.Y.Y.>XS D s 5 5 5 5 5 5 3 3 3 3 1 1 2 2 2 7 7 8 6 6 ; ; : 4 4 , , < = - > & & o @ @ X * * + + UX$ $ % . . O O # # # #                                                                                       ",
"                                                                                          # # # # # O O . % % % $ UX+ * * X X @ o o & & > - = < < , 4 4 : : ; ; 6 8 8 7 7 2 2 2 1 1 1 3 3 3 5 5 5 5 5 5 5 s p a F H l ^.^.^.L.m.m.m.m.m.m.m.m.l l dXhXR R HX*.*.*.*.*.B lXR R R @X>XL.L.L.L.L.L.L.L.L.L.Y.Y.Y.k S D M 5 5 5 5 5 5 5 5 3 3 3 1 1 1 1 2 2 7 7 8 8 6 6 ; : : 4 4 , < < = - > & & o o @ X * * + + + $ $ % . . O O # # # # #                                                                                         ",
"                                                                                            # # # # # # O O . . $ $ $ + + + * * X @ @ o & & > - - = < , , 4 4 : : ; ; 6 6 8 8 7 7 2 2 2 1 1 1 3 3 3 3 5 5 5 5 5 5 5 5 s M m m k (.L.L.m.m.m.m.m.m.m.7XR NX*.*.*.*.*.!.lXR R R 7X^.L.L.L.L.L.L.L.>Xk S m M s 5 5 5 5 5 5 5 3 3 3 3 3 1 1 1 1 2 2 2 7 8 8 6 6 ; ; : : 4 4 , , < = - - > & & o @ @ X * * + + + UX$ % . . O O O # # # # #                                                                                           ",
"                                                                                                # # # # # O O O . % % $ UX+ + + * * X @ @ o & & > > - = < < , , 4 4 : : ; ; 6 6 8 8 7 7 2 2 2 1 1 1 1 3 3 3 3 5 5 5 5 5 5 5 5 5 5 5 5 M M D m m m J F H g g g g g L H F F F H l m m m D M M 5 5 5 5 5 5 5 5 5 5 5 3 3 3 3 3 1 1 1 1 2 2 2 7 7 7 8 8 6 6 ; ; : : 4 , , < < = - > > & & o @ @ X * * + + + UX$ $ % . . O O # # # # #                                                                                               ",
"                                                                                                    # # # # # O O . % % % $ UX+ + + * * X @ @ o o & & > - - = < , , 4 4 : : ; ; ; 6 6 8 8 7 7 2 2 2 2 1 1 1 1 1 3 3 3 5 3 5 5 5 5 5 5 5 5 5 5 5 5 5 5 5 5 5 5 5 5 5 5 5 5 5 5 5 5 5 5 5 5 5 5 5 5 5 5 5 5 3 3 3 3 1 1 1 1 1 2 2 2 7 7 7 8 8 8 6 6 ; ; : : 4 4 , , < = = - > > & & o @ @ X * * + + + UX$ $ % . . O O # # # # # #                                                                                                 ",
"                                                                                                      # # # # # O O . . % % % $ UX+ + + * X X @ @ o & & & > - - = < < , , 4 4 : : : ; ; 6 6 8 8 8 7 7 2 2 2 2 1 1 1 1 1 1 3 1 3 3 3 3 3 3 3 3 5 5 5 5 5 5 5 5 5 5 5 5 5 5 5 5 3 5 3 5 3 3 5 3 3 3 3 1 3 1 1 1 1 1 1 2 2 2 2 7 7 8 8 8 6 6 ; ; ; : : 4 4 , , < < = - - > & & o o @ @ X * * + + + UX$ $ % . . O O O # # # # #                                                                                                     ",
"                                                                                                          # # # # # O O . . % % % $ UX+ + * * * X X @ o o & & & > - - = < < , , 4 4 4 : : ; ; 6 6 6 8 8 8 7 7 7 2 2 2 1 2 1 1 1 1 1 1 3 1 3 1 3 1 3 1 3 1 3 1 3 3 3 1 3 1 3 1 3 1 3 1 1 1 1 1 1 1 1 1 1 2 2 2 2 2 7 7 7 8 8 8 6 6 6 ; ; : : : 4 4 , , < < = - - > > & & o o @ X X * * + + + UX$ $ % . . O O O # # # # #                                                                                                         ",
"                                                                                                              # # # # # O O . . % % % $ UX+ + + * * X X @ @ o o & & > > - - = < < , , , 4 4 : : ; ; ; 6 6 6 8 8 8 8 7 7 7 7 2 2 2 2 2 2 2 2 1 1 2 1 2 1 1 1 1 1 2 1 1 1 1 2 1 1 2 1 2 1 2 2 2 2 2 2 7 7 7 7 7 8 8 8 8 6 6 6 ; ; : : : 4 4 4 , , < < = - - > > & & o o @ @ X X * * + + + UX$ $ % % . O O O # # # # #                                                                                                             ",
"                                                                                                                  # # # # # O O . . % % % $ $ UX+ + + * * X X @ @ o o & & & > - - = = < < , , , 4 4 : : : : ; ; ; 6 6 6 6 6 8 8 8 8 7 7 7 7 7 7 7 7 7 7 7 7 7 7 7 7 7 7 7 7 7 7 7 7 7 7 7 7 7 8 8 8 8 8 6 6 6 6 ; ; ; : : : 4 4 4 , , , < < = = - - > & & & o o @ @ X X * * + + + UXUX$ % % . . O O O # # # # #                                                                                                                 ",
"                                                                                                                      # # # # O O O . . % % % % $ UX+ + + * * * X X @ @ o o & & & > - - - = = < < , , , 4 4 4 : : : : ; ; ; ; 6 6 6 6 6 6 6 6 8 8 8 8 8 8 8 8 8 8 8 8 8 8 8 8 8 8 8 6 6 6 6 6 6 6 ; ; ; ; ; : : : : 4 4 4 , , , < < < = - - > > & & & o o @ @ X X * * * + + + UX$ $ $ % . . O O O # # # # #                                                                                                                     ",
"                                                                                                                          # # # # O O O . . . % % % $ $ UX+ + + * * * X X @ @ o o & & & > > - - - = < < < , , , , 4 4 4 4 4 : : : : ; ; ; ; ; ; ; ; ; ; ; ; ; ; ; ; ; ; ; ; ; ; ; ; ; ; ; ; : : : : : : 4 4 4 4 , , , , < < = = = - - > > & & & o o @ @ X X X * * + + + UXUX$ $ $ % % . O O O # # # # #                                                                                                                         ",
"                                                                                                                              # # # # O O O O . . % % % % $ UXUX+ + + * * * X @ @ @ o o & & & & > > - - - = = < < < < , , , , 4 4 4 4 4 4 4 4 : : : : : : : : : : : : : : : : : : : 4 4 4 4 4 4 4 , , , , , , < < < = = - - - > > & & & o o o @ @ X X X * * + + + + UX$ $ $ % % . . . O O # # # # #                                                                                                                             ",
"                                                                                                                                # # # # # # O O O . . . % % % % $ UX+ + + + * * X X X @ @ @ o o & & & & > > > - - - - = = = < < < , , , , , , , , , , , , , , , , , , , , , , , , , , , , , , < < < < < = = = - - - > > > & & & & o o o @ @ X X * * * + + + + UX$ $ $ $ % % . . O O O O # # # #                                                                                                                                 ",
"                                                                                                                                        # # # # # # # O O O . . % % % $ $ UX+ + + * * * * X X X @ @ @ o o o & & & & & > > > - - - - - - = = = = = = = = = = = = = = = = = = = = = = = = = - - - - - - > > > > & & & & & o o o @ @ @ X X * * * * + + + UXUX$ $ $ % . . . O O O # # # # #                                                                                                                                         ",
"                                                                                                                                            # # # # # # # # O O . . . % % % $ $ UX+ + + + * * * * X X X @ @ @ @ o o o & & & & & & & & > > > > > > > > > > > > > > > > > > > > > > > > > > > & & & & & & & & o o o o @ @ @ X X X X * * * + + + + UXUX$ $ $ % % . . O O O # # # # # # #                                                                                                                                           ",
"                                                                                                                                                  # # # # # # # O O O . . . % % % % $ UXUX+ + + + * * * * X X X X @ @ @ @ @ o o o o o o & & & & & & & & & & & & & & & & & & & & & & & & & o o o o o o @ @ @ @ @ X X X X * * * * + + + + UXUX$ $ $ $ % % . . O O O # # # # # # # #                                                                                                                                               ",
"                                                                                                                                                      # # # # # # # # # O O O . . % % % % $ $ UXUX+ + + + + * * * * * X X X X @ @ @ @ @ @ @ @ @ @ @ @ @ @ @ @ @ @ @ @ @ @ @ @ @ @ @ @ @ @ @ @ @ @ X X X X X X * * * * + + + + + UXUX$ $ $ $ % % . . . O O O # # # # # # # #                                                                                                                                                     "
};
